; HEADER_BLOCK_START
; generated by OrcaSlicer 1.7.0 on 2023-11-05 at 09:54:42
; total layer number: 1
; HEADER_BLOCK_END

; THUMBNAIL_BLOCK_START
; THUMBNAIL_BLOCK_END

; external perimeters extrusion width = 0.40mm
; perimeters extrusion width = 0.40mm
; infill extrusion width = 0.45mm
; solid infill extrusion width = 0.40mm
; top infill extrusion width = 0.40mm
; first layer extrusion width = 0.50mm

; external perimeters extrusion width = 0.40mm
; perimeters extrusion width = 0.40mm
; infill extrusion width = 0.45mm
; solid infill extrusion width = 0.40mm
; top infill extrusion width = 0.40mm
; first layer extrusion width = 0.50mm

; external perimeters extrusion width = 0.40mm
; perimeters extrusion width = 0.40mm
; infill extrusion width = 0.45mm
; solid infill extrusion width = 0.40mm
; top infill extrusion width = 0.40mm
; first layer extrusion width = 0.50mm

; EXECUTABLE_BLOCK_START
EXCLUDE_OBJECT_DEFINE NAME=3x3in-calibration-test-v3.stl_id_0_copy_0 CENTER=67.0332,69.161 POLYGON=[[28.9332,31.061],[105.133,31.061],[105.133,107.261],[28.9332,107.261],[28.9332,31.061]]
EXCLUDE_OBJECT_DEFINE NAME=3x3in-calibration-test-v3.stl_id_1_copy_0 CENTER=165.783,67.796 POLYGON=[[127.683,29.696],[203.883,29.696],[203.883,105.896],[127.683,105.896],[127.683,29.696]]
EXCLUDE_OBJECT_DEFINE NAME=3x3in-calibration-test-v3.stl_id_2_copy_0 CENTER=268.486,71.9839 POLYGON=[[230.386,33.8839],[306.586,33.8839],[306.586,110.084],[230.386,110.084],[230.386,33.8839]]
M73 P0 R18
M106 S0
M106 P2 S0
;TYPE:Custom
M190 S90
M109 S150
PRINT_START EXTRUDER=230 BED=90
; You can use following code instead if your PRINT_START macro support Chamber and print area bedmesh
; PRINT_START EXTRUDER=230 BED=90 Chamber=0 PRINT_MIN=24.3624,25.1253 PRINT_MAX=311.157,114.655
G90
G21
M83 ; use relative distances for extrusion
; Filament gcode
SET_PRESSURE_ADVANCE ADVANCE=0.0372; Override pressure advance value
;LAYER_CHANGE
;Z:0.2
;HEIGHT:0.2
;BEFORE_LAYER_CHANGE
;0.2
G92 E0

;AFTER_LAYER_CHANGE
;0.2
;_SET_FAN_SPEED_CHANGING_LAYER
SET_VELOCITY_LIMIT ACCEL=500 ACCEL_TO_DECEL=250
SET_VELOCITY_LIMIT SQUARE_CORNER_VELOCITY=5
; printing object 3x3in-calibration-test-v3.stl id:2 copy 0
G1 E-.5 F1800
EXCLUDE_OBJECT_START NAME=3x3in-calibration-test-v3.stl_id_2_copy_0
G1 X226.092 Y33.244 F15000
G1 Z.2
G1 E.5 F1800
;TYPE:Brim
;WIDTH:0.5
G1 X226.233 Y32.618 E.02335
G1 X226.465 Y32.02 E.02335
G1 X226.783 Y31.462 E.02335
G1 X227.179 Y30.957 E.02335
G1 X227.645 Y30.516 E.02335
G1 X228.172 Y30.149 E.02335
G1 X228.746 Y29.864 E.02335
G1 X229.357 Y29.666 E.02335
G1 X229.993 Y29.56 E.02347
G1 X230.391 Y29.542 E.0145
G1 X306.578 Y29.542 E2.7725
G1 X307.226 Y29.59 E.02366
G1 X307.852 Y29.731 E.02335
G1 X308.45 Y29.963 E.02335
G1 X309.008 Y30.281 E.02335
G1 X309.513 Y30.677 E.02335
G1 X309.953 Y31.143 E.02335
G1 X310.321 Y31.67 E.02335
G1 X310.606 Y32.244 E.02335
G1 X310.804 Y32.855 E.02335
G1 X310.91 Y33.491 E.02347
G1 X310.928 Y33.889 E.0145
G1 X310.928 Y110.075 E2.7725
G1 X310.88 Y110.724 E.02366
G1 X310.739 Y111.35 E.02335
G1 X310.507 Y111.948 E.02335
G1 X310.189 Y112.506 E.02335
G1 X309.793 Y113.011 E.02335
G1 X309.326 Y113.451 E.02335
G1 X308.8 Y113.818 E.02335
G1 X308.225 Y114.104 E.02335
G1 X307.615 Y114.302 E.02335
G1 X306.979 Y114.408 E.02347
G1 X306.581 Y114.426 E.0145
G1 X230.394 Y114.426 E2.7725
G1 X229.746 Y114.378 E.02366
G1 X229.12 Y114.237 E.02335
G1 X228.522 Y114.005 E.02335
G1 X227.964 Y113.687 E.02335
G1 X227.459 Y113.291 E.02335
G1 X227.019 Y112.824 E.02335
G1 X226.651 Y112.298 E.02335
G1 X226.366 Y111.723 E.02335
G1 X226.168 Y111.113 E.02335
G1 X226.062 Y110.477 E.02347
G1 X226.044 Y110.079 E.0145
G1 X226.044 Y33.892 E2.7725
M73 P1 R18
G1 X226.089 Y33.284 E.02221
G1 X226.544 Y33.322 F15000
G1 F1800
G1 X226.675 Y32.742 E.02162
G1 X226.875 Y32.226 E.02015
G1 X227.158 Y31.726 E.02088
G1 X227.525 Y31.259 E.02162
G1 X227.943 Y30.866 E.02088
G1 X228.397 Y30.549 E.02015
G1 X228.91 Y30.293 E.02088
G1 X229.476 Y30.11 E.02162
G1 X230.033 Y30.017 E.02057
G1 X230.405 Y29.999 E.01353
G1 X306.566 Y29.999 E2.77158
G1 X307.168 Y30.045 E.02199
G1 X307.728 Y30.173 E.02088
G1 X308.244 Y30.373 E.02015
G1 X308.743 Y30.656 E.02088
G1 X309.211 Y31.023 E.02162
G1 X309.604 Y31.441 E.02088
G1 X309.921 Y31.895 E.02015
G1 X310.177 Y32.408 E.02088
G1 X310.36 Y32.974 E.02162
G1 X310.453 Y33.531 E.02057
G1 X310.471 Y33.896 E.01331
G1 X310.471 Y110.053 E2.77143
G1 X310.428 Y110.646 E.02163
G1 X310.297 Y111.226 E.02162
G1 X310.097 Y111.742 E.02015
G1 X309.814 Y112.241 E.02088
G1 X309.447 Y112.709 E.02162
G1 X309.029 Y113.102 E.02088
G1 X308.575 Y113.418 E.02015
G1 X308.062 Y113.675 E.02088
G1 X307.496 Y113.858 E.02162
G1 X306.939 Y113.951 E.02057
G1 X306.567 Y113.969 E.01353
G1 X230.416 Y113.969 E2.77121
G1 X229.824 Y113.926 E.02163
G1 X229.244 Y113.795 E.02162
G1 X228.728 Y113.595 E.02015
G1 X228.229 Y113.312 E.02088
G1 X227.761 Y112.945 E.02162
G1 X227.368 Y112.527 E.02088
G1 X227.051 Y112.073 E.02015
G1 X226.795 Y111.559 E.02088
G1 X226.612 Y110.994 E.02162
G1 X226.519 Y110.437 E.02057
G1 X226.501 Y110.065 E.01353
G1 X226.501 Y33.914 E2.77121
M73 P2 R18
G1 X226.541 Y33.361 E.02017
G1 X226.999 Y33.396 F15000
G1 F1800
G1 X227 Y33.379 E.00062
G1 X227.117 Y32.866 E.01914
G1 X227.294 Y32.413 E.01769
G1 X227.534 Y31.991 E.01768
G1 X227.871 Y31.562 E.01985
G1 X228.24 Y31.216 E.0184
G1 X228.64 Y30.939 E.01772
G1 X229.075 Y30.721 E.01768
G1 X229.594 Y30.553 E.01987
G1 X230.074 Y30.473 E.0177
G1 X230.419 Y30.456 E.01257
G1 X306.543 Y30.456 E2.77023
G1 X307.089 Y30.498 E.01994
G1 X307.603 Y30.615 E.01917
G1 X308.056 Y30.792 E.01772
G1 X308.479 Y31.032 E.01768
G1 X308.908 Y31.369 E.01985
G1 X309.254 Y31.738 E.0184
G1 X309.531 Y32.138 E.01772
G1 X309.748 Y32.573 E.01768
G1 X309.917 Y33.092 E.01987
G1 X309.997 Y33.572 E.01771
G1 X310.014 Y33.904 E.0121
G1 X310.014 Y110.032 E2.77036
G1 X309.972 Y110.589 E.02033
G1 X309.855 Y111.102 E.01914
G1 X309.678 Y111.554 E.01769
G1 X309.438 Y111.977 E.01768
G1 X309.101 Y112.406 E.01985
G1 X308.732 Y112.751 E.0184
G1 X308.332 Y113.029 E.01772
G1 X307.897 Y113.246 E.01768
G1 X307.378 Y113.415 E.01987
G1 X306.898 Y113.495 E.0177
G1 X306.553 Y113.512 E.01257
G1 X230.438 Y113.512 E2.7699
G1 X229.881 Y113.47 E.02033
G1 X229.368 Y113.353 E.01914
G1 X228.916 Y113.176 E.01769
G1 X228.493 Y112.936 E.01768
G1 X228.064 Y112.599 E.01985
G1 X227.718 Y112.23 E.0184
G1 X227.441 Y111.829 E.01772
G1 X227.224 Y111.395 E.01768
G1 X227.055 Y110.876 E.01987
G1 X226.975 Y110.396 E.0177
G1 X226.958 Y110.051 E.01257
G1 X226.958 Y33.936 E2.7699
M73 P3 R18
G1 X226.996 Y33.436 E.01825
G1 X227.451 Y33.47 F15000
G1 F1800
G1 X227.452 Y33.458 E.00044
G1 X227.559 Y32.992 E.0174
G1 X227.705 Y32.619 E.01455
G1 X227.909 Y32.255 E.01522
G1 X228.216 Y31.864 E.01807
G1 X228.536 Y31.567 E.01589
G1 X228.866 Y31.339 E.01461
G1 X229.239 Y31.15 E.01522
G1 X229.713 Y30.997 E.01812
G1 X230.116 Y30.93 E.01485
G1 X230.434 Y30.913 E.0116
G1 X306.52 Y30.913 E2.76887
G1 X307.011 Y30.95 E.01789
G1 X307.478 Y31.057 E.01742
G1 X307.851 Y31.202 E.01457
G1 X308.215 Y31.407 E.01522
G1 X308.606 Y31.714 E.01807
G1 X308.903 Y32.034 E.01589
G1 X309.131 Y32.364 E.01461
G1 X309.32 Y32.737 E.01522
G1 X309.473 Y33.211 E.01812
G1 X309.54 Y33.614 E.01487
G1 X309.557 Y33.912 E.01088
G1 X309.557 Y110.009 E2.76925
G1 X309.52 Y110.51 E.01827
G1 X309.413 Y110.976 E.0174
G1 X309.267 Y111.348 E.01455
G1 X309.063 Y111.713 E.01522
G1 X308.756 Y112.103 E.01807
G1 X308.436 Y112.401 E.01589
G1 X308.106 Y112.629 E.01461
G1 X307.733 Y112.817 E.01522
G1 X307.259 Y112.971 E.01812
G1 X306.856 Y113.038 E.01485
G1 X306.538 Y113.055 E.0116
G1 X230.461 Y113.055 E2.76854
M73 P3 R17
G1 X229.96 Y113.017 E.01827
G1 X229.494 Y112.911 E.0174
G1 X229.121 Y112.765 E.01455
G1 X228.757 Y112.56 E.01522
G1 X228.366 Y112.254 E.01807
G1 X228.069 Y111.934 E.01589
G1 X227.841 Y111.604 E.01461
G1 X227.652 Y111.231 E.01522
G1 X227.499 Y110.757 E.01812
G1 X227.432 Y110.354 E.01485
G1 X227.415 Y110.036 E.0116
G1 X227.415 Y33.959 E2.76854
M73 P4 R17
G1 X227.449 Y33.51 E.01637
G1 X227.904 Y33.544 F15000
G1 F1800
G1 X227.905 Y33.536 E.00026
G1 X228.001 Y33.117 E.01565
G1 X228.123 Y32.807 E.01213
G1 X228.285 Y32.519 E.01204
G1 X228.561 Y32.168 E.01625
G1 X228.831 Y31.919 E.01336
G1 X229.109 Y31.728 E.01225
G1 X229.404 Y31.579 E.01205
G1 X229.832 Y31.44 E.01635
G1 X230.158 Y31.386 E.01203
G1 X230.449 Y31.37 E.01064
G1 X306.498 Y31.37 E2.76749
G1 X306.932 Y31.403 E.01584
G1 X307.352 Y31.498 E.01568
G1 X307.663 Y31.621 E.01215
G1 X307.951 Y31.783 E.01204
G1 X308.302 Y32.059 E.01625
G1 X308.551 Y32.329 E.01336
G1 X308.742 Y32.607 E.01225
G1 X308.891 Y32.902 E.01205
G1 X309.03 Y33.33 E.01635
G1 X309.084 Y33.656 E.01206
G1 X309.099 Y33.928 E.00991
G1 X309.1 Y109.987 E2.76785
G1 X309.067 Y110.431 E.01621
G1 X308.971 Y110.851 E.01565
G1 X308.849 Y111.161 E.01213
G1 X308.687 Y111.449 E.01204
G1 X308.411 Y111.8 E.01625
G1 X308.141 Y112.049 E.01336
G1 X307.863 Y112.24 E.01225
G1 X307.568 Y112.389 E.01205
G1 X307.14 Y112.527 E.01635
G1 X306.814 Y112.582 E.01203
G1 X306.522 Y112.598 E.01064
G1 X230.483 Y112.598 E2.76716
G1 X230.039 Y112.565 E.01621
G1 X229.619 Y112.469 E.01565
G1 X229.309 Y112.347 E.01213
G1 X229.021 Y112.184 E.01204
G1 X228.67 Y111.909 E.01625
G1 X228.421 Y111.639 E.01336
G1 X228.23 Y111.361 E.01225
G1 X228.081 Y111.066 E.01205
G1 X227.942 Y110.638 E.01635
G1 X227.888 Y110.312 E.01203
G1 X227.872 Y110.02 E.01064
G1 X227.872 Y33.981 E2.76716
M73 P5 R17
G1 X227.901 Y33.583 E.0145
G1 X228.373 Y33.66 F15000
G1 F1800
G1 X228.422 Y33.356 E.01118
G1 X228.525 Y33.05 E.01176
G1 X228.673 Y32.77 E.01151
G1 X228.91 Y32.473 E.01382
G1 X229.164 Y32.254 E.01221
G1 X229.505 Y32.054 E.01437
G1 X230.022 Y31.882 E.01986
G1 X230.427 Y31.827 E.01487
G1 X306.538 Y31.827 E2.76975
G1 X307.113 Y31.92 E.02122
G1 X307.418 Y32.022 E.01169
G1 X307.786 Y32.231 E.01538
G1 X308.07 Y32.483 E.01384
G1 X308.269 Y32.741 E.01185
G1 X308.463 Y33.113 E.01526
G1 X308.588 Y33.519 E.01546
G1 X308.643 Y33.925 E.01493
G1 X308.643 Y110.036 E2.76975
G1 X308.55 Y110.611 E.02122
G1 X308.448 Y110.916 E.01169
G1 X308.239 Y111.284 E.01538
G1 X307.987 Y111.568 E.01384
G1 X307.729 Y111.767 E.01185
G1 X307.357 Y111.961 E.01526
G1 X306.951 Y112.086 E.01546
G1 X306.545 Y112.141 E.01493
G1 X230.434 Y112.141 E2.76975
G1 X229.859 Y112.048 E.02122
G1 X229.554 Y111.946 E.01169
G1 X229.186 Y111.737 E.01538
G1 X228.902 Y111.485 E.01384
G1 X228.703 Y111.227 E.01185
G1 X228.509 Y110.855 E.01526
G1 X228.384 Y110.449 E.01546
G1 X228.329 Y110.043 E.01493
G1 X228.329 Y33.932 E2.76975
G1 X228.367 Y33.699 E.00858
G1 X228.812 Y33.778 F15000
G1 F1800
G1 X228.874 Y33.427 E.01297
G1 X228.957 Y33.198 E.00889
G1 X229.076 Y32.986 E.00883
G1 X229.266 Y32.76 E.01074
G1 X229.458 Y32.603 E.00904
G1 X229.737 Y32.448 E.01163
G1 X230.166 Y32.316 E.01632
G1 X230.418 Y32.284 E.00924
G1 X306.549 Y32.284 E2.77049
M73 P6 R17
G1 X307.043 Y32.372 E.01824
G1 X307.272 Y32.455 E.00889
G1 X307.484 Y32.574 E.00883
G1 X307.71 Y32.763 E.01074
G1 X307.866 Y32.956 E.00904
G1 X308.022 Y33.235 E.01163
G1 X308.154 Y33.664 E.01632
G1 X308.186 Y33.916 E.00924
G1 X308.186 Y110.047 E2.77049
G1 X308.098 Y110.54 E.01824
G1 X308.015 Y110.77 E.00889
G1 X307.896 Y110.982 E.00883
G1 X307.706 Y111.208 E.01074
G1 X307.514 Y111.364 E.00904
G1 X307.235 Y111.52 E.01163
G1 X306.806 Y111.652 E.01632
G1 X306.554 Y111.684 E.00924
G1 X230.423 Y111.684 E2.77049
G1 X229.929 Y111.596 E.01824
G1 X229.7 Y111.513 E.00889
G1 X229.488 Y111.394 E.00883
G1 X229.262 Y111.204 E.01074
G1 X229.106 Y111.011 E.00904
G1 X228.95 Y110.733 E.01163
G1 X228.818 Y110.304 E.01632
G1 X228.786 Y110.052 E.00924
G1 X228.786 Y33.921 E2.77049
G1 X228.805 Y33.818 E.00382
G1 X229.244 Y33.906 F15000
G1 F1800
G1 X229.323 Y33.508 E.01474
G1 X229.382 Y33.364 E.00567
G1 X229.473 Y33.212 E.00645
G1 X229.61 Y33.06 E.00745
G1 X229.736 Y32.966 E.00572
G1 X229.963 Y32.845 E.00934
G1 X230.294 Y32.754 E.01251
G1 X230.409 Y32.741 E.00422
G1 X306.561 Y32.741 E2.77124
M73 P7 R17
G1 X306.961 Y32.821 E.01486
G1 X307.106 Y32.88 E.00567
G1 X307.258 Y32.971 E.00645
G1 X307.41 Y33.108 E.00745
G1 X307.504 Y33.234 E.00572
G1 X307.625 Y33.461 E.00934
G1 X307.716 Y33.792 E.01251
G1 X307.729 Y33.907 E.00422
G1 X307.729 Y110.059 E2.77124
G1 X307.649 Y110.459 E.01486
G1 X307.59 Y110.604 E.00567
G1 X307.499 Y110.756 E.00645
G1 X307.362 Y110.908 E.00745
G1 X307.236 Y111.002 E.00572
G1 X307.009 Y111.123 E.00934
G1 X306.678 Y111.213 E.01251
G1 X306.563 Y111.227 E.00422
G1 X230.411 Y111.227 E2.77124
G1 X230.011 Y111.146 E.01486
G1 X229.866 Y111.088 E.00567
G1 X229.714 Y110.997 E.00645
G1 X229.562 Y110.86 E.00745
G1 X229.468 Y110.734 E.00572
G1 X229.347 Y110.507 E.00934
G1 X229.256 Y110.176 E.01251
G1 X229.243 Y110.061 E.00422
G1 X229.243 Y33.945 E2.76991
G1 X229.7 Y33.945 F15000
G1 F1800
G1 X229.7 Y33.895 E.00182
G1 X229.769 Y33.607 E.01078
G1 X229.872 Y33.435 E.00732
G1 X230.018 Y33.326 E.00659
G1 X230.172 Y33.251 E.00625
G1 X230.402 Y33.198 E.00858
G1 X306.575 Y33.198 E2.77202
M73 P8 R17
G1 X306.863 Y33.267 E.01078
G1 X307.035 Y33.37 E.00732
G1 X307.144 Y33.515 E.00659
G1 X307.219 Y33.67 E.00625
G1 X307.272 Y33.899 E.00858
G1 X307.272 Y110.072 E2.77202
G1 X307.203 Y110.361 E.01078
G1 X307.1 Y110.533 E.00732
G1 X306.954 Y110.641 E.00659
G1 X306.8 Y110.717 E.00625
G1 X306.57 Y110.769 E.00858
G1 X230.397 Y110.769 E2.77202
G1 X230.109 Y110.7 E.01078
G1 X229.937 Y110.597 E.00732
G1 X229.828 Y110.452 E.00659
G1 X229.753 Y110.298 E.00625
G1 X229.7 Y110.068 E.00858
G1 X229.7 Y33.985 E2.76874
G1 X230.157 Y33.985 F15000
G1 F1800
G1 X230.157 Y33.884 E.0037
G1 X230.206 Y33.743 E.00543
G1 X230.386 Y33.655 E.00728
G1 X306.586 Y33.655 E2.773
M73 P9 R16
G1 X306.727 Y33.704 E.00543
G1 X306.815 Y33.884 E.00728
G1 X306.815 Y110.084 E2.773
G1 X306.766 Y110.225 E.00543
G1 X306.586 Y110.312 E.00728
G1 X230.386 Y110.312 E2.773
G1 X230.245 Y110.264 E.00543
G1 X230.157 Y110.084 E.00728
G1 X230.157 Y34.025 E2.76785
G1 E-.5
G1 X306.336 Y109.834 F15000
G1 E.5 F1800
;TYPE:Outer wall
;WIDTH:0.499999
G1 X230.636 Y109.834 E2.7548
M73 P10 R16
G1 X230.636 Y34.134 E2.7548
G1 X306.336 Y34.134 E2.7548
G1 X306.336 Y71.984 E1.3774
G1 X306.336 Y109.794 E1.37594
G1 X305.879 Y109.377 F15000
;TYPE:Inner wall
G1 F1800
G1 X231.093 Y109.377 E2.72153
G1 X231.093 Y34.591 E2.72153
M73 P11 R16
G1 X305.879 Y34.591 E2.72153
G1 X305.879 Y71.984 E1.36077
G1 X305.879 Y109.337 E1.35931
G1 X305.422 Y108.92 F15000
G1 F1800
G1 X231.55 Y108.92 E2.68827
G1 X231.55 Y35.048 E2.68827
M73 P12 R16
G1 X305.422 Y35.048 E2.68827
G1 X305.422 Y71.984 E1.34413
G1 X305.422 Y108.88 E1.34268
G1 X304.965 Y108.463 F15000
G1 F1800
G1 X232.007 Y108.463 E2.655
G1 X232.007 Y35.505 E2.655
G1 X304.965 Y35.505 E2.655
M73 P13 R16
G1 X304.965 Y71.984 E1.3275
G1 X304.965 Y108.423 E1.32604
G1 E-.5
G1 X303.904 Y35.642 F15000
G1 E.5 F1800
;TYPE:Bottom surface
;WIDTH:0.50005
G1 F3600
G1 X304.622 Y36.361 E.03698
G1 X304.622 Y37.007 E.02353
G1 X303.463 Y35.848 E.05966
G1 X302.816 Y35.848 E.02353
G1 X304.622 Y37.654 E.09294
G1 X304.622 Y38.3 E.02353
G1 X302.17 Y35.848 E.12621
G1 X301.523 Y35.848 E.02353
G1 X304.622 Y38.947 E.15949
G1 X304.622 Y39.593 E.02353
G1 X300.877 Y35.848 E.19276
G1 X300.23 Y35.848 E.02353
G1 X304.622 Y40.24 E.22604
G1 X304.622 Y40.886 E.02353
G1 X299.584 Y35.848 E.25931
G1 X298.937 Y35.848 E.02353
G1 X304.622 Y41.532 E.29259
G1 X304.622 Y42.179 E.02353
G1 X298.291 Y35.848 E.32586
G1 X297.644 Y35.848 E.02353
G1 X304.622 Y42.825 E.35913
G1 X304.622 Y43.472 E.02353
G1 X296.998 Y35.848 E.39241
G1 X296.351 Y35.848 E.02353
G1 X304.622 Y44.118 E.42568
G1 X304.622 Y44.765 E.02353
G1 X295.705 Y35.848 E.45896
G1 X295.059 Y35.848 E.02353
G1 X304.622 Y45.411 E.49223
G1 X304.622 Y46.058 E.02353
G1 X294.412 Y35.848 E.52551
G1 X293.766 Y35.848 E.02353
G1 X304.622 Y46.704 E.55878
G1 X304.622 Y47.351 E.02353
G1 X293.119 Y35.848 E.59206
G1 X292.473 Y35.848 E.02353
G1 X304.622 Y47.997 E.62533
M73 P14 R16
G1 X304.622 Y48.644 E.02353
G1 X291.826 Y35.848 E.65861
G1 X291.18 Y35.848 E.02353
G1 X304.622 Y49.29 E.69188
G1 X304.622 Y49.937 E.02353
G1 X290.533 Y35.848 E.72516
G1 X289.887 Y35.848 E.02353
