; generated by SuperSlicer 2.4 on 2023-10-30 at 11:24:26 UTC


;
;

;
;
; 

; external perimeters extrusion width = 0.42mm
; perimeters extrusion width = 0.44mm
; infill extrusion width = 0.44mm
; solid infill extrusion width = 0.44mm
; top infill extrusion width = 0.42mm
; first layer extrusion width = 0.56mm

; object:{"name":"3x3in-calibration-test-v3","id":"3x3in-calibration-test-v3.stl id:0 copy 0","object_center":[61.966203,59.775628,0.000000],"boundingbox_center":[61.966203,59.775628,0.100000],"boundingbox_size":[76.199997,76.199997,0.200000]}
; object:{"name":"3x3in-calibration-test-v3","id":"3x3in-calibration-test-v3.stl id:0 copy 1","object_center":[150.989798,56.033556,0.000000],"boundingbox_center":[150.989798,56.033556,0.100000],"boundingbox_size":[76.199997,76.199997,0.200000]}
; object:{"name":"3x3in-calibration-test-v3","id":"3x3in-calibration-test-v3.stl id:0 copy 2","object_center":[244.245389,54.409652,0.000000],"boundingbox_center":[244.245389,54.409652,0.100000],"boundingbox_size":[76.199997,76.199997,0.200000]}
; plater:{"center":[153.105796,57.092640,0.000000],"boundingbox_center":[153.105796,57.092640,0.100000],"boundingbox_size":[258.479183,81.565974,0.200000]}

M73 P0 R21


; Pre-Processed for Cancel-Object support by preprocess_cancellation v0.2.0
; 3 known objects
EXCLUDE_OBJECT_DEFINE NAME=3x3in_calibration_test_v3_stl_id_0_copy_0 CENTER=61.976,59.943 POLYGON=[[23.46,21.269],[23.46,98.282],[100.473,98.282],[100.473,21.269]]
EXCLUDE_OBJECT_DEFINE NAME=3x3in_calibration_test_v3_stl_id_0_copy_1 CENTER=150.999,56.201 POLYGON=[[112.483,17.527],[112.483,94.54],[189.496,94.54],[189.496,17.527]]
EXCLUDE_OBJECT_DEFINE NAME=3x3in_calibration_test_v3_stl_id_0_copy_2 CENTER=244.255,54.577 POLYGON=[[205.739,15.903],[205.739,92.916],[282.752,92.916],[282.752,15.903]]
;TYPE:Custom
; custom gcode: start_gcode
PRINT_START BED=105 EXTRUDER=230
; custom gcode end: start_gcode
M107
G21 ; set units to millimeters
G90 ; use absolute coordinates
M83 ; use relative distances for extrusion
; custom gcode: start_filament_gcode
; Filament gcode
; Macro syntax: https://help.prusa3d.com/article/macros_1775

; Set pressure advance per-filament
SET_PRESSURE_ADVANCE ADVANCE=0.0372

; Set pressure advance per-filament for different nozzle sizes
;SET_PRESSURE_ADVANCE ADVANCE=0.0x
;

; custom gcode end: start_filament_gcode
;_TOOLCHANGE 0
M109 S230 ; set temperature and wait for it to be reached
M190 S105 ; set bed temperature and wait for it to be reached
;LAYER_CHANGE
;Z:0.3
;HEIGHT:0.3
G1 Z0.3 F7800
G92 E0
M73 P1 R20
G1 E-0.6 F1800
G1 Z0.6 F7800
G1 X18.488 Y16.893
G1 Z0.3
G1 E0.6 F1800
;TYPE:Skirt
;WIDTH:0.52
G1 X17.349 Y18.802 E0.11699
G1 X16.952 Y20.989 E0.11699
G1 X16.952 Y98.562 E4.08206
G1 X17.697 Y101.516 E0.16029
G1 X19.084 Y103.253 E0.11699
G1 X20.992 Y104.393 E0.11699
G1 X23.18 Y104.79 E0.11699
G1 X100.753 Y104.79 E4.08206
M73 P2 R20
G1 X283.215 Y99.421 E9.60572
G1 X285.986 Y98.679 E0.15093
G1 X287.723 Y97.292 E0.11699
G1 X288.863 Y95.384 E0.11699
G1 X289.26 Y93.196 E0.11699
G1 X289.26 Y15.623 E4.08206
G1 X288.515 Y12.669 E0.16029
G1 X287.128 Y10.932 E0.11699
G1 X285.219 Y9.792 E0.11699
G1 X283.032 Y9.395 E0.11699
G1 X205.459 Y9.395 E4.08206
G1 X112.095 Y11.02 E4.91376
M73 P3 R20
G1 X22.918 Y14.767 E4.69681
G1 X20.226 Y15.506 E0.14691
G1 X18.488 Y16.893 E0.11699
G1 E-0.6
G1 Z0.6 F7800
; printing object 3x3in-calibration-test-v3.stl id:0 copy 0
EXCLUDE_OBJECT_START NAME=3x3in_calibration_test_v3_stl_id_0_copy_0
G1 X23.46 Y21.269
G1 Z0.3
G1 E0.6 F1800
;TYPE:External perimeter
;WIDTH:0.56
G1 X100.473 Y21.269 E4.40838
G1 X100.473 Y98.282 E4.40838
G1 X23.46 Y98.282 E4.40838
M73 P4 R20
G1 X23.46 Y21.269 E4.40838
;WIPE_START
G1 X23.806 Y21.469 F7800
;WIPE_END
G1 E-0.6 F1800
G1 Z0.6 F7800
G1 X99.322 Y21.418
G1 Z0.3
G1 E0.6 F1800
;TYPE:Solid infill
;WIDTH:0.559267
G1 X100.111 Y22.207 E0.06377
G1 X100.111 Y22.907 E0.04007
G1 X98.834 Y21.631 E0.1032
G1 X98.133 Y21.631 E0.04007
G1 X100.111 Y23.608 E0.15987
G1 X100.111 Y24.309 E0.04007
G1 X97.433 Y21.631 E0.21654
G1 X96.732 Y21.631 E0.04007
G1 X100.111 Y25.01 E0.2732
G1 X100.111 Y25.711 E0.04007
G1 X96.031 Y21.631 E0.32987
G1 X95.33 Y21.631 E0.04007
G1 X100.111 Y26.412 E0.38654
G1 X100.111 Y27.113 E0.04007
G1 X94.629 Y21.631 E0.4432
G1 X93.928 Y21.631 E0.04007
G1 X100.111 Y27.814 E0.49987
G1 X100.111 Y28.515 E0.04007
G1 X93.227 Y21.631 E0.55653
G1 X92.526 Y21.631 E0.04007
G1 X100.111 Y29.216 E0.6132
G1 X100.111 Y29.917 E0.04007
G1 X91.825 Y21.631 E0.66987
G1 X91.124 Y21.631 E0.04007
G1 X100.111 Y30.617 E0.72653
G1 X100.111 Y31.318 E0.04007
G1 X90.423 Y21.631 E0.7832
G1 X89.723 Y21.631 E0.04007
G1 X100.111 Y32.019 E0.83986
G1 X100.111 Y32.72 E0.04007
G1 X89.022 Y21.631 E0.89653
G1 X88.321 Y21.631 E0.04007
G1 X100.111 Y33.421 E0.9532
G1 X100.111 Y34.122 E0.04007
G1 X87.62 Y21.631 E1.00986
G1 X86.919 Y21.631 E0.04007
G1 X100.111 Y34.823 E1.06653
G1 X100.111 Y35.524 E0.04007
G1 X86.218 Y21.631 E1.1232
G1 X85.517 Y21.631 E0.04007
G1 X100.111 Y36.225 E1.17986
M73 P5 R20
G1 X100.111 Y36.926 E0.04007
G1 X84.816 Y21.631 E1.23653
G1 X84.115 Y21.631 E0.04007
G1 X100.111 Y37.627 E1.29319
G1 X100.111 Y38.327 E0.04007
G1 X83.414 Y21.631 E1.34986
G1 X82.713 Y21.631 E0.04007
G1 X100.111 Y39.028 E1.40653
G1 X100.111 Y39.729 E0.04007
G1 X82.013 Y21.631 E1.46319
G1 X81.312 Y21.631 E0.04007
G1 X100.111 Y40.43 E1.51986
G1 X100.111 Y41.131 E0.04007
G1 X80.611 Y21.631 E1.57652
G1 X79.91 Y21.631 E0.04007
G1 X100.111 Y41.832 E1.63319
G1 X100.111 Y42.533 E0.04007
G1 X79.209 Y21.631 E1.68986
G1 X78.508 Y21.631 E0.04007
G1 X100.111 Y43.234 E1.74652
M73 P5 R19
G1 X100.111 Y43.935 E0.04007
G1 X77.807 Y21.631 E1.80319
G1 X77.106 Y21.631 E0.04007
G1 X100.111 Y44.636 E1.85985
G1 X100.111 Y45.337 E0.04007
G1 X76.405 Y21.631 E1.91652
G1 X75.704 Y21.631 E0.04007
G1 X100.111 Y46.038 E1.97319
M73 P6 R19
G1 X100.111 Y46.738 E0.04007
G1 X75.003 Y21.631 E2.02985
G1 X74.302 Y21.631 E0.04007
G1 X100.111 Y47.439 E2.08652
G1 X100.111 Y48.14 E0.04007
G1 X73.602 Y21.631 E2.14319
G1 X72.901 Y21.631 E0.04007
G1 X100.111 Y48.841 E2.19985
G1 X100.111 Y49.542 E0.04007
G1 X72.2 Y21.631 E2.25652
G1 X71.499 Y21.631 E0.04007
G1 X100.111 Y50.243 E2.31318
G1 X100.111 Y50.944 E0.04007
G1 X70.798 Y21.631 E2.36985
G1 X70.097 Y21.631 E0.04007
G1 X100.111 Y51.645 E2.42652
G1 X100.111 Y52.346 E0.04007
G1 X69.396 Y21.631 E2.48318
M73 P7 R19
G1 X68.695 Y21.631 E0.04007
G1 X100.111 Y53.047 E2.53985
G1 X100.111 Y53.748 E0.04007
G1 X67.994 Y21.631 E2.59651
G1 X67.293 Y21.631 E0.04007
G1 X100.111 Y54.448 E2.65318
G1 X100.111 Y55.149 E0.04007
G1 X66.592 Y21.631 E2.70985
G1 X65.892 Y21.631 E0.04007
G1 X100.111 Y55.85 E2.76651
G1 X100.111 Y56.551 E0.04007
G1 X65.191 Y21.631 E2.82318
G1 X64.49 Y21.631 E0.04007
G1 X100.111 Y57.252 E2.87984
G1 X100.111 Y57.953 E0.04007
G1 X63.789 Y21.631 E2.93651
M73 P8 R19
G1 X63.088 Y21.631 E0.04007
G1 X100.111 Y58.654 E2.99318
G1 X100.111 Y59.355 E0.04007
G1 X62.387 Y21.631 E3.04984
G1 X61.686 Y21.631 E0.04007
G1 X100.111 Y60.056 E3.10651
G1 X100.111 Y60.757 E0.04007
G1 X60.985 Y21.631 E3.16318
G1 X60.284 Y21.631 E0.04007
G1 X100.111 Y61.458 E3.21984
G1 X100.111 Y62.158 E0.04007
G1 X59.583 Y21.631 E3.27651
G1 X58.882 Y21.631 E0.04007
G1 X100.111 Y62.859 E3.33317
M73 P9 R19
G1 X100.111 Y63.56 E0.04007
G1 X58.182 Y21.631 E3.38984
G1 X57.481 Y21.631 E0.04007
G1 X100.111 Y64.261 E3.44651
G1 X100.111 Y64.962 E0.04007
G1 X56.78 Y21.631 E3.50317
G1 X56.079 Y21.631 E0.04007
G1 X100.111 Y65.663 E3.55984
G1 X100.111 Y66.364 E0.04007
G1 X55.378 Y21.631 E3.6165
G1 X54.677 Y21.631 E0.04007
G1 X100.111 Y67.065 E3.67317
M73 P10 R19
G1 X100.111 Y67.766 E0.04007
G1 X53.976 Y21.631 E3.72984
G1 X53.275 Y21.631 E0.04007
G1 X100.111 Y68.467 E3.7865
G1 X100.111 Y69.168 E0.04007
G1 X52.574 Y21.631 E3.84317
M73 P10 R18
G1 X51.873 Y21.631 E0.04007
G1 X100.111 Y69.868 E3.89983
G1 X100.111 Y70.569 E0.04007
G1 X51.172 Y21.631 E3.9565
G1 X50.472 Y21.631 E0.04007
G1 X100.111 Y71.27 E4.01317
M73 P11 R18
G1 X100.111 Y71.971 E0.04007
G1 X49.771 Y21.631 E4.06983
G1 X49.07 Y21.631 E0.04007
G1 X100.111 Y72.672 E4.1265
G1 X100.111 Y73.373 E0.04007
G1 X48.369 Y21.631 E4.18317
G1 X47.668 Y21.631 E0.04007
G1 X100.111 Y74.074 E4.23983
G1 X100.111 Y74.775 E0.04007
G1 X46.967 Y21.631 E4.2965
M73 P12 R18
G1 X46.266 Y21.631 E0.04007
G1 X100.111 Y75.476 E4.35316
G1 X100.111 Y76.177 E0.04007
G1 X45.565 Y21.631 E4.40983
G1 X44.864 Y21.631 E0.04007
G1 X100.111 Y76.878 E4.4665
G1 X100.111 Y77.579 E0.04007
G1 X44.163 Y21.631 E4.52316
G1 X43.462 Y21.631 E0.04007
G1 X100.111 Y78.279 E4.57983
M73 P13 R18
G1 X100.111 Y78.98 E0.04007
G1 X42.761 Y21.631 E4.63649
G1 X42.061 Y21.631 E0.04007
G1 X100.111 Y79.681 E4.69316
G1 X100.111 Y80.382 E0.04007
G1 X41.36 Y21.631 E4.74983
G1 X40.659 Y21.631 E0.04007
G1 X100.111 Y81.083 E4.80649
M73 P14 R18
G1 X100.111 Y81.784 E0.04007
G1 X39.958 Y21.631 E4.86316
G1 X39.257 Y21.631 E0.04007
G1 X100.111 Y82.485 E4.91983
G1 X100.111 Y83.186 E0.04007
G1 X38.556 Y21.631 E4.97649
G1 X37.855 Y21.631 E0.04007
G1 X100.111 Y83.887 E5.03316
G1 X100.111 Y84.588 E0.04007
G1 X37.154 Y21.631 E5.08982
M73 P15 R17
G1 X36.453 Y21.631 E0.04007
G1 X100.111 Y85.289 E5.14649
G1 X100.111 Y85.989 E0.04007
G1 X35.752 Y21.631 E5.20316
G1 X35.051 Y21.631 E0.04007
G1 X100.111 Y86.69 E5.25982
G1 X100.111 Y87.391 E0.04007
G1 X34.351 Y21.631 E5.31649
M73 P16 R17
G1 X33.65 Y21.631 E0.04007
G1 X100.111 Y88.092 E5.37315
G1 X100.111 Y88.793 E0.04007
G1 X32.949 Y21.631 E5.42982
G1 X32.248 Y21.631 E0.04007
G1 X100.111 Y89.494 E5.48649
G1 X100.111 Y90.195 E0.04007
G1 X31.547 Y21.631 E5.54315
M73 P17 R17
G1 X30.846 Y21.631 E0.04007
G1 X100.111 Y90.896 E5.59982
G1 X100.111 Y91.597 E0.04007
G1 X30.145 Y21.631 E5.65648
G1 X29.444 Y21.631 E0.04007
G1 X100.111 Y92.298 E5.71315
G1 X100.111 Y92.999 E0.04007
G1 X28.743 Y21.631 E5.76982
M73 P18 R17
G1 X28.042 Y21.631 E0.04007
G1 X100.111 Y93.699 E5.82648
G1 X100.111 Y94.4 E0.04007
G1 X27.341 Y21.631 E5.88315
G1 X26.641 Y21.631 E0.04007
G1 X100.111 Y95.101 E5.93982
G1 X100.111 Y95.802 E0.04007
M73 P19 R17
G1 X25.94 Y21.631 E5.99648
G1 X25.239 Y21.631 E0.04007
G1 X100.111 Y96.503 E6.05315
G1 X100.111 Y97.204 E0.04007
G1 X24.538 Y21.631 E6.10981
G1 X23.837 Y21.631 E0.04007
G1 X100.111 Y97.905 E6.16648
M73 P20 R16
G1 X100.111 Y97.92 E0.00088
G1 X99.425 Y97.92 E0.03919
G1 X23.821 Y22.316 E6.11231
G1 X23.821 Y23.017 E0.04007
G1 X98.725 Y97.92 E6.05564
G1 X98.024 Y97.92 E0.04007
G1 X23.821 Y23.718 E5.99898
G1 X23.821 Y24.419 E0.04007
G1 X97.323 Y97.92 E5.94231
M73 P21 R16
G1 X96.622 Y97.92 E0.04007
G1 X23.821 Y25.12 E5.88564
G1 X23.821 Y25.821 E0.04007
G1 X95.921 Y97.92 E5.82898
G1 X95.22 Y97.92 E0.04007
G1 X23.821 Y26.522 E5.77231
M73 P22 R16
G1 X23.821 Y27.223 E0.04007
G1 X94.519 Y97.92 E5.71565
G1 X93.818 Y97.92 E0.04007
G1 X23.821 Y27.924 E5.65898
G1 X23.821 Y28.625 E0.04007
G1 X93.117 Y97.92 E5.60231
G1 X92.416 Y97.92 E0.04007
G1 X23.821 Y29.325 E5.54565
M73 P23 R16
G1 X23.821 Y30.026 E0.04007
G1 X91.715 Y97.92 E5.48898
G1 X91.015 Y97.92 E0.04007
G1 X23.821 Y30.727 E5.43232
G1 X23.821 Y31.428 E0.04007
G1 X90.314 Y97.92 E5.37565
G1 X89.613 Y97.92 E0.04007
G1 X23.821 Y32.129 E5.31898
M73 P24 R16
G1 X23.821 Y32.83 E0.04007
G1 X88.912 Y97.92 E5.26232
G1 X88.211 Y97.92 E0.04007
G1 X23.821 Y33.531 E5.20565
G1 X23.821 Y34.232 E0.04007
G1 X87.51 Y97.92 E5.14899
M73 P24 R15
G1 X86.809 Y97.92 E0.04007
G1 X23.821 Y34.933 E5.09232
M73 P25 R15
G1 X23.821 Y35.634 E0.04007
G1 X86.108 Y97.92 E5.03565
G1 X85.407 Y97.92 E0.04007
G1 X23.821 Y36.335 E4.97899
G1 X23.821 Y37.035 E0.04007
G1 X84.706 Y97.92 E4.92232
G1 X84.005 Y97.92 E0.04007
G1 X23.821 Y37.736 E4.86565
G1 X23.821 Y38.437 E0.04007
G1 X83.305 Y97.92 E4.80899
M73 P26 R15
G1 X82.604 Y97.92 E0.04007
G1 X23.821 Y39.138 E4.75232
G1 X23.821 Y39.839 E0.04007
G1 X81.903 Y97.92 E4.69566
G1 X81.202 Y97.92 E0.04007
G1 X23.821 Y40.54 E4.63899
G1 X23.821 Y41.241 E0.04007
G1 X80.501 Y97.92 E4.58232
M73 P27 R15
G1 X79.8 Y97.92 E0.04007
G1 X23.821 Y41.942 E4.52566
G1 X23.821 Y42.643 E0.04007
G1 X79.099 Y97.92 E4.46899
G1 X78.398 Y97.92 E0.04007
G1 X23.821 Y43.344 E4.41233
G1 X23.821 Y44.045 E0.04007
G1 X77.697 Y97.92 E4.35566
G1 X76.996 Y97.92 E0.04007
G1 X23.821 Y44.746 E4.29899
M73 P28 R15
G1 X23.821 Y45.446 E0.04007
G1 X76.295 Y97.92 E4.24233
G1 X75.594 Y97.92 E0.04007
G1 X23.821 Y46.147 E4.18566
G1 X23.821 Y46.848 E0.04007
G1 X74.894 Y97.92 E4.129
G1 X74.193 Y97.92 E0.04007
G1 X23.821 Y47.549 E4.07233
G1 X23.821 Y48.25 E0.04007
G1 X73.492 Y97.92 E4.01566
M73 P29 R15
G1 X72.791 Y97.92 E0.04007
G1 X23.821 Y48.951 E3.959
G1 X23.821 Y49.652 E0.04007
G1 X72.09 Y97.92 E3.90233
M73 P29 R14
G1 X71.389 Y97.92 E0.04007
G1 X23.821 Y50.353 E3.84566
G1 X23.821 Y51.054 E0.04007
G1 X70.688 Y97.92 E3.789
G1 X69.987 Y97.92 E0.04007
G1 X23.821 Y51.755 E3.73233
G1 X23.821 Y52.456 E0.04007
G1 X69.286 Y97.92 E3.67567
M73 P30 R14
G1 X68.585 Y97.92 E0.04007
G1 X23.821 Y53.156 E3.619
G1 X23.821 Y53.857 E0.04007
G1 X67.884 Y97.92 E3.56233
G1 X67.184 Y97.92 E0.04007
G1 X23.821 Y54.558 E3.50567
G1 X23.821 Y55.259 E0.04007
G1 X66.483 Y97.92 E3.449
G1 X65.782 Y97.92 E0.04007
G1 X23.821 Y55.96 E3.39234
G1 X23.821 Y56.661 E0.04007
G1 X65.081 Y97.92 E3.33567
M73 P31 R14
G1 X64.38 Y97.92 E0.04007
G1 X23.821 Y57.362 E3.279
G1 X23.821 Y58.063 E0.04007
G1 X63.679 Y97.92 E3.22234
G1 X62.978 Y97.92 E0.04007
G1 X23.821 Y58.764 E3.16567
G1 X23.821 Y59.465 E0.04007
G1 X62.277 Y97.92 E3.109
G1 X61.576 Y97.92 E0.04007
G1 X23.821 Y60.166 E3.05234
G1 X23.821 Y60.866 E0.04007
G1 X60.875 Y97.92 E2.99567
G1 X60.174 Y97.92 E0.04007
G1 X23.821 Y61.567 E2.93901
M73 P32 R14
G1 X23.821 Y62.268 E0.04007
G1 X59.474 Y97.92 E2.88234
G1 X58.773 Y97.92 E0.04007
G1 X23.821 Y62.969 E2.82567
G1 X23.821 Y63.67 E0.04007
G1 X58.072 Y97.92 E2.76901
G1 X57.371 Y97.92 E0.04007
G1 X23.821 Y64.371 E2.71234
G1 X23.821 Y65.072 E0.04007
G1 X56.67 Y97.92 E2.65568
G1 X55.969 Y97.92 E0.04007
G1 X23.821 Y65.773 E2.59901
G1 X23.821 Y66.474 E0.04007
G1 X55.268 Y97.92 E2.54234
G1 X54.567 Y97.92 E0.04007
G1 X23.821 Y67.175 E2.48568
M73 P33 R14
G1 X23.821 Y67.876 E0.04007
G1 X53.866 Y97.92 E2.42901
G1 X53.165 Y97.92 E0.04007
G1 X23.821 Y68.576 E2.37235
G1 X23.821 Y69.277 E0.04007
G1 X52.464 Y97.92 E2.31568
G1 X51.764 Y97.92 E0.04007
G1 X23.821 Y69.978 E2.25901
G1 X23.821 Y70.679 E0.04007
G1 X51.063 Y97.92 E2.20235
G1 X50.362 Y97.92 E0.04007
G1 X23.821 Y71.38 E2.14568
G1 X23.821 Y72.081 E0.04007
G1 X49.661 Y97.92 E2.08901
G1 X48.96 Y97.92 E0.04007
G1 X23.821 Y72.782 E2.03235
G1 X23.821 Y73.483 E0.04007
G1 X48.259 Y97.92 E1.97568
G1 X47.558 Y97.92 E0.04007
G1 X23.821 Y74.184 E1.91902
M73 P34 R13
G1 X23.821 Y74.885 E0.04007
G1 X46.857 Y97.92 E1.86235
G1 X46.156 Y97.92 E0.04007
G1 X23.821 Y75.586 E1.80568
G1 X23.821 Y76.287 E0.04007
G1 X45.455 Y97.92 E1.74902
G1 X44.754 Y97.92 E0.04007
G1 X23.821 Y76.987 E1.69235
G1 X23.821 Y77.688 E0.04007
G1 X44.053 Y97.92 E1.63569
G1 X43.353 Y97.92 E0.04007
G1 X23.821 Y78.389 E1.57902
G1 X23.821 Y79.09 E0.04007
G1 X42.652 Y97.92 E1.52235
G1 X41.951 Y97.92 E0.04007
G1 X23.821 Y79.791 E1.46569
G1 X23.821 Y80.492 E0.04007
G1 X41.25 Y97.92 E1.40902
G1 X40.549 Y97.92 E0.04007
G1 X23.821 Y81.193 E1.35236
G1 X23.821 Y81.894 E0.04007
G1 X39.848 Y97.92 E1.29569
G1 X39.147 Y97.92 E0.04007
G1 X23.821 Y82.595 E1.23902
G1 X23.821 Y83.296 E0.04007
G1 X38.446 Y97.92 E1.18236
M73 P35 R13
G1 X37.745 Y97.92 E0.04007
G1 X23.821 Y83.997 E1.12569
G1 X23.821 Y84.697 E0.04007
G1 X37.044 Y97.92 E1.06902
G1 X36.343 Y97.92 E0.04007
G1 X23.821 Y85.398 E1.01236
G1 X23.821 Y86.099 E0.04007
G1 X35.643 Y97.92 E0.95569
G1 X34.942 Y97.92 E0.04007
G1 X23.821 Y86.8 E0.89903
G1 X23.821 Y87.501 E0.04007
G1 X34.241 Y97.92 E0.84236
G1 X33.54 Y97.92 E0.04007
G1 X23.821 Y88.202 E0.78569
G1 X23.821 Y88.903 E0.04007
G1 X32.839 Y97.92 E0.72903
G1 X32.138 Y97.92 E0.04007
G1 X23.821 Y89.604 E0.67236
G1 X23.821 Y90.305 E0.04007
G1 X31.437 Y97.92 E0.6157
G1 X30.736 Y97.92 E0.04007
G1 X23.821 Y91.006 E0.55903
G1 X23.821 Y91.707 E0.04007
G1 X30.035 Y97.92 E0.50236
G1 X29.334 Y97.92 E0.04007
G1 X23.821 Y92.407 E0.4457
G1 X23.821 Y93.108 E0.04007
G1 X28.633 Y97.92 E0.38903
