; generated by SuperSlicer 2.4 on 2023-11-20 at 18:15:02 UTC


;
;

;
;
; 

; external perimeters extrusion width = 0.42mm
; perimeters extrusion width = 0.44mm
; infill extrusion width = 0.44mm
; solid infill extrusion width = 0.44mm
; top infill extrusion width = 0.42mm
; first layer extrusion width = 0.56mm

; object:{"name":"[c]_Diffuser (2)","id":"[c]_Diffuser (2).stl id:0 copy 0","object_center":[66.226382,34.054251,0.000000],"boundingbox_center":[66.226382,34.054251,1.500008],"boundingbox_size":[14.472125,14.472038,3.000015]}
; object:{"name":"[c]_Diffuser (2)","id":"[c]_Diffuser (2).stl id:0 copy 1","object_center":[86.655600,34.054251,0.000000],"boundingbox_center":[86.655600,34.054251,1.500008],"boundingbox_size":[14.472125,14.472038,3.000015]}
; object:{"name":"[c]_Diffuser (2)","id":"[c]_Diffuser (2).stl id:0 copy 2","object_center":[66.226382,54.483432,0.000000],"boundingbox_center":[66.226382,54.483432,1.500008],"boundingbox_size":[14.472125,14.472038,3.000015]}
; object:{"name":"[c]_Diffuser (2)","id":"[c]_Diffuser (2).stl id:0 copy 3","object_center":[86.655600,54.483433,0.000000],"boundingbox_center":[86.655600,54.483433,1.500008],"boundingbox_size":[14.472125,14.472038,3.000015]}
; object:{"name":"[c]_Diffuser (2)","id":"[c]_Diffuser (2).stl id:0 copy 4","object_center":[45.797164,34.054251,0.000000],"boundingbox_center":[45.797164,34.054251,1.500008],"boundingbox_size":[14.472125,14.472038,3.000015]}
; object:{"name":"[c]_Diffuser (2)","id":"[c]_Diffuser (2).stl id:0 copy 5","object_center":[45.797163,54.483433,0.000000],"boundingbox_center":[45.797163,54.483433,1.500008],"boundingbox_size":[14.472125,14.472038,3.000015]}
; plater:{"center":[66.226381,44.268842,0.000000],"boundingbox_center":[66.226381,44.268842,1.500008],"boundingbox_size":[55.330562,34.901220,3.000015]}

M73 P0 R16


; Pre-Processed for Cancel-Object support by preprocess_cancellation v0.2.0
; 6 known objects
EXCLUDE_OBJECT_DEFINE NAME=c__Diffuser_2_stl_id_0_copy_0 CENTER=66.212,34.148 POLYGON=[[59.08,26.908],[59.08,41.201],[73.373,41.201],[73.373,26.908]]
EXCLUDE_OBJECT_DEFINE NAME=c__Diffuser_2_stl_id_0_copy_2 CENTER=66.212,54.568 POLYGON=[[59.08,47.337],[59.08,61.63],[73.373,61.63],[73.373,47.337]]
EXCLUDE_OBJECT_DEFINE NAME=c__Diffuser_2_stl_id_0_copy_3 CENTER=86.594,54.561 POLYGON=[[79.509,47.337],[79.509,61.63],[93.802,61.63],[93.802,47.337]]
EXCLUDE_OBJECT_DEFINE NAME=c__Diffuser_2_stl_id_0_copy_1 CENTER=86.635,34.122 POLYGON=[[79.509,26.908],[79.509,41.201],[93.802,41.201],[93.802,26.908]]
EXCLUDE_OBJECT_DEFINE NAME=c__Diffuser_2_stl_id_0_copy_4 CENTER=45.779,34.140 POLYGON=[[38.651,26.908],[38.651,41.201],[52.944,41.201],[52.944,26.908]]
EXCLUDE_OBJECT_DEFINE NAME=c__Diffuser_2_stl_id_0_copy_5 CENTER=45.783,54.568 POLYGON=[[38.651,47.337],[38.651,61.63],[52.944,61.63],[52.944,47.337]]
;TYPE:Custom
; custom gcode: start_gcode
M104 S0 ; Stops SuperSlicer from sending temp waits separately
M140 S0
print_start EXTRUDER=220 BED=105 CHAMBER=40
; custom gcode end: start_gcode
M107
G21 ; set units to millimeters
G90 ; use absolute coordinates
M83 ; use relative distances for extrusion
; custom gcode: start_filament_gcode
; Filament gcode
; Macro syntax: https://help.prusa3d.com/article/macros_1775

; Set pressure advance per-filament
;SET_PRESSURE_ADVANCE ADVANCE=0.0372

; Set pressure advance per-filament for different nozzle sizes
;SET_PRESSURE_ADVANCE ADVANCE=0.0x
;

; custom gcode end: start_filament_gcode
;_TOOLCHANGE 0
;LAYER_CHANGE
;Z:0.3
;HEIGHT:0.3
G1 Z0.3 F7800
G92 E0
G10 ; retract
M73 P2 R15
G1 Z0.6
G1 X26.916 Y21.714
G1 Z0.3
G11 ; unretract
;TYPE:Skirt
;WIDTH:0.52
G1 F1800
G1 X25.274 Y23.876 E0.14285
G1 X24.124 Y25.99 E0.12663
G1 X23.438 Y27.647 E0.09438
G1 X23.106 Y28.711 E0.05864
G1 X22.609 Y31.005 E0.12354
G1 X22.467 Y32.324 E0.06979
G1 X22.467 Y52.754 E1.07508
G1 X22.468 Y55.273 E0.13257
G1 X22.609 Y56.591 E0.06973
G1 X23.106 Y58.884 E0.12346
G1 X23.438 Y59.948 E0.05866
G1 X24.196 Y61.778 E0.10424
G1 X24.66 Y62.682 E0.05347
G1 X25.647 Y64.271 E0.09845
G1 X26.196 Y65.023 E0.04899
G1 X27.45 Y66.464 E0.10052
G1 X34.406 Y73.369 E0.51577
G1 X36.562 Y75.006 E0.14244
G1 X38.673 Y76.155 E0.12648
G1 X40.331 Y76.842 E0.09444
G1 X41.397 Y77.175 E0.0588
G1 X43.693 Y77.672 E0.12361
G1 X45.011 Y77.813 E0.06974
G1 X88.24 Y77.813 E2.27482
G1 X89.379 Y77.708 E0.06015
G1 X92.235 Y77.101 E0.15365
G1 X94.9 Y76.08 E0.15022
G1 X96.569 Y75.175 E0.09989
G1 X97.441 Y74.602 E0.0549
G1 X99.375 Y73.03 E0.13117
G1 X105.539 Y66.821 E0.46037
G1 X107.181 Y64.658 E0.14292
G1 X108.328 Y62.549 E0.1263
G1 X109.014 Y60.893 E0.09431
G1 X109.347 Y59.827 E0.05882
G1 X109.844 Y57.531 E0.12358
G1 X109.985 Y56.214 E0.06972
G1 X109.985 Y33.266 E1.20757
G1 X109.844 Y31.947 E0.06979
G1 X109.347 Y29.652 E0.12359
G1 X109.013 Y28.586 E0.05876
G1 X108.255 Y26.757 E0.10421
G1 X107.792 Y25.855 E0.05334
G1 X106.258 Y23.517 E0.14713
G1 X105.004 Y22.074 E0.10064
G1 X98.048 Y15.169 E0.51577
G1 X96.629 Y14.024 E0.09593
G1 X95.687 Y13.397 E0.05955
G1 X93.873 Y12.413 E0.1086
G1 X92.862 Y11.975 E0.05796
G1 X90.714 Y11.264 E0.1191
G1 X89.507 Y10.993 E0.06509
G1 X87.493 Y10.749 E0.10672
G1 X45.884 Y10.704 E2.18957
G1 X43.795 Y10.752 E0.10997
G1 X42.628 Y10.892 E0.06182
G1 X40.453 Y11.363 E0.11711
G1 X39.387 Y11.696 E0.05878
G1 X37.481 Y12.486 E0.10856
M73 P3 R15
G1 X36.493 Y13.003 E0.05868
G1 X34.526 Y14.27 E0.12313
G1 X33.5 Y15.096 E0.06931
G1 X26.916 Y21.714 E0.49125
G10 ; retract
G1 Z0.6 F7800
G1 X32.107 Y25.765
G1 Z0.3
G11 ; unretract
;WIDTH:0.56
G1 F1800
G1 X38.043 Y19.892 E0.47799
G1 X39.953 Y18.617 E0.13149
G1 X42.062 Y17.753 E0.13044
G1 X44.134 Y17.34 E0.12096
G1 X46.247 Y17.316 E0.12098
G1 X48.251 Y17.658 E0.11633
G1 X50.072 Y18.308 E0.11069
G1 X51.66 Y19.19 E0.10398
G1 X53.146 Y20.367 E0.1085
G1 X55.56 Y22.78 E0.19538
G1 X58.649 Y19.749 E0.24769
G1 X60.352 Y18.633 E0.11657
G1 X62.307 Y17.809 E0.12143
G1 X64.423 Y17.355 E0.12386
G1 X66.696 Y17.317 E0.13014
G1 X68.542 Y17.622 E0.1071
G1 X70.321 Y18.228 E0.1076
G1 X72.136 Y19.223 E0.11847
G1 X73.598 Y20.388 E0.10698
G1 X75.982 Y22.77 E0.19295
G1 X78.855 Y19.93 E0.23127
G1 X80.843 Y18.601 E0.13685
G1 X82.861 Y17.77 E0.1249
G1 X84.936 Y17.346 E0.12124
G1 X87.136 Y17.319 E0.12593
G1 X89.294 Y17.707 E0.12554
G1 X91.156 Y18.414 E0.11403
G1 X92.671 Y19.294 E0.10025
G1 X94.031 Y20.391 E0.10005
G1 X100.391 Y26.757 E0.51508
G1 X101.408 Y28.029 E0.09324
G1 X102.338 Y29.641 E0.10654
G1 X103.037 Y31.551 E0.11639
G1 X103.407 Y33.746 E0.12745
G1 X103.308 Y36.217 E0.14156
G1 X102.858 Y38.105 E0.11105
G1 X102.286 Y39.518 E0.08728
G1 X101.594 Y40.746 E0.08071
G1 X100.43 Y42.25 E0.10883
G1 X97.945 Y44.737 E0.20125
G1 X100.437 Y47.238 E0.20208
G1 X101.517 Y48.62 E0.10038
G1 X102.458 Y50.335 E0.112
G1 X103.122 Y52.321 E0.11986
G1 X103.423 Y54.471 E0.1243
G1 X103.315 Y56.593 E0.12162
G1 X102.914 Y58.356 E0.10347
G1 X102.341 Y59.831 E0.0906
G1 X101.533 Y61.267 E0.09432
G1 X100.506 Y62.594 E0.09608
G1 X94.711 Y68.386 E0.46898
G1 X92.956 Y69.666 E0.12434
G1 X91.483 Y70.398 E0.09416
G1 X89.914 Y70.917 E0.09461
G1 X87.911 Y71.233 E0.11605
G1 X85.488 Y71.143 E0.13881
G1 X83.653 Y70.719 E0.10777
G1 X82.208 Y70.148 E0.08896
G1 X80.905 Y69.421 E0.08542
G1 X79.406 Y68.26 E0.10852
G1 X76.909 Y65.774 E0.20171
G1 X74.279 Y68.389 E0.21232
G1 X72.48 Y69.694 E0.12722
G1 X70.816 Y70.493 E0.10563
G1 X69.039 Y71.017 E0.10609
G1 X67.025 Y71.254 E0.11609
G1 X64.823 Y71.108 E0.12628
G1 X63.047 Y70.663 E0.1048
G1 X61.589 Y70.056 E0.09044
G1 X60.326 Y69.321 E0.0836
G1 X58.976 Y68.259 E0.09835
G1 X56.481 Y65.772 E0.20162
G1 X53.853 Y68.385 E0.21214
G1 X52.222 Y69.591 E0.11609
G1 X50.444 Y70.471 E0.11356
G1 X48.501 Y71.04 E0.11592
G1 X46.558 Y71.255 E0.1119
G1 X44.602 Y71.139 E0.11211
G1 X42.858 Y70.739 E0.10246
G1 X41.393 Y70.169 E0.08996
G1 X39.996 Y69.387 E0.09165
G1 X38.666 Y68.365 E0.09605
G1 X32.03 Y61.745 E0.53655
G1 X31.01 Y60.457 E0.09401
G1 X30.176 Y59.026 E0.09484
G1 X29.395 Y56.908 E0.12919
G1 X29.04 Y54.687 E0.12877
G1 X29.131 Y52.419 E0.12993
G1 X29.573 Y50.499 E0.11278
G1 X30.119 Y49.12 E0.08491
G1 X30.888 Y47.746 E0.0901
G1 X32.091 Y46.211 E0.11165
G1 X34.513 Y43.804 E0.19548
G1 X31.935 Y41.208 E0.20943
G1 X30.9 Y39.863 E0.09716
G1 X30.077 Y38.387 E0.0967
G1 X29.36 Y36.339 E0.12424
G1 X29.036 Y34.194 E0.12417
G1 X29.121 Y32.066 E0.12193
G1 X29.554 Y30.132 E0.1134
G1 X30.117 Y28.696 E0.08833
G1 X30.846 Y27.38 E0.08609
G1 X32.107 Y25.765 E0.11726
G1 X32.47 Y26.102 F7800
G1 F1800
G1 X38.374 Y20.262 E0.47539
G1 X40.207 Y19.044 E0.12597
G1 X42.227 Y18.221 E0.12485
G1 X44.163 Y17.835 E0.11301
G1 X46.187 Y17.809 E0.11586
G1 X48.104 Y18.132 E0.11131
G1 X49.885 Y18.768 E0.10826
G1 X51.401 Y19.613 E0.09932
M73 P4 R15
G1 X52.805 Y20.728 E0.10263
G1 X55.557 Y23.477 E0.22266
G1 X58.979 Y20.12 E0.27437
G1 X60.605 Y19.06 E0.1111
G1 X62.434 Y18.288 E0.11369
G1 X64.456 Y17.85 E0.11841
G1 X66.638 Y17.81 E0.12492
G1 X68.402 Y18.098 E0.10233
G1 X70.102 Y18.673 E0.10272
G1 X71.879 Y19.647 E0.116
G1 X73.277 Y20.766 E0.1025
G1 X75.98 Y23.469 E0.21881
G1 X79.187 Y20.299 E0.25811
G1 X81.097 Y19.027 E0.13136
G1 X83.027 Y18.238 E0.11934
G1 X85.011 Y17.836 E0.11591
G1 X87.072 Y17.811 E0.11795
G1 X89.14 Y18.179 E0.12027
G1 X90.925 Y18.853 E0.10921
G1 X92.405 Y19.712 E0.09798
G1 X93.709 Y20.768 E0.09602
G1 X100.031 Y27.097 E0.51205
G1 X101.009 Y28.324 E0.08981
G1 X101.88 Y29.832 E0.09969
G1 X102.564 Y31.699 E0.11384
G1 X102.914 Y33.803 E0.12205
G1 X102.82 Y36.126 E0.1331
G1 X102.381 Y37.971 E0.1086
G1 X101.846 Y39.289 E0.0814
G1 X101.191 Y40.458 E0.07667
G1 X100.048 Y41.934 E0.10688
G1 X97.245 Y44.736 E0.22688
G1 X100.076 Y47.577 E0.22954
G1 X101.114 Y48.909 E0.09666
G1 X101.995 Y50.514 E0.10484
G1 X102.635 Y52.413 E0.1147
G1 X102.927 Y54.47 E0.11892
G1 X102.821 Y56.546 E0.11902
G1 X102.435 Y58.227 E0.09872
G1 X101.886 Y59.634 E0.08648
G1 X101.111 Y61.008 E0.09027
G1 X100.124 Y62.278 E0.09207
G1 X94.375 Y68.022 E0.46521
G1 X92.682 Y69.253 E0.11981
G1 X91.279 Y69.946 E0.08956
G1 X89.778 Y70.44 E0.09045
G1 X87.858 Y70.74 E0.11124
G1 X85.576 Y70.655 E0.1307
G1 X83.783 Y70.241 E0.10536
G1 X82.434 Y69.707 E0.08301
G1 X81.193 Y69.017 E0.08127
G1 X79.722 Y67.878 E0.10656
G1 X76.91 Y65.074 E0.2273
G1 X73.943 Y68.024 E0.23947
G1 X72.245 Y69.257 E0.12011
G1 X70.62 Y70.037 E0.1032
G1 X68.92 Y70.536 E0.10143
G1 X66.99 Y70.759 E0.11119
G1 X64.922 Y70.621 E0.11863
G1 X63.186 Y70.187 E0.10247
G1 X61.823 Y69.619 E0.08448
G1 X60.619 Y68.92 E0.07969
G1 X59.293 Y67.879 E0.09652
G1 X56.482 Y65.073 E0.22737
G1 X53.516 Y68.021 E0.23936
G1 X51.946 Y69.179 E0.1117
G1 X50.244 Y70.017 E0.10856
G1 X48.424 Y70.55 E0.10858
G1 X46.566 Y70.759 E0.10704
G1 X44.653 Y70.646 E0.1097
G1 X42.987 Y70.26 E0.09785
G1 X41.59 Y69.714 E0.08589
G1 X40.254 Y68.964 E0.08766
G1 X38.981 Y67.982 E0.09206
G1 X32.409 Y61.426 E0.53136
G1 X31.41 Y60.164 E0.09216
G1 X30.615 Y58.796 E0.09056
G1 X29.881 Y56.805 E0.12144
G1 X29.536 Y54.682 E0.12313
G1 X29.626 Y52.462 E0.12717
G1 X30.041 Y50.664 E0.10566
G1 X30.56 Y49.347 E0.08103
G1 X31.29 Y48.037 E0.08586
G1 X32.452 Y46.552 E0.10789
G1 X35.214 Y43.806 E0.22297
G1 X32.318 Y40.893 E0.23514
G1 X31.324 Y39.605 E0.09311
G1 X30.52 Y38.165 E0.09443
G1 X29.847 Y36.242 E0.11662
G1 X29.53 Y34.143 E0.12149
G1 X29.61 Y32.152 E0.1141
G1 X30.022 Y30.295 E0.10887
G1 X30.559 Y28.921 E0.08444
G1 X31.249 Y27.669 E0.08181
G1 X32.47 Y26.102 E0.11371
G1 X32.83 Y26.443 F7800
G1 F1800
G1 X38.705 Y20.631 E0.47308
G1 X40.46 Y19.471 E0.1204
G1 X42.391 Y18.689 E0.11926
G1 X44.237 Y18.326 E0.10768
G1 X46.127 Y18.301 E0.10824
G1 X47.958 Y18.606 E0.10626
G1 X49.699 Y19.228 E0.10581
G1 X51.141 Y20.036 E0.09462
G1 X52.465 Y21.088 E0.0968
G1 X55.554 Y24.174 E0.24994
G1 X59.308 Y20.491 E0.30104
G1 X60.856 Y19.488 E0.10559
G1 X62.563 Y18.768 E0.10606
G1 X64.491 Y18.346 E0.11297
G1 X66.581 Y18.302 E0.11969
G1 X68.264 Y18.574 E0.09756
G1 X69.883 Y19.119 E0.0978
G1 X71.622 Y20.071 E0.11349
G1 X72.956 Y21.144 E0.09799
G1 X75.978 Y24.168 E0.24472
G1 X79.518 Y20.668 E0.28495
G1 X81.35 Y19.454 E0.12582
G1 X83.191 Y18.706 E0.11376
G1 X85.086 Y18.327 E0.11058
G1 X87.054 Y18.307 E0.11265
M73 P5 R15
G1 X88.987 Y18.651 E0.11243
G1 X90.695 Y19.292 E0.1044
G1 X92.109 Y20.11 E0.09349
G1 X93.387 Y21.145 E0.09416
G1 X99.67 Y27.437 E0.50901
G1 X100.609 Y28.618 E0.08637
G1 X101.422 Y30.022 E0.09287
G1 X102.09 Y31.848 E0.11127
G1 X102.42 Y33.858 E0.11662
G1 X102.333 Y36.034 E0.12468
G1 X101.903 Y37.838 E0.10614
G1 X101.405 Y39.061 E0.07556
G1 X100.788 Y40.169 E0.07261
G1 X99.666 Y41.618 E0.10491
G1 X96.544 Y44.735 E0.25252
G1 X99.714 Y47.916 E0.25701
G1 X100.71 Y49.197 E0.09293
G1 X101.533 Y50.694 E0.09774
G1 X102.147 Y52.506 E0.10956
G1 X102.431 Y54.469 E0.11349
G1 X102.327 Y56.499 E0.11638
G1 X101.957 Y58.098 E0.09392
G1 X101.431 Y59.437 E0.08237
G1 X100.688 Y60.748 E0.08622
G1 X99.742 Y61.961 E0.08807
G1 X94.038 Y67.658 E0.46146
G1 X92.408 Y68.839 E0.11526
G1 X91.076 Y69.494 E0.08494
G1 X89.643 Y69.962 E0.08631
G1 X87.806 Y70.246 E0.10643
G1 X85.665 Y70.167 E0.12262
G1 X83.913 Y69.762 E0.10295
G1 X82.66 Y69.266 E0.0771
G1 X81.482 Y68.614 E0.0771
G1 X80.037 Y67.495 E0.10458
G1 X76.91 Y64.375 E0.25289
G1 X73.607 Y67.659 E0.26664
G1 X72.01 Y68.82 E0.11304
G1 X70.461 Y69.567 E0.09843
G1 X68.801 Y70.054 E0.09905
G1 X66.956 Y70.264 E0.10626
G1 X65.021 Y70.135 E0.11102
G1 X63.324 Y69.71 E0.10014
G1 X62.057 Y69.182 E0.07857
G1 X60.911 Y68.52 E0.07575
G1 X59.611 Y67.498 E0.09466
G1 X56.483 Y64.373 E0.25312
G1 X53.18 Y67.657 E0.26658
G1 X51.67 Y68.767 E0.10728
G1 X50.084 Y69.547 E0.10119
G1 X48.346 Y70.06 E0.1037
G1 X46.573 Y70.263 E0.10214
G1 X44.703 Y70.152 E0.10726
G1 X43.117 Y69.782 E0.09322
G1 X41.817 Y69.273 E0.07989
G1 X40.513 Y68.541 E0.08563
G1 X39.297 Y67.599 E0.08805
G1 X32.788 Y61.106 E0.52624
G1 X31.829 Y59.899 E0.08826
G1 X31.054 Y58.565 E0.0883
G1 X30.354 Y56.657 E0.11636
G1 X30.029 Y54.628 E0.1176
G1 X30.12 Y52.506 E0.12157
G1 X30.52 Y50.794 E0.10065
G1 X31.015 Y49.544 E0.07696
G1 X31.693 Y48.327 E0.07977
G1 X32.832 Y46.869 E0.1059
G1 X35.916 Y43.808 E0.24871
G1 X32.7 Y40.577 E0.26091
G1 X31.748 Y39.348 E0.08904
G1 X30.964 Y37.942 E0.09215
G1 X30.333 Y36.145 E0.10901
G1 X30.023 Y34.093 E0.11881
G1 X30.098 Y32.237 E0.10631
G1 X30.491 Y30.457 E0.10434
G1 X31.001 Y29.145 E0.08057
G1 X31.653 Y27.958 E0.07751
G1 X32.83 Y26.443 E0.10982
G1 X33.19 Y26.784 F7800
G1 F1800
G1 X39.037 Y21.001 E0.47075
G1 X40.711 Y19.898 E0.11478
G1 X42.554 Y19.157 E0.11367
G1 X44.309 Y18.816 E0.10237
G1 X46.069 Y18.794 E0.10071
G1 X47.813 Y19.08 E0.10117
G1 X49.512 Y19.688 E0.10332
G1 X50.881 Y20.458 E0.08989
G1 X52.125 Y21.449 E0.09102
G1 X55.551 Y24.872 E0.27726
G1 X59.598 Y20.894 E0.32487
G1 X61.107 Y19.916 E0.1029
G1 X62.734 Y19.233 E0.10099
G1 X64.526 Y18.84 E0.10501
G1 X66.525 Y18.795 E0.11448
G1 X68.126 Y19.051 E0.0928
G1 X69.665 Y19.564 E0.09283
G1 X71.364 Y20.495 E0.11095
G1 X72.634 Y21.521 E0.09345
G1 X75.976 Y24.867 E0.27068
G1 X79.849 Y21.038 E0.31178
G1 X81.602 Y19.881 E0.12023
G1 X83.355 Y19.174 E0.10818
G1 X85.159 Y18.817 E0.10528
G1 X86.99 Y18.799 E0.10481
G1 X88.835 Y19.123 E0.10723
G1 X90.465 Y19.732 E0.09955
G1 X91.843 Y20.529 E0.09118
G1 X93.064 Y21.522 E0.09006
G1 X99.309 Y27.778 E0.506
G1 X100.21 Y28.912 E0.08292
G1 X100.964 Y30.213 E0.08607
G1 X101.617 Y31.996 E0.10868
G1 X101.927 Y33.913 E0.11116
G1 X101.845 Y35.943 E0.11631
G1 X101.425 Y37.705 E0.10368
G1 X100.965 Y38.833 E0.06977
G1 X100.384 Y39.88 E0.06853
G1 X99.284 Y41.302 E0.10293
G1 X95.844 Y44.734 E0.27815
G1 X99.352 Y48.255 E0.28448
G1 X100.307 Y49.486 E0.08918
G1 X101.071 Y50.874 E0.09072
G1 X101.66 Y52.601 E0.10443
M73 P6 R15
G1 X101.935 Y54.468 E0.10802
G1 X101.834 Y56.452 E0.11371
G1 X101.478 Y57.967 E0.08909
G1 X100.991 Y59.208 E0.07631
G1 X100.266 Y60.487 E0.08416
G1 X99.361 Y61.643 E0.08404
G1 X93.702 Y67.293 E0.45774
G1 X92.135 Y68.425 E0.11067
G1 X90.874 Y69.041 E0.08031
G1 X89.509 Y69.485 E0.08218
G1 X87.754 Y69.753 E0.10163
G1 X85.754 Y69.678 E0.11459
G1 X84.042 Y69.283 E0.10053
G1 X82.886 Y68.824 E0.07123
G1 X81.77 Y68.21 E0.0729
G1 X80.353 Y67.113 E0.10258
G1 X76.911 Y63.675 E0.27848
G1 X73.271 Y67.294 E0.29382
