; generated by SuperSlicer 2.4 on 2023-10-30 at 16:47:49 UTC


;
;

;
;
; 

; external perimeters extrusion width = 0.42mm
; perimeters extrusion width = 0.44mm
; infill extrusion width = 0.44mm
; solid infill extrusion width = 0.44mm
; top infill extrusion width = 0.42mm
; first layer extrusion width = 0.56mm

; object:{"name":"Bambu_Mount","id":"Bambu_Mount.stl id:0 copy 0","object_center":[78.894384,50.759213,0.000000],"boundingbox_center":[78.894384,50.759213,10.500008],"boundingbox_size":[44.604664,44.604685,21.000015]}
; plater:{"center":[78.894384,50.759213,0.000000],"boundingbox_center":[78.894384,50.759213,10.500008],"boundingbox_size":[44.604664,44.604685,21.000015]}

M73 P0 R51


; Pre-Processed for Cancel-Object support by preprocess_cancellation v0.2.0
; 1 known objects
EXCLUDE_OBJECT_DEFINE NAME=Bambu_Mount_stl_id_0_copy_0 CENTER=76.544,50.984 POLYGON=[[56.487,28.29],[56.487,73.166],[101.361,73.166],[101.361,28.29]]
;TYPE:Custom
; custom gcode: start_gcode
M104 S0 ; Stops SuperSlicer from sending temp waits separately
M140 S0
print_start EXTRUDER=240 BED=105 CHAMBER=50
; custom gcode end: start_gcode
M107
G21 ; set units to millimeters
G90 ; use absolute coordinates
M83 ; use relative distances for extrusion
; custom gcode: start_filament_gcode
; Filament gcode
; Macro syntax: https://help.prusa3d.com/article/macros_1775

; Set pressure advance per-filament
;SET_PRESSURE_ADVANCE ADVANCE=0.0372

; Set pressure advance per-filament for different nozzle sizes
;SET_PRESSURE_ADVANCE ADVANCE=0.0x
;

; custom gcode end: start_filament_gcode
;_TOOLCHANGE 0
;LAYER_CHANGE
;Z:0.3
;HEIGHT:0.3
G1 Z0.3 F7800
G92 E0
M73 P0 R50
G1 E-0.6 F1800
G1 Z0.6 F7800
G1 X50.583 Y31.75
G1 Z0.3
G1 E0.6 F1800
;TYPE:Skirt
;WIDTH:0.52
G1 X50.144 Y33.929 E0.11699
G1 X50.497 Y36.124 E0.11699
G1 X57.1 Y54.842 E1.04448
G1 X58.57 Y57.174 E0.14504
G1 X72.486 Y71.09 E1.03565
G1 X74.819 Y72.56 E0.1451
G1 X93.531 Y79.157 E1.04407
G1 X96.023 Y79.497 E0.13233
G1 X98.178 Y78.953 E0.11699
G1 X100.006 Y77.687 E0.11699
G1 X102.35 Y75.335 E0.17477
G1 X103.344 Y74.227 E0.07833
G1 X104.253 Y73.048 E0.07833
G1 X105.587 Y70.913 E0.13249
G1 X106.43 Y69.158 E0.10243
G1 X107.263 Y66.782 E0.13248
G1 X107.528 Y64.518 E0.11998
G1 X106.985 Y62.362 E0.11699
G1 X105.718 Y60.535 E0.11699
G1 X69.119 Y23.935 E2.72372
G1 X67.239 Y22.645 E0.11998
G1 X65.078 Y22.122 E0.11699
G1 X62.871 Y22.39 E0.11699
G1 X60.496 Y23.224 E0.13248
G1 X58.741 Y24.067 E0.10244
G1 X56.605 Y25.4 E0.13249
G1 X55.427 Y26.31 E0.07833
G1 X54.319 Y27.304 E0.07833
G1 X51.966 Y29.648 E0.17476
G1 X50.583 Y31.75 E0.13239
M104 S240 ; set temperature
G1 E-0.6
G1 Z0.6 F7800
; printing object Bambu_Mount.stl id:0 copy 0
EXCLUDE_OBJECT_START NAME=Bambu_Mount_stl_id_0_copy_0
G1 X84.499 Y58.554
G1 Z0.3
G1 E0.6 F1800
;TYPE:Internal perimeter
;WIDTH:0.56
G1 X84.437 Y58.63 E0.00561
G1 X84.14 Y59.186 E0.03608
G1 X84.001 Y59.623 E0.02625
G1 X83.899 Y60.218 E0.03457
G1 X83.93 Y61.305 E0.06222
G1 X82.202 Y59.577 E0.13992
G1 X76.89 Y64.889 E0.43002
G1 X64.771 Y52.77 E0.98103
G1 X70.083 Y47.458 E0.43002
G1 X68.538 Y45.913 E0.12507
G1 X68.67 Y45.656 E0.01654
G1 X68.942 Y45.701 E0.01579
G1 X69.583 Y45.679 E0.03669
G1 X70.207 Y45.533 E0.03668
G1 X70.79 Y45.267 E0.03668
G1 X71.29 Y44.906 E0.03533
G1 X71.615 Y44.581 E0.02625
G1 X71.976 Y44.081 E0.03534
G1 X72.242 Y43.498 E0.03668
G1 X72.388 Y42.874 E0.03668
G1 X72.41 Y42.233 E0.03669
G1 X72.357 Y41.911 E0.0187
G1 X72.614 Y41.779 E0.01654
G1 X76.869 Y46.034 E0.34447
G1 X78.741 Y44.162 E0.15151
G1 X99.873 Y65.295 E1.71073
G1 X99.809 Y65.502 E0.01238
G1 X99.467 Y66.374 E0.05366
G1 X99.062 Y67.217 E0.05353
G1 X98.595 Y68.03 E0.05365
G1 X98.07 Y68.805 E0.05361
G1 X97.489 Y69.54 E0.05362
G1 X97.215 Y69.839 E0.02319
G1 X89.755 Y62.378 E0.60395
G1 X89.972 Y62.077 E0.02128
G1 X90.238 Y61.494 E0.03668
G1 X90.384 Y60.87 E0.03668
G1 X90.406 Y60.229 E0.03669
G1 X90.302 Y59.597 E0.03669
G1 X90.076 Y58.997 E0.03669
G1 X89.737 Y58.453 E0.03669
G1 X89.298 Y57.986 E0.03669
G1 X88.776 Y57.614 E0.03668
G1 X88.192 Y57.352 E0.03667
G1 X87.568 Y57.208 E0.03667
G1 X86.928 Y57.19 E0.03665
G1 X86.332 Y57.292 E0.03457
G1 X85.895 Y57.431 E0.02625
G1 X85.339 Y57.728 E0.03608
M73 P1 R50
G1 X84.844 Y58.134 E0.03669
G1 X84.499 Y58.554 E0.03108
G1 E-0.6
G1 Z0.6 F7800
G1 X69.751 Y38.916
G1 Z0.3
G1 E0.6 F1800
G1 X70.061 Y39.226 E0.02507
G1 X68.931 Y39.194 E0.06469
G1 X68.336 Y39.295 E0.03457
G1 X67.899 Y39.435 E0.02625
G1 X67.343 Y39.732 E0.03608
G1 X67.214 Y39.838 E0.00956
G1 X59.815 Y32.439 E0.59897
G1 X60.113 Y32.165 E0.02319
G1 X60.848 Y31.584 E0.05362
G1 X61.624 Y31.059 E0.05361
G1 X62.436 Y30.592 E0.05365
G1 X63.279 Y30.187 E0.05353
G1 X64.152 Y29.844 E0.05367
G1 X64.359 Y29.78 E0.01238
G1 X71.623 Y37.045 E0.58808
G1 X69.751 Y38.916 E0.15151
G1 E-0.6
G1 Z0.6 F7800
G1 X70.996 Y44.499
G1 Z0.3
G1 E0.6 F1800
G1 X71.236 Y44.259 E0.01941
G1 X71.545 Y43.83 E0.03025
G1 X71.77 Y43.337 E0.03107
G1 X71.895 Y42.808 E0.03108
G1 X71.913 Y42.265 E0.03108
G1 X71.825 Y41.73 E0.03108
G1 X71.633 Y41.221 E0.03108
G1 X71.346 Y40.761 E0.03108
G1 X70.974 Y40.365 E0.03108
G1 X70.532 Y40.05 E0.03107
G1 X70.037 Y39.827 E0.03106
G1 X69.508 Y39.706 E0.03106
G1 X68.966 Y39.691 E0.03104
G1 X68.454 Y39.778 E0.02977
G1 X68.093 Y39.894 E0.02169
G1 X67.619 Y40.146 E0.03071
G1 X67.181 Y40.506 E0.03246
G1 X59.098 Y32.423 E0.65429
G1 X59.792 Y31.787 E0.05385
G1 X60.555 Y31.184 E0.05571
G1 X61.361 Y30.638 E0.0557
G1 X62.205 Y30.153 E0.05574
G1 X63.081 Y29.732 E0.05562
G1 X63.988 Y29.376 E0.05576
G1 X64.497 Y29.218 E0.03054
G1 X72.324 Y37.045 E0.63357
G1 X70.452 Y38.916 E0.15151
G1 X76.869 Y45.333 E0.51945
G1 X78.741 Y43.462 E0.15151
G1 X100.435 Y65.156 E1.75623
G1 X100.277 Y65.666 E0.03055
G1 X99.921 Y66.572 E0.05576
G1 X99.501 Y67.448 E0.05562
G1 X99.015 Y68.293 E0.05574
G1 X98.47 Y69.098 E0.0557
G1 X97.867 Y69.862 E0.05571
G1 X97.23 Y70.555 E0.05386
G1 X89.081 Y62.406 E0.65969
G1 X89.232 Y62.255 E0.01222
G1 X89.541 Y61.827 E0.03025
G1 X89.767 Y61.333 E0.03107
G1 X89.891 Y60.804 E0.03108
G1 X89.909 Y60.262 E0.03108
G1 X89.821 Y59.726 E0.03108
G1 X89.629 Y59.218 E0.03108
G1 X89.342 Y58.757 E0.03108
G1 X88.97 Y58.361 E0.03108
G1 X88.528 Y58.046 E0.03107
G1 X88.033 Y57.824 E0.03106
G1 X87.505 Y57.702 E0.03106
G1 X86.963 Y57.687 E0.03104
G1 X86.45 Y57.774 E0.02977
G1 X86.089 Y57.89 E0.02169
G1 X85.616 Y58.142 E0.03071
G1 X85.196 Y58.486 E0.03108
G1 X84.851 Y58.906 E0.03108
G1 X84.599 Y59.38 E0.03071
G1 X84.484 Y59.741 E0.02169
G1 X84.396 Y60.253 E0.02977
G1 X84.412 Y60.795 E0.03104
G1 X84.533 Y61.324 E0.03106
G1 X84.755 Y61.819 E0.03106
G1 X85.07 Y62.261 E0.03107
G1 X85.466 Y62.633 E0.03108
G1 X85.927 Y62.92 E0.03108
G1 X86.435 Y63.112 E0.03108
G1 X87.017 Y63.207 E0.03374
G1 X86.074 Y64.15 E0.07629
G1 X82.202 Y60.278 E0.31348
G1 X76.89 Y65.59 E0.43002
G1 X64.07 Y52.77 E1.03777
G1 X69.382 Y47.458 E0.43002
G1 X65.516 Y43.592 E0.31297
G1 X66.395 Y42.712 E0.07119
G1 X66.537 Y43.328 E0.03615
G1 X66.759 Y43.823 E0.03106
G1 X67.074 Y44.265 E0.03107
G1 X67.47 Y44.637 E0.03108
G1 X67.931 Y44.924 E0.03108
G1 X68.439 Y45.115 E0.03108
G1 X68.975 Y45.204 E0.03108
G1 X69.517 Y45.185 E0.03108
G1 X70.046 Y45.061 E0.03108
G1 X70.54 Y44.836 E0.03107
G1 X70.968 Y44.527 E0.03025
G1 X70.996 Y44.499 E0.00228
G1 E-0.6
G1 Z0.6 F7800
G1 X85.548 Y58.839
G1 Z0.3
G1 E0.6 F1800
;TYPE:External perimeter
G1 X85.266 Y59.183 E0.02548
G1 X85.057 Y59.573 E0.02534
G1 X84.966 Y59.858 E0.01712
G1 X84.893 Y60.288 E0.02497
G1 X84.906 Y60.732 E0.02544
G1 X85.005 Y61.166 E0.02545
G1 X85.187 Y61.571 E0.02546
G1 X85.446 Y61.934 E0.02546
G1 X85.77 Y62.238 E0.02547
G1 X86.147 Y62.474 E0.02547
G1 X86.564 Y62.631 E0.02548
G1 X87.003 Y62.703 E0.02547
G1 X87.448 Y62.688 E0.02547
G1 X87.881 Y62.586 E0.02547
G1 X88.286 Y62.402 E0.02546
G1 X88.642 Y62.144 E0.02516
G1 X88.854 Y61.933 E0.01712
G1 X89.111 Y61.576 E0.02516
G1 X89.295 Y61.172 E0.02546
G1 X89.397 Y60.739 E0.02547
G1 X89.412 Y60.294 E0.02547
G1 X89.34 Y59.855 E0.02547
G1 X89.183 Y59.438 E0.02547
G1 X88.948 Y59.061 E0.02547
G1 X88.643 Y58.736 E0.02547
G1 X88.281 Y58.478 E0.02546
G1 X87.875 Y58.296 E0.02546
G1 X87.442 Y58.196 E0.02545
G1 X86.997 Y58.184 E0.02544
G1 X86.567 Y58.257 E0.02497
G1 X86.283 Y58.348 E0.01712
G1 X85.892 Y58.556 E0.02534
G1 X85.548 Y58.839 E0.02547
;WIPE_START
G1 X85.158 Y58.748 F7800
;WIPE_END
G1 E-0.6 F1800
G1 Z0.6 F7800
G1 X70.646 Y44.148
G1 Z0.3
G1 E0.6 F1800
G1 X70.857 Y43.937 E0.01712
G1 X71.115 Y43.58 E0.02516
G1 X71.299 Y43.176 E0.02546
G1 X71.401 Y42.742 E0.02547
G1 X71.416 Y42.298 E0.02547
G1 X71.344 Y41.858 E0.02547
G1 X71.187 Y41.442 E0.02548
G1 X70.951 Y41.064 E0.02547
G1 X70.647 Y40.74 E0.02547
G1 X70.284 Y40.482 E0.02546
G1 X69.879 Y40.3 E0.02546
G1 X69.445 Y40.2 E0.02545
G1 X69.001 Y40.188 E0.02544
G1 X68.571 Y40.261 E0.02497
G1 X68.286 Y40.352 E0.01712
G1 X67.896 Y40.56 E0.02534
G1 X67.552 Y40.842 E0.02547
G1 X67.269 Y41.187 E0.02548
G1 X67.061 Y41.577 E0.02534
G1 X66.97 Y41.862 E0.01712
G1 X66.897 Y42.292 E0.02497
G1 X66.909 Y42.736 E0.02544
G1 X67.009 Y43.17 E0.02545
G1 X67.191 Y43.575 E0.02546
G1 X67.449 Y43.937 E0.02546
G1 X67.774 Y44.242 E0.02547
G1 X68.151 Y44.477 E0.02547
G1 X68.568 Y44.634 E0.02548
G1 X69.007 Y44.707 E0.02547
G1 X69.452 Y44.692 E0.02547
G1 X69.885 Y44.59 E0.02547
G1 X70.289 Y44.405 E0.02546
G1 X70.646 Y44.148 E0.02516
;WIPE_START
G1 X71.026 Y44.272 F7800
;WIPE_END
G1 E-0.6 F1800
G1 Z0.6 F7800
G1 X71.153 Y38.916
G1 Z0.3
G1 E0.6 F1800
G1 X76.869 Y44.632 E0.46271
G1 X78.741 Y42.761 E0.15151
G1 X100.997 Y65.017 E1.80172
G1 X100.745 Y65.83 E0.04871
G1 X100.376 Y66.771 E0.05785
G1 X99.939 Y67.679 E0.05771
G1 X99.436 Y68.555 E0.05783
G1 X98.87 Y69.391 E0.05779
G1 X98.244 Y70.184 E0.0578
G1 X97.559 Y70.931 E0.05804
G1 X95.602 Y72.887 E0.15841
G1 X95.458 Y72.744 E0.01165
G1 X97.088 Y71.114 E0.13195
G1 X88.45 Y62.475 E0.69929
G1 X86.074 Y64.851 E0.1923
G1 X82.202 Y60.978 E0.31348
G1 X76.89 Y66.29 E0.43002
G1 X63.369 Y52.77 E1.09452
G1 X68.681 Y47.458 E0.43002
G1 X64.815 Y43.592 E0.31297
G1 X67.191 Y41.216 E0.1923
G1 X58.541 Y32.566 E0.70024
G1 X56.91 Y34.196 E0.13195
G1 X56.766 Y34.052 E0.01165
G1 X58.723 Y32.095 E0.15841
G1 X59.47 Y31.41 E0.05804
G1 X60.262 Y30.784 E0.0578
G1 X61.098 Y30.217 E0.05779
G1 X61.974 Y29.714 E0.05783
G1 X62.883 Y29.278 E0.05771
G1 X63.824 Y28.908 E0.05785
G1 X64.636 Y28.656 E0.04871
G1 X73.025 Y37.045 E0.67906
G1 X71.153 Y38.916 E0.15151
;WIPE_START
G1 X70.87 Y39.199 F7800
;WIPE_END
G1 X69.825 Y39.496
;TYPE:Gap fill
;WIDTH:0.1719
G1 F1800
G1 X69.879 Y39.502 E0.00067
G1 X70.003 Y39.518 E0.00156
;WIDTH:0.225941
G1 X70.128 Y39.534 E0.00234
G1 X70.143 Y39.537 E0.0003
G1 X70.237 Y39.558 E0.00179
;WIDTH:0.272927
G1 X70.33 Y39.58 E0.00231
;WIDTH:0.319914
G1 X70.424 Y39.601 E0.00283
;WIDTH:0.366901
G1 X70.517 Y39.623 E0.00335
;WIDTH:0.413888
G1 X70.611 Y39.644 E0.00388
G1 X70.66 Y39.678 E0.0024
;WIDTH:0.363025
G1 X70.709 Y39.712 E0.00205
G1 X70.733 Y39.73 E0.00104
G1 X70.958 Y39.92 E0.01017
;WIDTH:0.284929
G1 X71.183 Y40.111 E0.00751
G1 X71.197 Y40.124 E0.0005
G1 X71.402 Y40.336 E0.00749
G1 X71.607 Y40.547 E0.00749
G1 X71.621 Y40.563 E0.00055
G1 X71.713 Y40.679 E0.00377
;WIDTH:0.329823
G1 X71.805 Y40.795 E0.00454
;WIDTH:0.374717
G1 X71.897 Y40.91 E0.0053
;WIDTH:0.431342
G1 X71.989 Y41.026 E0.00627
G1 X72.01 Y41.055 E0.00153
G1 X72.056 Y41.126 E0.00357
;WIDTH:0.475787
G1 X72.101 Y41.197 E0.004
;WIDTH:0.520233
G1 X72.147 Y41.268 E0.00444
;WIDTH:0.564678
G1 X72.193 Y41.339 E0.00487
;WIDTH:0.634911
G1 X72.238 Y41.41 E0.00555
G1 X72.282 Y41.473 E0.00509
G1 X72.326 Y41.537 E0.00509
G1 X72.363 Y41.595 E0.00451
;WIDTH:0.663598
G1 X72.39 Y41.638 E0.00355
G1 E-0.6
G1 Z0.6 F7800
G1 X68.396 Y45.692
G1 Z0.3
G1 E0.6 F1800
;WIDTH:0.704561
G1 X68.337 Y45.654 E0.00517
;WIDTH:0.6196
G1 X68.258 Y45.605 E0.00598
G1 X68.214 Y45.574 E0.00342
G1 X68.17 Y45.544 E0.00342
G1 X68.09 Y45.493 E0.0061
;WIDTH:0.550909
G1 X68.01 Y45.441 E0.00535
;WIDTH:0.500725
G1 X67.93 Y45.389 E0.0048
;WIDTH:0.450541
G1 X67.85 Y45.338 E0.00424
;WIDTH:0.400358
G1 X67.77 Y45.286 E0.00369
G1 X67.743 Y45.267 E0.00128
G1 X67.627 Y45.175 E0.00574
;WIDTH:0.344725
G1 X67.512 Y45.083 E0.00479
;WIDTH:0.299831
G1 X67.396 Y44.991 E0.00402
;WIDTH:0.254937
G1 X67.28 Y44.899 E0.00326
G1 X67.266 Y44.887 E0.00041
G1 X67.055 Y44.682 E0.00647
G1 X66.844 Y44.477 E0.00647
G1 X66.832 Y44.465 E0.00037
G1 X66.642 Y44.24 E0.00649
;WIDTH:0.333208
G1 X66.451 Y44.015 E0.00916
G1 X66.435 Y43.993 E0.00084
G1 X66.379 Y43.913 E0.00303
;WIDTH:0.384385
G1 X66.324 Y43.833 E0.00361
;WIDTH:0.42842
G1 X66.269 Y43.752 E0.0041
;WIDTH:0.472455
G1 X66.213 Y43.672 E0.0046
;WIDTH:0.516491
G1 X66.158 Y43.592 E0.0051
G1 X66.097 Y43.53 E0.00454
G1 X66.05 Y43.478 E0.00363
;WIDTH:0.561702
G1 X66.003 Y43.427 E0.004
G1 E-0.6
G1 Z0.6 F7800
G1 X78.583 Y44.53
G1 Z0.3
G1 E0.6 F1800
;TYPE:Solid infill
;WIDTH:0.570394
G1 X99.449 Y65.396 E1.72047
G1 X99.257 Y65.905 E0.03172
G1 X78.383 Y45.032 E1.72113
G1 X78.033 Y45.382 E0.0289
G1 X99.052 Y66.401 E1.73315
G1 X98.825 Y66.875 E0.03062
G1 X77.682 Y45.733 E1.7433
G1 X77.332 Y46.083 E0.0289
G1 X88.24 Y56.991 E0.89946
G1 X88.308 Y57.007 E0.00403
G1 X88.957 Y57.299 E0.04152
G1 X89.537 Y57.712 E0.04153
G1 X90.025 Y58.231 E0.04154
G1 X90.402 Y58.836 E0.04154
G1 X90.593 Y59.345 E0.03168
G1 X98.579 Y67.33 E0.65848
G1 X98.324 Y67.776 E0.02993
G1 X90.768 Y60.22 E0.62297
G1 X90.745 Y60.898 E0.03955
G1 X98.044 Y68.197 E0.60184
G1 X97.78 Y68.588 E0.02752
G1 X97.759 Y68.613 E0.00188
G1 X90.615 Y61.469 E0.58906
G1 X90.582 Y61.611 E0.00852
G1 X90.417 Y61.972 E0.02312
G1 X97.593 Y69.148 E0.5917
G1 E-0.6
G1 Z0.6 F7800
G1 X87.615 Y57.067
G1 Z0.3
G1 E0.6 F1800
G1 X76.981 Y46.433 E0.87676
G1 X76.869 Y46.546 E0.00926
G1 X72.765 Y42.441 E0.33842
G1 X72.749 Y42.902 E0.02688
G1 X86.708 Y56.861 E1.15095
G1 X86.246 Y56.939 E0.02729
G1 X86.124 Y56.978 E0.00746
G1 X72.619 Y43.473 E1.11358
G1 X72.586 Y43.615 E0.00852
G1 X72.421 Y43.976 E0.02312
G1 X85.616 Y57.17 E1.08795
G1 X85.158 Y57.414 E0.03021
G1 X72.172 Y44.427 E1.07082
G1 X71.891 Y44.817 E0.02797
G1 X71.876 Y44.832 E0.00129
G1 X84.77 Y57.727 E1.06322
G1 X84.586 Y57.877 E0.01385
G1 X84.421 Y58.079 E0.01519
G1 X71.525 Y45.182 E1.06336
G1 X71.118 Y45.476 E0.02927
G1 X84.112 Y58.47 E1.07144
G1 X83.868 Y58.928 E0.03021
G1 X70.663 Y45.722 E1.08885
G1 X70.324 Y45.877 E0.02169
G1 X70.156 Y45.916 E0.01009
G1 X83.68 Y59.44 E1.1151
G1 X83.648 Y59.537 E0.00596
G1 X83.565 Y60.026 E0.02893
G1 X69.58 Y46.041 E1.15314
G1 X69.191 Y46.054 E0.02269
G1 X70.595 Y47.458 E0.11574
G1 X70.445 Y47.607 E0.01232
G1 X82.052 Y59.214 E0.95706
G1 X81.702 Y59.565 E0.0289
G1 X70.095 Y47.958 E0.95706
M73 P2 R50
G1 X69.744 Y48.308 E0.0289
G1 X81.351 Y59.915 E0.95706
G1 X81.001 Y60.266 E0.0289
G1 X69.394 Y48.659 E0.95706
M73 P2 R49
G1 X69.044 Y49.009 E0.0289
G1 X80.651 Y60.616 E0.95706
G1 X80.3 Y60.967 E0.0289
G1 X68.693 Y49.36 E0.95706
G1 X68.343 Y49.71 E0.0289
G1 X79.95 Y61.317 E0.95706
G1 X79.599 Y61.668 E0.0289
G1 X67.992 Y50.061 E0.95706
G1 X67.642 Y50.411 E0.0289
G1 X79.249 Y62.018 E0.95706
G1 X78.898 Y62.369 E0.0289
G1 X67.291 Y50.761 E0.95706
G1 X66.941 Y51.112 E0.0289
G1 X78.548 Y62.719 E0.95706
G1 X78.197 Y63.069 E0.0289
G1 X66.59 Y51.462 E0.95706
G1 X66.24 Y51.813 E0.0289
G1 X77.847 Y63.42 E0.95706
G1 X77.496 Y63.77 E0.0289
G1 X65.889 Y52.163 E0.95706
G1 X65.539 Y52.514 E0.0289
G1 X77.297 Y64.271 E0.96948
G1 E-0.6
G1 Z0.6 F7800
G1 X84.201 Y61.112
G1 Z0.3
G1 E0.6 F1800
;TYPE:Gap fill
;WIDTH:0.171901
G1 X84.208 Y61.166 E0.00067
G1 X84.224 Y61.29 E0.00156
;WIDTH:0.225915
G1 X84.24 Y61.415 E0.00234
G1 X84.242 Y61.43 E0.0003
G1 X84.262 Y61.516 E0.00164
;WIDTH:0.268918
G1 X84.282 Y61.601 E0.00208
;WIDTH:0.311921
G1 X84.301 Y61.687 E0.00251
;WIDTH:0.354924
G1 X84.321 Y61.773 E0.00295
;WIDTH:0.397927
G1 X84.34 Y61.858 E0.00338
G1 X84.386 Y61.924 E0.00307
;WIDTH:0.333214
G1 X84.431 Y61.99 E0.00248
G1 X84.447 Y62.011 E0.00084
G1 X84.638 Y62.236 E0.00916
;WIDTH:0.254934
G1 X84.828 Y62.461 E0.00649
G1 X84.84 Y62.474 E0.00037
G1 X85.051 Y62.678 E0.00647
G1 X85.262 Y62.883 E0.00647
G1 X85.276 Y62.895 E0.00041
G1 X85.392 Y62.987 E0.00326
;WIDTH:0.299829
G1 X85.508 Y63.079 E0.00402
;WIDTH:0.344724
