; HEADER_BLOCK_START
; generated by OrcaSlicer 1.7.0 on 2023-12-01 at 10:39:18
; total layer number: 10
; HEADER_BLOCK_END

; THUMBNAIL_BLOCK_START
; THUMBNAIL_BLOCK_END

; external perimeters extrusion width = 0.40mm
; perimeters extrusion width = 0.40mm
; infill extrusion width = 0.45mm
; solid infill extrusion width = 0.40mm
; top infill extrusion width = 0.40mm
; first layer extrusion width = 0.50mm

; EXECUTABLE_BLOCK_START
EXCLUDE_OBJECT_DEFINE NAME=Body1.stl_id_0_copy_0 CENTER=69.038,56.9263 POLYGON=[[41.538,27.9263],[96.538,27.9263],[96.538,85.9263],[44.538,85.9263],[41.538,69.9263],[41.538,27.9263]]
M73 P0 R17
M106 S0
M106 P2 S0
;TYPE:Custom
SKEW_PROFILE LOAD=my_skew_profile
M190 S105
M109 S150
PRINT_START EXTRUDER=230 BED=105
; You can use following code instead if your PRINT_START macro support Chamber and print area bedmesh
; PRINT_START EXTRUDER=230 BED=105 Chamber=0 PRINT_MIN=37.0276,23.4192 PRINT_MAX=101.048,90.4335
G90
G21
M83 ; use relative distances for extrusion
; Filament gcode
;LAYER_CHANGE
;Z:0.2
;HEIGHT:0.2
;BEFORE_LAYER_CHANGE
;0.2
G92 E0

;AFTER_LAYER_CHANGE
;0.2
;_SET_FAN_SPEED_CHANGING_LAYER
SET_VELOCITY_LIMIT ACCEL=500 ACCEL_TO_DECEL=250
SET_VELOCITY_LIMIT SQUARE_CORNER_VELOCITY=5
; printing object Body1.stl id:0 copy 0
G1 E-.5 F1800
EXCLUDE_OBJECT_START NAME=Body1.stl_id_0_copy_0
G1 X37.995 Y25.568 F15000
G1 Z.2
G1 E.5 F1800
;TYPE:Brim
;WIDTH:0.5
G1 X38.391 Y25.063 E.02259
G1 X38.858 Y24.623 E.02259
G1 X39.384 Y24.255 E.02259
G1 X39.959 Y23.97 E.02258
G1 X40.569 Y23.772 E.02259
G1 X41.206 Y23.666 E.0227
G1 X41.604 Y23.648 E.01402
G1 X96.469 Y23.648 E1.93093
G1 X97.118 Y23.696 E.02288
G1 X97.744 Y23.837 E.02259
G1 X98.342 Y24.069 E.02259
G1 X98.9 Y24.387 E.02259
G1 X99.404 Y24.783 E.02259
G1 X99.845 Y25.249 E.02259
G1 X100.212 Y25.776 E.02259
G1 X100.498 Y26.35 E.02258
G1 X100.696 Y26.961 E.02259
G1 X100.802 Y27.597 E.0227
G1 X100.82 Y27.995 E.01402
G1 X100.82 Y85.854 E2.03628
M73 P0 R16
G1 X100.772 Y86.503 E.02288
G1 X100.631 Y87.129 E.02259
G1 X100.399 Y87.727 E.02259
G1 X100.081 Y88.285 E.02259
G1 X99.685 Y88.789 E.02259
G1 X99.218 Y89.23 E.02259
G1 X98.692 Y89.597 E.02259
G1 X98.117 Y89.883 E.02258
G1 X97.507 Y90.081 E.02259
G1 X96.87 Y90.187 E.0227
G1 X96.472 Y90.205 E.01402
G1 X44.6 Y90.205 E1.82558
G1 X43.952 Y90.157 E.02288
G1 X43.326 Y90.016 E.02259
G1 X42.727 Y89.784 E.02259
G1 X42.17 Y89.466 E.02259
G1 X41.665 Y89.07 E.02259
G1 X41.224 Y88.603 E.02259
G1 X40.857 Y88.077 E.02259
G1 X40.572 Y87.502 E.02258
G1 X40.374 Y86.892 E.02259
G1 X40.268 Y86.255 E.0227
G1 X40.25 Y85.857 E.01402
G1 X40.25 Y74.175 E.41115
G1 X40.201 Y74.034 E.00525
G1 X40.104 Y73.962 E.00426
G1 X39.734 Y73.819 E.01395
G1 X39.176 Y73.501 E.02259
G1 X38.672 Y73.105 E.02259
G1 X38.231 Y72.638 E.02259
G1 X37.864 Y72.112 E.02259
G1 X37.578 Y71.537 E.02258
G1 X37.38 Y70.927 E.02259
G1 X37.274 Y70.291 E.0227
G1 X37.256 Y69.893 E.01402
G1 X37.256 Y27.998 E1.47442
G1 X37.304 Y27.35 E.02288
G1 X37.445 Y26.724 E.02259
G1 X37.677 Y26.126 E.02259
G1 X37.975 Y25.603 E.02118
G1 X38.373 Y25.831 F15000
G1 F1800
G1 X38.382 Y25.816 E.00061
G1 X38.724 Y25.38 E.01949
G1 X39.156 Y24.972 E.02091
G1 X39.61 Y24.655 E.01949
G1 X40.123 Y24.399 E.0202
G1 X40.688 Y24.216 E.02091
G1 X41.246 Y24.123 E.0199
G1 X41.617 Y24.105 E.01309
G1 X96.457 Y24.105 E1.93004
M73 P1 R16
G1 X97.06 Y24.151 E.02127
G1 X97.619 Y24.279 E.0202
G1 X98.136 Y24.479 E.01949
G1 X98.635 Y24.762 E.0202
G1 X99.102 Y25.129 E.02091
G1 X99.495 Y25.547 E.0202
G1 X99.812 Y26.001 E.01949
G1 X100.069 Y26.514 E.0202
G1 X100.252 Y27.08 E.02091
G1 X100.345 Y27.637 E.0199
G1 X100.363 Y28.003 E.01287
G1 X100.363 Y85.832 E2.03525
G1 X100.319 Y86.425 E.02092
G1 X100.189 Y87.004 E.02091
G1 X99.98 Y87.539 E.0202
G1 X99.694 Y88.037 E.0202
G1 X99.352 Y88.472 E.01949
G1 X98.921 Y88.88 E.02091
G1 X98.466 Y89.197 E.01949
G1 X97.953 Y89.454 E.0202
G1 X97.388 Y89.637 E.02091
G1 X96.83 Y89.73 E.0199
G1 X96.459 Y89.748 E.01309
G1 X44.622 Y89.748 E1.82433
G1 X44.03 Y89.704 E.02092
G1 X43.45 Y89.574 E.02091
G1 X42.915 Y89.365 E.0202
G1 X42.418 Y89.079 E.0202
G1 X41.982 Y88.737 E.01949
G1 X41.574 Y88.306 E.02091
G1 X41.257 Y87.851 E.01949
G1 X41.001 Y87.338 E.0202
G1 X40.817 Y86.773 E.02091
G1 X40.723 Y86.199 E.02047
G1 X40.707 Y85.844 E.01251
G1 X40.707 Y74.187 E.41027
G1 X40.678 Y74.015 E.00611
G1 X40.64 Y73.905 E.00412
G1 X40.46 Y73.659 E.01072
G1 X40.257 Y73.531 E.00845
G1 X39.922 Y73.4 E.01265
G1 X39.424 Y73.114 E.0202
G1 X38.974 Y72.759 E.0202
G1 X38.581 Y72.341 E.0202
G1 X38.254 Y71.869 E.0202
G1 X38 Y71.355 E.0202
G1 X37.824 Y70.808 E.0202
G1 X37.729 Y70.234 E.02047
G1 X37.713 Y69.879 E.01251
G1 X37.713 Y28.02 E1.47317
G1 X37.757 Y27.428 E.02092
G1 X37.888 Y26.848 E.02091
G1 X38.096 Y26.314 E.0202
G1 X38.353 Y25.866 E.01818
G1 X38.75 Y26.093 F15000
G1 F1800
G1 X38.757 Y26.081 E.0005
G1 X39.056 Y25.697 E.01711
G1 X39.453 Y25.322 E.01923
G1 X39.853 Y25.045 E.01711
G1 X40.287 Y24.828 E.0171
G1 X40.807 Y24.659 E.01922
G1 X41.287 Y24.579 E.01712
G1 X41.631 Y24.562 E.01215
G1 X96.435 Y24.562 E1.92874
G1 X96.981 Y24.604 E.01929
G1 X97.495 Y24.721 E.01853
G1 X97.948 Y24.898 E.01714
G1 X98.371 Y25.138 E.0171
G1 X98.8 Y25.475 E.0192
G1 X99.145 Y25.844 E.0178
G1 X99.423 Y26.244 E.01714
G1 X99.64 Y26.679 E.0171
G1 X99.808 Y27.198 E.01922
G1 X99.888 Y27.678 E.01712
G1 X99.905 Y28.01 E.0117
G1 X99.906 Y85.81 E2.03421
M73 P2 R16
G1 X99.864 Y86.367 E.01966
G1 X99.746 Y86.88 E.0185
G1 X99.561 Y87.35 E.01778
G1 X99.319 Y87.772 E.01713
G1 X99.02 Y88.155 E.01711
G1 X98.623 Y88.531 E.01923
G1 X98.223 Y88.808 E.01711
G1 X97.789 Y89.025 E.0171
G1 X97.269 Y89.193 E.01922
G1 X96.79 Y89.273 E.01712
G1 X96.445 Y89.291 E.01215
G1 X44.644 Y89.291 E1.82306
G1 X44.087 Y89.249 E.01966
G1 X43.575 Y89.131 E.0185
G1 X43.105 Y88.946 E.01778
G1 X42.682 Y88.704 E.01713
G1 X42.299 Y88.405 E.01711
G1 X41.924 Y88.008 E.01923
G1 X41.647 Y87.608 E.01711
G1 X41.429 Y87.174 E.0171
G1 X41.266 Y86.675 E.01849
G1 X41.178 Y86.143 E.01896
G1 X41.164 Y85.83 E.01102
G1 X41.164 Y74.196 E.40947
G1 X41.13 Y73.946 E.00886
G1 X41.074 Y73.763 E.00674
G1 X41.002 Y73.626 E.00544
G1 X40.836 Y73.399 E.0099
G1 X40.692 Y73.265 E.00691
G1 X40.51 Y73.15 E.0076
G1 X40.112 Y72.982 E.01522
G1 X39.673 Y72.728 E.01783
G1 X39.277 Y72.414 E.01781
G1 X38.931 Y72.044 E.01781
G1 X38.644 Y71.627 E.01781
G1 X38.421 Y71.173 E.01781
G1 X38.268 Y70.69 E.01781
G1 X38.184 Y70.178 E.01826
G1 X38.17 Y69.866 E.01102
G1 X38.17 Y28.042 E1.47193
G1 X38.212 Y27.485 E.01966
G1 X38.33 Y26.973 E.0185
G1 X38.515 Y26.503 E.01778
G1 X38.73 Y26.127 E.01522
G1 X39.126 Y26.355 F15000
G1 F1800
G1 X39.132 Y26.345 E.00041
G1 X39.389 Y26.014 E.01472
G1 X39.751 Y25.672 E.01752
G1 X40.078 Y25.445 E.01404
G1 X40.452 Y25.256 E.01472
G1 X40.925 Y25.103 E.01753
G1 X41.328 Y25.036 E.01436
G1 X41.646 Y25.019 E.01122
G1 X96.412 Y25.019 E1.92742
G1 X96.902 Y25.056 E.0173
G1 X97.369 Y25.163 E.01685
G1 X97.742 Y25.309 E.01409
G1 X98.107 Y25.513 E.01471
G1 X98.497 Y25.82 E.01748
G1 X98.794 Y26.14 E.01537
G1 X99.023 Y26.47 E.01413
G1 X99.211 Y26.843 E.01472
G1 X99.365 Y27.317 E.01753
G1 X99.432 Y27.72 E.01438
G1 X99.448 Y28.018 E.01052
G1 X99.449 Y85.788 E2.03314
G1 X99.411 Y86.289 E.01767
G1 X99.305 Y86.754 E.0168
G1 X99.143 Y87.16 E.01538
G1 X98.944 Y87.508 E.01412
G1 X98.687 Y87.839 E.01472
G1 X98.326 Y88.181 E.01752
G1 X97.998 Y88.408 E.01404
G1 X97.624 Y88.596 E.01472
G1 X97.151 Y88.75 E.01753
G1 X96.748 Y88.817 E.01436
G1 X96.43 Y88.834 E.01122
G1 X44.666 Y88.834 E1.82175
M73 P3 R16
G1 X44.166 Y88.796 E.01767
G1 X43.701 Y88.69 E.0168
G1 X43.294 Y88.528 E.01538
G1 X42.946 Y88.329 E.01412
G1 X42.616 Y88.072 E.01472
G1 X42.274 Y87.711 E.01752
G1 X42.037 Y87.366 E.01473
G1 X41.858 Y87.009 E.01406
G1 X41.71 Y86.555 E.01679
G1 X41.633 Y86.081 E.0169
G1 X41.621 Y74.206 E.41794
G1 X41.564 Y73.806 E.0142
G1 X41.475 Y73.543 E.00977
G1 X41.366 Y73.349 E.00783
G1 X41.211 Y73.138 E.00923
G1 X41.01 Y72.937 E.01
G1 X40.76 Y72.768 E.01063
G1 X40.321 Y72.574 E.01686
G1 X39.923 Y72.343 E.01622
G1 X39.581 Y72.069 E.01542
G1 X39.282 Y71.748 E.01542
G1 X39.035 Y71.387 E.01542
G1 X38.844 Y70.993 E.01542
G1 X38.712 Y70.574 E.01544
G1 X38.639 Y70.117 E.01629
G1 X38.627 Y28.065 E1.47998
G1 X38.665 Y27.564 E.01767
G1 X38.771 Y27.099 E.0168
G1 X38.933 Y26.693 E.01538
G1 X39.107 Y26.389 E.01229
G1 X39.503 Y26.619 F15000
G1 F1800
G1 X39.519 Y26.592 E.0011
G1 X39.722 Y26.33 E.01165
G1 X40.048 Y26.022 E.01579
G1 X40.321 Y25.834 E.01167
G1 X40.617 Y25.685 E.01165
G1 X41.044 Y25.546 E.01581
G1 X41.37 Y25.492 E.01163
G1 X41.662 Y25.476 E.01029
G1 X96.39 Y25.476 E1.92609
G1 X96.824 Y25.509 E.01532
G1 X97.244 Y25.604 E.01516
G1 X97.554 Y25.727 E.01175
G1 X97.843 Y25.889 E.01164
G1 X98.194 Y26.165 E.01572
G1 X98.443 Y26.435 E.01292
G1 X98.633 Y26.713 E.01185
G1 X98.783 Y27.008 E.01165
G1 X98.921 Y27.436 E.01581
G1 X98.976 Y27.763 E.01166
G1 X98.991 Y28.027 E.00933
G1 X98.992 Y85.766 E2.03205
G1 X98.959 Y86.21 E.01567
G1 X98.863 Y86.628 E.01507
G1 X98.726 Y86.969 E.01297
G1 X98.557 Y87.261 E.01184
G1 X98.354 Y87.522 E.01165
G1 X98.028 Y87.831 E.01579
G1 X97.755 Y88.018 E.01167
G1 X97.459 Y88.168 E.01165
G1 X97.032 Y88.306 E.01581
G1 X96.706 Y88.361 E.01163
G1 X96.414 Y88.377 E.01029
G1 X44.689 Y88.377 E1.82042
G1 X44.244 Y88.344 E.01567
G1 X43.827 Y88.248 E.01507
G1 X43.485 Y88.111 E.01297
G1 X43.194 Y87.942 E.01184
G1 X42.932 Y87.739 E.01165
G1 X42.624 Y87.414 E.01577
G1 X42.437 Y87.141 E.01165
G1 X42.286 Y86.843 E.01173
G1 X42.153 Y86.436 E.01508
G1 X42.09 Y86.033 E.01437
G1 X42.078 Y74.214 E.41596
G1 X42.018 Y73.752 E.01639
G1 X41.91 Y73.404 E.01283
G1 X41.767 Y73.131 E.01083
G1 X41.584 Y72.874 E.0111
G1 X41.34 Y72.621 E.01241
G1 X41.023 Y72.395 E.01369
G1 X40.534 Y72.168 E.01897
G1 X40.173 Y71.958 E.01468
G1 X39.886 Y71.726 E.01301
G1 X39.635 Y71.454 E.01303
G1 X39.427 Y71.147 E.01303
G1 X39.266 Y70.814 E.01303
G1 X39.157 Y70.459 E.01306
G1 X39.096 Y70.07 E.01386
G1 X39.084 Y28.087 E1.47755
M73 P4 R16
G1 X39.117 Y27.643 E.01567
G1 X39.213 Y27.225 E.01507
G1 X39.35 Y26.883 E.01297
G1 X39.483 Y26.654 E.00934
G1 X39.885 Y26.876 F15000
G1 F1800
G1 X40.122 Y26.58 E.01337
G1 X40.376 Y26.36 E.01181
G1 X40.717 Y26.161 E.0139
G1 X41.235 Y25.988 E.01921
G1 X41.64 Y25.933 E.01438
G1 X96.43 Y25.933 E1.92827
G1 X97.005 Y26.026 E.02052
G1 X97.31 Y26.128 E.01131
G1 X97.677 Y26.337 E.01488
G1 X97.962 Y26.589 E.01338
G1 X98.161 Y26.847 E.01146
G1 X98.354 Y27.219 E.01476
G1 X98.479 Y27.625 E.01495
G1 X98.535 Y28.031 E.01444
G1 X98.535 Y85.815 E2.03362
G1 X98.441 Y86.39 E.02052
G1 X98.34 Y86.695 E.01131
G1 X98.131 Y87.062 E.01488
G1 X97.879 Y87.347 E.01338
G1 X97.621 Y87.546 E.01146
G1 X97.249 Y87.739 E.01476
G1 X96.843 Y87.864 E.01495
G1 X96.436 Y87.92 E.01443
G1 X44.64 Y87.92 E1.82292
G1 X44.064 Y87.826 E.02052
G1 X43.76 Y87.725 E.01131
G1 X43.392 Y87.516 E.01488
G1 X43.107 Y87.264 E.01338
G1 X42.909 Y87.006 E.01146
G1 X42.715 Y86.634 E.01476
G1 X42.59 Y86.228 E.01495
G1 X42.535 Y85.821 E.01444
G1 X42.535 Y72.092 E.4832
G1 X42.487 Y71.988 E.00403
G1 X42.398 Y71.955 E.00336
G1 X41.636 Y71.955 E.02681
G1 X41.186 Y71.898 E.01594
G1 X40.843 Y71.792 E.01266
G1 X40.418 Y71.562 E.01699
G1 X40.103 Y71.282 E.01484
G1 X39.844 Y70.918 E.01572
G1 X39.701 Y70.617 E.01171
G1 X39.638 Y70.437 E.00674
G1 X39.542 Y69.847 E.02102
G1 X39.542 Y28.038 E1.47142
G1 X39.635 Y27.463 E.02052
G1 X39.737 Y27.156 E.01138
G1 X39.867 Y26.912 E.00973
G1 X40.264 Y27.135 F15000
G1 F1800
G1 X40.288 Y27.092 E.00174
G1 X40.478 Y26.866 E.01039
G1 X40.671 Y26.71 E.00874
G1 X40.95 Y26.554 E.01124
G1 X41.378 Y26.422 E.01578
G1 X41.63 Y26.39 E.00894
G1 X96.441 Y26.39 E1.92898
M73 P5 R16
G1 X96.934 Y26.478 E.01764
G1 X97.164 Y26.561 E.0086
G1 X97.376 Y26.68 E.00854
G1 X97.601 Y26.87 E.01039
G1 X97.758 Y27.062 E.00874
G1 X97.914 Y27.341 E.01124
G1 X98.046 Y27.77 E.01578
G1 X98.077 Y28.022 E.00894
G1 X98.077 Y85.826 E2.03433
G1 X97.99 Y86.319 E.01764
G1 X97.907 Y86.549 E.0086
G1 X97.788 Y86.761 E.00854
G1 X97.598 Y86.986 E.01038
G1 X97.405 Y87.143 E.00874
G1 X97.126 Y87.299 E.01124
G1 X96.698 Y87.431 E.01578
G1 X96.446 Y87.462 E.00894
G1 X44.629 Y87.462 E1.82363
G1 X44.135 Y87.375 E.01764
G1 X43.905 Y87.292 E.0086
G1 X43.694 Y87.173 E.00854
G1 X43.468 Y86.983 E.01038
G1 X43.311 Y86.79 E.00874
G1 X43.156 Y86.511 E.01124
G1 X43.024 Y86.083 E.01578
G1 X42.992 Y85.831 E.00894
G1 X42.992 Y71.635 E.49961
G1 X42.944 Y71.531 E.00403
G1 X42.855 Y71.498 E.00336
G1 X41.627 Y71.498 E.0432
G1 X41.316 Y71.46 E.01105
G1 X41.058 Y71.389 E.00941
G1 X40.716 Y71.215 E.01351
G1 X40.476 Y71.019 E.01088
G1 X40.262 Y70.732 E.01261
G1 X40.111 Y70.414 E.01239
G1 X40.069 Y70.287 E.00472
G1 X39.999 Y69.858 E.01528
G1 X39.999 Y28.027 E1.4722
G1 X40.086 Y27.533 E.01764
G1 X40.169 Y27.304 E.0086
G1 X40.244 Y27.17 E.00539
G1 X40.635 Y27.403 F15000
G1 F1800
G1 X40.685 Y27.318 E.00347
G1 X40.823 Y27.166 E.00721
G1 X40.949 Y27.072 E.00553
G1 X41.175 Y26.951 E.00904
G1 X41.507 Y26.86 E.01209
G1 X41.622 Y26.847 E.00408
G1 X96.453 Y26.847 E1.92971
G1 X96.853 Y26.927 E.01437
G1 X96.997 Y26.986 E.00548
G1 X97.15 Y27.077 E.00623
G1 X97.302 Y27.214 E.00721
G1 X97.396 Y27.34 E.00553
G1 X97.516 Y27.567 E.00904
G1 X97.607 Y27.898 E.01209
G1 X97.62 Y28.013 E.00408
G1 X97.62 Y85.838 E2.03506
M73 P6 R16
G1 X97.54 Y86.238 E.01437
G1 X97.482 Y86.382 E.00548
G1 X97.391 Y86.535 E.00624
G1 X97.254 Y86.687 E.00721
G1 X97.127 Y86.781 E.00553
G1 X96.901 Y86.901 E.00904
G1 X96.57 Y86.992 E.01209
G1 X96.454 Y87.005 E.00408
G1 X44.617 Y87.005 E1.82436
M73 P6 R15
G1 X44.216 Y86.925 E.01437
G1 X44.072 Y86.867 E.00548
G1 X43.92 Y86.776 E.00624
G1 X43.768 Y86.639 E.00721
G1 X43.674 Y86.512 E.00553
G1 X43.553 Y86.286 E.00904
G1 X43.462 Y85.955 E.01209
G1 X43.449 Y85.839 E.00408
G1 X43.449 Y71.178 E.516
G1 X43.401 Y71.074 E.00403
G1 X43.312 Y71.04 E.00336
G1 X41.619 Y71.04 E.05958
G1 X41.37 Y71.006 E.00886
G1 X41.181 Y70.949 E.00693
G1 X40.925 Y70.809 E.01029
G1 X40.774 Y70.674 E.00711
G1 X40.681 Y70.548 E.00553
G1 X40.52 Y70.21 E.01317
G1 X40.456 Y69.869 E.01218
G1 X40.456 Y28.015 E1.47302
G1 X40.536 Y27.615 E.01437
G1 X40.595 Y27.47 E.00548
G1 X40.614 Y27.437 E.00135
G1 X41.007 Y27.671 F15000
G1 F1800
G1 X41.085 Y27.541 E.00536
G1 X41.23 Y27.432 E.00637
G1 X41.384 Y27.357 E.00604
G1 X41.614 Y27.304 E.0083
G1 X96.466 Y27.304 E1.93046
G1 X96.754 Y27.373 E.01043
G1 X96.927 Y27.476 E.00708
G1 X97.035 Y27.622 E.00637
G1 X97.11 Y27.776 E.00604
G1 X97.163 Y28.006 E.0083
G1 X97.163 Y85.851 E2.03581
G1 X97.094 Y86.139 E.01043
G1 X96.991 Y86.312 E.00708
G1 X96.846 Y86.42 E.00637
G1 X96.692 Y86.495 E.00604
G1 X96.462 Y86.548 E.0083
G1 X44.603 Y86.548 E1.82511
M73 P7 R15
G1 X44.315 Y86.479 E.01043
G1 X44.142 Y86.376 E.00708
G1 X44.034 Y86.231 E.00637
G1 X43.959 Y86.077 E.00604
G1 X43.906 Y85.847 E.0083
G1 X43.906 Y70.721 E.53236
G1 X43.858 Y70.617 E.00403
G1 X43.769 Y70.583 E.00336
G1 X41.61 Y70.583 E.07599
G1 X41.439 Y70.555 E.00611
G1 X41.322 Y70.514 E.00435
G1 X41.149 Y70.411 E.00708
G1 X41.041 Y70.266 E.00637
G1 X40.966 Y70.112 E.00604
G1 X40.913 Y69.882 E.0083
G1 X40.913 Y28.001 E1.47395
G1 X40.982 Y27.713 E.01043
G1 X40.986 Y27.706 E.00031
G1 X41.417 Y27.854 F15000
G1 F1800
G1 X41.419 Y27.849 E.00019
G1 X41.598 Y27.761 E.00704
G1 X96.478 Y27.761 E1.93141
G1 X96.619 Y27.81 E.00525
G1 X96.706 Y27.99 E.00704
G1 X96.706 Y85.863 E2.03676
G1 X96.658 Y86.004 E.00525
G1 X96.478 Y86.091 E.00704
G1 X44.592 Y86.091 E1.82606
G1 X44.451 Y86.043 E.00525
G1 X44.363 Y85.863 E.00704
G1 X44.363 Y70.126 E.55382
G1 X41.598 Y70.126 E.09731
G1 X41.457 Y70.078 E.00525
G1 X41.37 Y69.898 E.00704
G1 X41.37 Y27.99 E1.4749
M73 P8 R15
G1 X41.404 Y27.892 E.00365
G1 E-.5
G1 X44.613 Y69.648 F15000
G1 E.5 F1800
;TYPE:Outer wall
;WIDTH:0.499999
G1 X41.848 Y69.648 E.09731
G1 X41.848 Y28.24 E1.4573
G1 X96.228 Y28.24 E1.91381
G1 X96.228 Y33.478 E.18434
G1 X96.228 Y85.613 E1.83482
G1 X44.842 Y85.613 E1.80846
G1 X44.842 Y69.876 E.55382
G1 X44.772 Y69.712 E.0063
G1 X44.65 Y69.663 E.00461
G1 X44.703 Y69.21 F15000
;TYPE:Inner wall
G1 F1800
G1 X44.613 Y69.191 E.00325
G1 X42.305 Y69.191 E.08122
G1 X42.305 Y28.697 E1.42513
G1 X95.771 Y28.697 E1.88164
M73 P9 R15
