; HEADER_BLOCK_START
; generated by OrcaSlicer 1.7.0 on 2023-11-05 at 14:43:58
; total layer number: 75
; HEADER_BLOCK_END

; THUMBNAIL_BLOCK_START
; THUMBNAIL_BLOCK_END

; external perimeters extrusion width = 0.40mm
; perimeters extrusion width = 0.40mm
; infill extrusion width = 0.45mm
; solid infill extrusion width = 0.40mm
; top infill extrusion width = 0.40mm
; first layer extrusion width = 0.50mm

; EXECUTABLE_BLOCK_START
EXCLUDE_OBJECT_DEFINE NAME=Body1.stl_id_0_copy_0 CENTER=138.655,55.4144 POLYGON=[[93.0546,44.4943],[93.1086,43.6263],[93.2699,42.7716],[93.5359,41.9435],[93.9025,41.1549],[94.3641,40.4177],[94.9136,39.7435],[95.5424,39.1427],[97.7721,37.2628],[98.4262,36.7736],[99.1328,36.3639],[99.8823,36.0394],[100.665,35.8044],[101.469,35.6621],[102.284,35.6144],[175.059,35.6144],[175.874,35.6621],[176.678,35.8044],[177.461,36.0394],[178.21,36.3639],[178.917,36.7736],[179.571,37.2628],[181.767,39.1142],[182.396,39.7151],[182.945,40.3893],[183.407,41.1264],[183.773,41.9151],[184.039,42.7432],[184.201,43.5978],[184.255,44.4659],[184.255,65.0549],[184.201,65.923],[184.039,66.7777],[183.773,67.6057],[183.407,68.3944],[182.945,69.1315],[182.396,69.8057],[181.767,70.4066],[178.019,73.5661],[177.365,74.0552],[176.659,74.4649],[175.909,74.7894],[175.127,75.0244],[174.323,75.1668],[173.507,75.2144],[102.251,75.2144],[101.435,75.1668],[100.631,75.0244],[99.8486,74.7894],[99.0991,74.4649],[98.3924,74.0552],[97.7383,73.5661],[95.5424,71.7146],[94.9136,71.1137],[94.3641,70.4395],[93.9025,69.7024],[93.5359,68.9137],[93.2699,68.0857],[93.1086,67.231],[93.0546,66.3629],[93.0546,44.4943]]
M73 P0 R62
M106 S0
M106 P2 S0
;TYPE:Custom
M190 S105
M109 S150
PRINT_START EXTRUDER=230 BED=105
; You can use following code instead if your PRINT_START macro support Chamber and print area bedmesh
; PRINT_START EXTRUDER=230 BED=105 Chamber=0 PRINT_MIN=88.4838,31.0436 PRINT_MAX=188.825,79.7852
G90
G21
M83 ; use relative distances for extrusion
; Filament gcode
;LAYER_CHANGE
;Z:0.2
;HEIGHT:0.2
;BEFORE_LAYER_CHANGE
;0.2
G92 E0

;AFTER_LAYER_CHANGE
;0.2
;_SET_FAN_SPEED_CHANGING_LAYER
SET_VELOCITY_LIMIT ACCEL=500 ACCEL_TO_DECEL=250
SET_VELOCITY_LIMIT SQUARE_CORNER_VELOCITY=5
; printing object Body1.stl id:0 copy 0
G1 E-.5 F1800
EXCLUDE_OBJECT_START NAME=Body1.stl_id_0_copy_0
G1 X89.601 Y40.107 F15000
G1 Z.2
G1 E.5 F1800
;TYPE:Brim
;WIDTH:0.5
G1 X89.962 Y39.331 E.03011
G1 X90.226 Y38.844 E.01949
G1 X90.68 Y38.119 E.03011
G1 X91.003 Y37.669 E.01949
G1 X91.543 Y37.006 E.03011
G1 X91.918 Y36.6 E.01946
G1 X92.748 Y35.819 E.04009
G1 X95.177 Y33.782 E.11157
G1 X95.82 Y33.3 E.02829
G1 X96.254 Y33.014 E.0183
G1 X96.949 Y32.611 E.02828
G1 X97.414 Y32.377 E.0183
G1 X98.151 Y32.057 E.02828
G1 X98.639 Y31.879 E.0183
G1 X99.409 Y31.648 E.02828
G1 X99.915 Y31.527 E.0183
G1 X100.706 Y31.387 E.02828
G1 X101.221 Y31.327 E.01827
G1 X102.29 Y31.272 E.03766
G1 X175.058 Y31.272 E2.56099
G1 X176.122 Y31.327 E.03747
G1 X176.637 Y31.387 E.01827
G1 X177.428 Y31.527 E.02828
G1 X177.934 Y31.648 E.0183
G1 X178.704 Y31.879 E.02828
G1 X179.192 Y32.057 E.0183
G1 X179.929 Y32.377 E.02828
G1 X180.394 Y32.611 E.0183
G1 X181.089 Y33.014 E.02828
G1 X181.522 Y33.3 E.01827
G1 X182.374 Y33.947 E.03766
G1 X184.561 Y35.79 E.10066
G1 X185.391 Y36.571 E.04011
G1 X185.766 Y36.977 E.01945
G1 X186.307 Y37.641 E.03011
G1 X186.629 Y38.091 E.01949
G1 X187.083 Y38.816 E.03011
G1 X187.347 Y39.302 E.01949
G1 X187.708 Y40.078 E.03011
G1 X187.91 Y40.594 E.01949
G1 X188.171 Y41.408 E.03011
G1 X188.308 Y41.945 E.01949
G1 X188.466 Y42.786 E.03011
G1 X188.535 Y43.334 E.01946
G1 X188.597 Y44.472 E.0401
G1 X188.597 Y65.049 E.72417
G1 X188.535 Y66.187 E.0401
G1 X188.466 Y66.735 E.01946
G1 X188.308 Y67.576 E.03011
G1 X188.171 Y68.112 E.01949
G1 X187.91 Y68.927 E.03011
G1 X187.708 Y69.443 E.01949
G1 X187.347 Y70.218 E.03011
G1 X187.083 Y70.705 E.01949
G1 X186.629 Y71.43 E.03011
G1 X186.307 Y71.88 E.01949
G1 X185.766 Y72.543 E.03011
G1 X185.391 Y72.949 E.01946
G1 X184.561 Y73.73 E.0401
G1 X180.615 Y77.047 E.18143
G1 X179.971 Y77.529 E.02828
G1 X179.537 Y77.815 E.0183
G1 X178.842 Y78.218 E.02828
G1 X178.378 Y78.452 E.0183
G1 X177.641 Y78.772 E.02828
G1 X177.152 Y78.95 E.0183
G1 X176.383 Y79.181 E.02828
G1 X175.877 Y79.301 E.0183
G1 X175.086 Y79.441 E.02828
G1 X174.57 Y79.502 E.01827
G1 X173.501 Y79.557 E.03766
G1 X102.256 Y79.557 E2.50739
G1 X101.188 Y79.502 E.03766
G1 X100.672 Y79.441 E.01827
G1 X99.881 Y79.301 E.02828
G1 X99.375 Y79.181 E.0183
G1 X98.606 Y78.95 E.02828
G1 X98.117 Y78.772 E.0183
G1 X97.38 Y78.452 E.02828
G1 X96.915 Y78.218 E.0183
G1 X96.22 Y77.815 E.02828
G1 X95.787 Y77.529 E.01827
G1 X94.935 Y76.882 E.03766
G1 X92.748 Y75.038 E.10066
G1 X91.918 Y74.257 E.04011
G1 X91.543 Y73.851 E.01945
G1 X91.003 Y73.188 E.03011
G1 X90.68 Y72.738 E.01949
G1 X90.226 Y72.013 E.03011
G1 X89.962 Y71.526 E.01949
G1 X89.601 Y70.751 E.03011
G1 X89.4 Y70.235 E.01949
G1 X89.138 Y69.42 E.03011
G1 X89.002 Y68.884 E.01949
G1 X88.843 Y68.043 E.03011
G1 X88.774 Y67.494 E.01949
G1 X88.721 Y66.64 E.03011
G1 X88.712 Y44.501 E.77917
G1 X88.774 Y43.363 E.0401
G1 X88.843 Y42.814 E.01946
G1 X89.002 Y41.973 E.03011
G1 X89.138 Y41.437 E.01949
G1 X89.4 Y40.622 E.03011
G1 X89.587 Y40.144 E.01808
G1 X90.013 Y40.311 F15000
G1 F1800
G1 X90.024 Y40.283 E.00107
G1 X90.372 Y39.533 E.02911
G1 X90.623 Y39.071 E.01849
G1 X91.062 Y38.37 E.02911
G1 X91.369 Y37.943 E.01849
G1 X91.891 Y37.302 E.02911
G1 X92.247 Y36.918 E.01841
G1 X93.055 Y36.158 E.03904
G1 X95.464 Y34.138 E.11066
G1 X96.08 Y33.677 E.02709
G1 X96.492 Y33.405 E.01736
G1 X97.163 Y33.015 E.02734
G1 X97.611 Y32.789 E.01764
G1 X98.317 Y32.484 E.02706
G1 X98.78 Y32.314 E.01736
G1 X99.524 Y32.09 E.02734
G1 X100.003 Y31.976 E.01736
G1 X100.768 Y31.841 E.02734
G1 X101.255 Y31.783 E.01726
G1 X102.305 Y31.729 E.037
G1 X175.043 Y31.73 E2.55992
G1 X176.088 Y31.783 E.03681
G1 X176.575 Y31.841 E.01726
G1 X177.339 Y31.976 E.02734
G1 X177.819 Y32.09 E.01736
G1 X178.563 Y32.314 E.02734
G1 X179.026 Y32.484 E.01736
G1 X179.739 Y32.792 E.02734
G1 X180.179 Y33.015 E.01736
G1 X180.845 Y33.4 E.02706
G1 X181.261 Y33.676 E.01757
G1 X182.091 Y34.306 E.03669
G1 X184.26 Y36.134 E.09982
G1 X185.069 Y36.897 E.03914
G1 X185.423 Y37.28 E.01837
G1 X185.941 Y37.915 E.02881
G1 X186.251 Y38.349 E.01879
G1 X186.686 Y39.043 E.02881
G1 X186.937 Y39.504 E.01849
G1 X187.289 Y40.262 E.02941
G1 X187.48 Y40.751 E.01849
G1 X187.73 Y41.531 E.02881
G1 X187.862 Y42.048 E.01878
G1 X188.014 Y42.852 E.02881
G1 X188.079 Y43.38 E.01871
G1 X188.14 Y44.488 E.03907
G1 X188.14 Y65.033 E.72303
G1 X188.079 Y66.141 E.03907
G1 X188.015 Y66.66 E.01841
G1 X187.862 Y67.473 E.02911
G1 X187.733 Y67.982 E.01848
G1 X187.48 Y68.77 E.02911
G1 X187.289 Y69.259 E.01849
G1 X186.941 Y70.009 E.02911
G1 X186.69 Y70.471 E.01849
G1 X186.251 Y71.172 E.02911
G1 X185.946 Y71.599 E.01849
G1 X185.423 Y72.24 E.02911
G1 X185.069 Y72.624 E.01837
G1 X184.254 Y73.391 E.03939
G1 X180.328 Y76.691 E.18053
G1 X179.711 Y77.152 E.02708
G1 X179.3 Y77.424 E.01736
G1 X178.628 Y77.814 E.02734
G1 X178.18 Y78.04 E.01764
G1 X177.475 Y78.345 E.02706
G1 X177.012 Y78.515 E.01736
G1 X176.268 Y78.738 E.02734
G1 X175.788 Y78.853 E.01736
G1 X175.023 Y78.988 E.02734
G1 X174.536 Y79.046 E.01726
G1 X173.486 Y79.1 E.037
G1 X102.272 Y79.1 E2.50632
G1 X101.222 Y79.046 E.037
G1 X100.735 Y78.988 E.01726
G1 X99.978 Y78.854 E.02705
G1 X99.498 Y78.74 E.01736
G1 X98.754 Y78.517 E.02734
G1 X98.29 Y78.348 E.01736
G1 X97.577 Y78.04 E.02734
G1 X97.137 Y77.818 E.01736
G1 X96.465 Y77.428 E.02734
G1 X96.048 Y77.153 E.01757
G1 X95.218 Y76.523 E.03669
G1 X93.055 Y74.699 E.09956
G1 X92.247 Y73.939 E.03907
G1 X91.891 Y73.555 E.01841
G1 X91.369 Y72.914 E.02911
G1 X91.058 Y72.48 E.01879
G1 X90.619 Y71.779 E.02911
G1 X90.369 Y71.317 E.01849
G1 X90.024 Y70.575 E.02881
G1 X89.829 Y70.078 E.01879
G1 X89.579 Y69.298 E.02881
G1 X89.447 Y68.781 E.01878
G1 X89.296 Y67.977 E.02881
G1 X89.23 Y67.455 E.01849
G1 X89.178 Y66.621 E.02941
G1 X89.169 Y44.517 E.77795
G1 X89.231 Y43.399 E.0394
G1 X89.296 Y42.881 E.01838
G1 X89.447 Y42.076 E.02881
G1 X89.579 Y41.559 E.01878
G1 X89.832 Y40.772 E.02911
G1 X89.998 Y40.348 E.01601
G1 X90.424 Y40.515 F15000
G1 F1800
G1 X90.446 Y40.459 E.00213
G1 X90.783 Y39.735 E.02811
G1 X91.02 Y39.298 E.01748
G1 X91.445 Y38.622 E.02811
G1 X91.734 Y38.218 E.01749
G1 X92.239 Y37.599 E.02811
G1 X92.575 Y37.237 E.01737
G1 X93.361 Y36.498 E.038
G1 X95.751 Y34.494 E.10975
G1 X96.34 Y34.053 E.0259
G1 X96.729 Y33.795 E.01642
G1 X97.378 Y33.419 E.02639
G1 X97.809 Y33.202 E.01698
G1 X98.482 Y32.91 E.02584
G1 X98.921 Y32.749 E.01642
G1 X99.639 Y32.533 E.0264
G1 X100.093 Y32.425 E.01642
G1 X100.831 Y32.294 E.0264
G1 X101.289 Y32.239 E.01624
G1 X102.321 Y32.186 E.03634
G1 X175.028 Y32.187 E2.55885
G1 X176.054 Y32.239 E.03615
G1 X176.512 Y32.294 E.01624
G1 X177.25 Y32.425 E.0264
G1 X177.704 Y32.533 E.01642
G1 X178.422 Y32.749 E.0264
G1 X178.861 Y32.91 E.01642
G1 X179.549 Y33.208 E.0264
G1 X179.965 Y33.419 E.01642
G1 X180.6 Y33.787 E.02584
G1 X181 Y34.051 E.01687
G1 X181.808 Y34.665 E.03571
G1 X183.958 Y36.478 E.09898
G1 X184.748 Y37.222 E.03818
G1 X185.081 Y37.583 E.01729
G1 X185.575 Y38.189 E.02751
G1 X185.874 Y38.607 E.01809
G1 X186.289 Y39.27 E.02751
G1 X186.526 Y39.706 E.01748
G1 X186.87 Y40.446 E.0287
G1 X187.051 Y40.908 E.01748
G1 X187.29 Y41.653 E.02751
G1 X187.416 Y42.151 E.01808
G1 X187.561 Y42.919 E.02751
G1 X187.624 Y43.425 E.01797
G1 X187.683 Y44.504 E.03803
G1 X187.683 Y65.016 E.72189
G1 X187.624 Y66.095 E.03803
G1 X187.564 Y66.585 E.01737
G1 X187.416 Y67.37 E.02811
G1 X187.294 Y67.852 E.01748
G1 X187.051 Y68.612 E.02811
G1 X186.87 Y69.075 E.01749
G1 X186.534 Y69.8 E.02811
G1 X186.297 Y70.237 E.01748
G1 X185.874 Y70.914 E.02811
G1 X185.585 Y71.318 E.01749
G1 X185.081 Y71.937 E.02811
G1 X184.748 Y72.299 E.01729
G1 X183.947 Y73.052 E.03868
G1 X180.04 Y76.336 E.17962
G1 X179.451 Y76.776 E.02588
G1 X179.062 Y77.033 E.01642
G1 X178.414 Y77.41 E.02639
G1 X177.983 Y77.627 E.01698
G1 X177.309 Y77.919 E.02584
G1 X176.871 Y78.079 E.01642
G1 X176.153 Y78.296 E.0264
G1 X175.699 Y78.404 E.01642
G1 X174.961 Y78.535 E.0264
G1 X174.502 Y78.589 E.01624
G1 X173.471 Y78.643 E.03634
G1 X102.287 Y78.643 E2.50525
G1 X101.265 Y78.59 E.03602
G1 X100.797 Y78.535 E.01656
G1 X100.074 Y78.407 E.02584
G1 X99.62 Y78.3 E.01642
G1 X98.902 Y78.084 E.0264
G1 X98.463 Y77.925 E.01642
G1 X97.775 Y77.627 E.0264
G1 X97.358 Y77.417 E.01642
G1 X96.709 Y77.042 E.02639
G1 X96.309 Y76.777 E.01687
G1 X95.501 Y76.164 E.03571
G1 X93.362 Y74.36 E.09845
G1 X92.575 Y73.62 E.03804
G1 X92.239 Y73.258 E.01737
G1 X91.735 Y72.639 E.0281
G1 X91.435 Y72.222 E.01808
G1 X91.012 Y71.545 E.0281
G1 X90.775 Y71.108 E.01749
G1 X90.446 Y70.399 E.02751
G1 X90.259 Y69.92 E.01808
G1 X90.02 Y69.176 E.02751
G1 X89.893 Y68.678 E.01808
G1 X89.748 Y67.91 E.02751
G1 X89.686 Y67.417 E.01748
G1 X89.635 Y66.603 E.02871
G1 X89.627 Y44.533 E.77672
G1 X89.687 Y43.435 E.03869
G1 X89.748 Y42.947 E.01729
G1 X89.893 Y42.179 E.02751
G1 X90.02 Y41.681 E.01808
G1 X90.264 Y40.921 E.0281
G1 X90.409 Y40.552 E.01395
G1 X90.835 Y40.72 F15000
G1 F1800
G1 X90.868 Y40.635 E.0032
G1 X91.193 Y39.937 E.02711
G1 X91.417 Y39.526 E.01648
G1 X91.827 Y38.873 E.02711
G1 X92.1 Y38.493 E.01648
G1 X92.587 Y37.896 E.02711
G1 X92.903 Y37.556 E.01632
G1 X93.668 Y36.837 E.03696
G1 X96.038 Y34.85 E.10885
G1 X96.6 Y34.429 E.02472
G1 X96.967 Y34.186 E.01548
G1 X97.592 Y33.823 E.02544
G1 X98.006 Y33.614 E.01632
G1 X98.648 Y33.336 E.02463
G1 X99.061 Y33.185 E.01548
G1 X99.754 Y32.976 E.02546
G1 X100.182 Y32.873 E.01548
G1 X100.894 Y32.747 E.02546
G1 X101.323 Y32.696 E.01522
G1 X102.336 Y32.643 E.03568
G1 X175.013 Y32.644 E2.55777
G1 X176.02 Y32.696 E.03549
G1 X176.449 Y32.747 E.01522
G1 X177.161 Y32.873 E.02546
G1 X177.589 Y32.976 E.01548
G1 X178.282 Y33.185 E.02546
G1 X178.694 Y33.336 E.01548
G1 X179.358 Y33.624 E.02546
G1 X179.751 Y33.823 E.01548
G1 X180.356 Y34.174 E.02462
G1 X180.739 Y34.427 E.01617
G1 X181.525 Y35.024 E.03474
G1 X183.651 Y36.817 E.09787
G1 X184.426 Y37.547 E.03747
G1 X184.738 Y37.886 E.01621
G1 X185.209 Y38.464 E.02623
G1 X185.496 Y38.865 E.01739
G1 X185.892 Y39.497 E.02622
G1 X186.116 Y39.908 E.01648
G1 X186.451 Y40.629 E.02799
G1 X186.621 Y41.066 E.01648
G1 X186.849 Y41.775 E.02622
G1 X186.97 Y42.254 E.01738
G1 X187.108 Y42.985 E.0262
G1 X187.169 Y43.471 E.01722
G1 X187.226 Y44.521 E.03699
G1 X187.226 Y65 E.72076
G1 X187.169 Y66.05 E.03701
G1 X187.112 Y66.511 E.01632
G1 X186.97 Y67.268 E.02711
G1 X186.856 Y67.722 E.01648
G1 X186.621 Y68.455 E.02711
G1 X186.451 Y68.892 E.01648
G1 X186.127 Y69.591 E.02711
G1 X185.904 Y70.003 E.01648
G1 X185.496 Y70.656 E.02711
G1 X185.224 Y71.037 E.01648
G1 X184.738 Y71.635 E.02711
G1 X184.426 Y71.973 E.0162
G1 X183.641 Y72.713 E.03796
G1 X179.753 Y75.98 E.17871
G1 X179.191 Y76.4 E.02468
G1 X178.825 Y76.643 E.01548
G1 X178.199 Y77.006 E.02544
G1 X177.785 Y77.215 E.01632
G1 X177.143 Y77.493 E.02463
G1 X176.73 Y77.644 E.01548
G1 X176.038 Y77.853 E.02546
G1 X175.61 Y77.955 E.01548
G1 X174.898 Y78.082 E.02546
G1 X174.468 Y78.133 E.01522
G1 X173.456 Y78.185 E.03568
G1 X102.302 Y78.185 E2.50417
G1 X101.307 Y78.135 E.03505
G1 X100.86 Y78.082 E.01586
G1 X100.171 Y77.96 E.02463
G1 X99.742 Y77.859 E.01549
G1 X99.049 Y77.651 E.02546
G1 X98.636 Y77.501 E.01548
G1 X97.972 Y77.214 E.02546
G1 X97.579 Y77.017 E.01548
G1 X96.953 Y76.655 E.02544
G1 X96.57 Y76.402 E.01617
G1 X95.784 Y75.804 E.03474
G1 X93.669 Y74.021 E.09735
G1 X92.903 Y73.301 E.03701
G1 X92.587 Y72.961 E.01632
G1 X92.101 Y72.365 E.02709
G1 X91.813 Y71.964 E.01737
G1 X91.405 Y71.311 E.02709
G1 X91.182 Y70.899 E.01649
G1 X90.868 Y70.223 E.02623
G1 X90.688 Y69.763 E.01738
G1 X90.46 Y69.054 E.02621
G1 X90.339 Y68.575 E.01738
G1 X90.201 Y67.843 E.02622
G1 X90.142 Y67.378 E.01648
G1 X90.092 Y66.584 E.02801
G1 X90.084 Y44.549 E.7755
G1 X90.143 Y43.471 E.03798
G1 X90.201 Y43.014 E.01621
G1 X90.339 Y42.282 E.02622
G1 X90.46 Y41.804 E.01738
G1 X90.697 Y41.071 E.02709
G1 X90.82 Y40.757 E.01187
G1 X91.245 Y40.924 F15000
G1 F1800
G1 X91.29 Y40.811 E.00427
G1 X91.604 Y40.139 E.02611
G1 X91.814 Y39.753 E.01548
G1 X92.209 Y39.125 E.02611
G1 X92.466 Y38.768 E.01548
G1 X92.935 Y38.193 E.02611
G1 X93.231 Y37.875 E.01528
G1 X93.975 Y37.177 E.03592
G1 X96.325 Y35.206 E.10794
G1 X96.86 Y34.805 E.02354
G1 X97.205 Y34.577 E.01455
G1 X97.806 Y34.227 E.02449
G1 X98.204 Y34.027 E.01566
G1 X98.814 Y33.762 E.02342
G1 X99.202 Y33.62 E.01455
G1 X99.869 Y33.418 E.02452
G1 X100.271 Y33.322 E.01454
G1 X100.957 Y33.2 E.02452
G1 X101.358 Y33.152 E.0142
G1 X102.351 Y33.1 E.03501
G1 X174.997 Y33.101 E2.5567
M73 P1 R62
G1 X175.985 Y33.152 E.03482
G1 X176.386 Y33.2 E.01419
G1 X177.072 Y33.322 E.02452
G1 X177.473 Y33.418 E.01454
G1 X178.141 Y33.62 E.02452
G1 X178.528 Y33.762 E.01454
G1 X179.167 Y34.04 E.02452
G1 X179.536 Y34.227 E.01455
G1 X180.112 Y34.56 E.02341
G1 X180.478 Y34.803 E.01547
G1 X181.242 Y35.384 E.03377
G1 X183.344 Y37.156 E.09676
G1 X184.104 Y37.873 E.03676
G1 X184.395 Y38.189 E.01513
G1 X184.843 Y38.738 E.02494
G1 X185.119 Y39.124 E.01668
G1 X185.495 Y39.724 E.02494
G1 X185.705 Y40.11 E.01547
G1 X186.032 Y40.813 E.02727
G1 X186.191 Y41.222 E.01547
G1 X186.408 Y41.897 E.02494
G1 X186.525 Y42.357 E.01668
G1 X186.656 Y43.052 E.0249
G1 X186.714 Y43.516 E.01647
G1 X186.769 Y44.537 E.03596
G1 X186.769 Y64.984 E.71963
G1 X186.714 Y66.005 E.03599
G1 X186.661 Y66.436 E.01528
G1 X186.524 Y67.165 E.02611
G1 X186.417 Y67.592 E.01548
G1 X186.191 Y68.299 E.02611
G1 X186.032 Y68.709 E.01548
G1 X185.72 Y69.382 E.02611
G1 X185.511 Y69.769 E.01548
G1 X185.118 Y70.398 E.02611
G1 X184.863 Y70.756 E.01548
G1 X184.395 Y71.332 E.02611
G1 X184.104 Y71.648 E.01511
G1 X183.334 Y72.374 E.03724
G1 X179.466 Y75.624 E.1778
G1 X178.931 Y76.023 E.0235
G1 X178.587 Y76.252 E.01455
G1 X177.985 Y76.602 E.02449
G1 X177.588 Y76.802 E.01566
G1 X176.977 Y77.067 E.02342
G1 X176.589 Y77.209 E.01455
G1 X175.922 Y77.41 E.02452
G1 X175.52 Y77.507 E.01454
G1 X174.834 Y77.629 E.02452
G1 X174.434 Y77.677 E.0142
G1 X173.44 Y77.728 E.03501
G1 X102.317 Y77.728 E2.5031
G1 X101.35 Y77.679 E.03407
G1 X100.922 Y77.629 E.01516
G1 X100.267 Y77.513 E.02343
