; HEADER_BLOCK_START
; generated by OrcaSlicer 1.7.0 on 2023-11-05 at 10:58:43
; total layer number: 75
; HEADER_BLOCK_END

; THUMBNAIL_BLOCK_START
; THUMBNAIL_BLOCK_END

; external perimeters extrusion width = 0.40mm
; perimeters extrusion width = 0.40mm
; infill extrusion width = 0.45mm
; solid infill extrusion width = 0.40mm
; top infill extrusion width = 0.40mm
; first layer extrusion width = 0.50mm

; external perimeters extrusion width = 0.40mm
; perimeters extrusion width = 0.40mm
; infill extrusion width = 0.45mm
; solid infill extrusion width = 0.40mm
; top infill extrusion width = 0.40mm
; first layer extrusion width = 0.50mm

; external perimeters extrusion width = 0.40mm
; perimeters extrusion width = 0.40mm
; infill extrusion width = 0.45mm
; solid infill extrusion width = 0.40mm
; top infill extrusion width = 0.40mm
; first layer extrusion width = 0.50mm

; external perimeters extrusion width = 0.40mm
; perimeters extrusion width = 0.40mm
; infill extrusion width = 0.45mm
; solid infill extrusion width = 0.40mm
; top infill extrusion width = 0.40mm
; first layer extrusion width = 0.50mm

; external perimeters extrusion width = 0.40mm
; perimeters extrusion width = 0.40mm
; infill extrusion width = 0.45mm
; solid infill extrusion width = 0.40mm
; top infill extrusion width = 0.40mm
; first layer extrusion width = 0.50mm

; external perimeters extrusion width = 0.40mm
; perimeters extrusion width = 0.40mm
; infill extrusion width = 0.45mm
; solid infill extrusion width = 0.40mm
; top infill extrusion width = 0.40mm
; first layer extrusion width = 0.50mm

; EXECUTABLE_BLOCK_START
EXCLUDE_OBJECT_DEFINE NAME=Body1.stl_id_0_copy_0 CENTER=186.398,36.9625 POLYGON=[[140.798,24.0679],[148.276,17.7625],[224.519,17.7625],[231.998,24.0679],[231.998,49.8571],[224.519,56.1625],[148.276,56.1625],[140.798,49.8571],[140.798,24.0679]]
EXCLUDE_OBJECT_DEFINE NAME=3.5mm_Cable_Clip_v1.stl_id_1_copy_0 CENTER=159.99,76.2405 POLYGON=[[152.49,70.2405],[167.49,70.2405],[167.49,82.2405],[152.49,82.2405],[152.49,70.2405]]
EXCLUDE_OBJECT_DEFINE NAME=3.5mm_Cable_Clip_v1.stl_id_2_copy_0 CENTER=129.82,77.4549 POLYGON=[[122.32,71.4549],[137.32,71.4549],[137.32,83.4549],[122.32,83.4549],[122.32,71.4549]]
EXCLUDE_OBJECT_DEFINE NAME=3.5mm_Cable_Clip_v1.stl_id_3_copy_0 CENTER=190.341,77.4571 POLYGON=[[182.841,71.4571],[197.841,71.4571],[197.841,83.4571],[182.841,83.4571],[182.841,71.4571]]
EXCLUDE_OBJECT_DEFINE NAME=3.5mm_Cable_Clip_v1.stl_id_4_copy_0 CENTER=221.853,76.5321 POLYGON=[[214.353,70.5321],[229.353,70.5321],[229.353,82.5321],[214.353,82.5321],[214.353,70.5321]]
EXCLUDE_OBJECT_DEFINE NAME=3.5mm_Cable_Clip_v1.stl_id_5_copy_0 CENTER=254.728,74.383 POLYGON=[[247.228,68.383],[262.228,68.383],[262.228,80.383],[247.228,80.383],[247.228,68.383]]
M73 P0 R74
M106 S0
M106 P2 S0
;TYPE:Custom
M190 S90
M109 S150
PRINT_START EXTRUDER=230 BED=90
; You can use following code instead if your PRINT_START macro support Chamber and print area bedmesh
; PRINT_START EXTRUDER=230 BED=90 Chamber=0 PRINT_MIN=117.749,13.1917 PRINT_MAX=266.799,88.0279
G90
G21
M83 ; use relative distances for extrusion
; Filament gcode
SET_PRESSURE_ADVANCE ADVANCE=0.0372; Override pressure advance value
;LAYER_CHANGE
;Z:0.2
;HEIGHT:0.2
;BEFORE_LAYER_CHANGE
;0.2
G92 E0

;AFTER_LAYER_CHANGE
;0.2
;_SET_FAN_SPEED_CHANGING_LAYER
SET_VELOCITY_LIMIT ACCEL=500 ACCEL_TO_DECEL=250
SET_VELOCITY_LIMIT SQUARE_CORNER_VELOCITY=5
; printing object Body1.stl id:0 copy 0
G1 E-.5 F1800
EXCLUDE_OBJECT_START NAME=Body1.stl_id_0_copy_0
G1 X136.504 Y23.428 F15000
G1 Z.2
G1 E.5 F1800
;TYPE:Brim
;WIDTH:0.5
G1 X136.645 Y22.802 E.02335
G1 X136.877 Y22.204 E.02335
G1 X137.195 Y21.646 E.02335
G1 X137.592 Y21.14 E.02339
G1 X138.005 Y20.743 E.02085
G1 X145.471 Y14.448 E.3554
G1 X145.998 Y14.067 E.02366
G1 X146.567 Y13.771 E.02335
G1 X147.174 Y13.563 E.02335
G1 X147.807 Y13.446 E.02344
G1 X148.283 Y13.42 E.01731
G1 X224.511 Y13.42 E2.77403
G1 X225.159 Y13.468 E.02366
G1 X225.785 Y13.61 E.02335
G1 X226.384 Y13.841 E.02335
G1 X226.943 Y14.16 E.02344
G1 X227.323 Y14.447 E.01731
G1 X234.79 Y20.743 E.35544
G1 X235.255 Y21.197 E.02366
G1 X235.643 Y21.709 E.02335
G1 X235.951 Y22.272 E.02335
G1 X236.172 Y22.874 E.02335
G1 X236.303 Y23.504 E.02339
G1 X236.34 Y24.075 E.02085
G1 X236.34 Y49.849 E.93792
G1 X236.292 Y50.497 E.02366
G1 X236.151 Y51.123 E.02335
G1 X235.919 Y51.721 E.02335
G1 X235.601 Y52.279 E.02335
G1 X235.204 Y52.784 E.02339
G1 X234.791 Y53.182 E.02085
G1 X227.325 Y59.477 E.3554
G1 X226.798 Y59.858 E.02366
G1 X226.228 Y60.154 E.02335
G1 X225.621 Y60.362 E.02335
G1 X224.988 Y60.479 E.02344
G1 X224.513 Y60.505 E.01731
G1 X148.285 Y60.505 E2.77403
G1 X147.636 Y60.457 E.02366
G1 X147.01 Y60.315 E.02335
G1 X146.412 Y60.083 E.02335
G1 X145.852 Y59.765 E.02344
G1 X145.473 Y59.478 E.01731
G1 X138.005 Y53.182 E.35544
G1 X137.541 Y52.728 E.02366
G1 X137.153 Y52.216 E.02335
G1 X136.845 Y51.653 E.02335
G1 X136.624 Y51.051 E.02335
G1 X136.493 Y50.421 E.02339
G1 X136.456 Y49.85 E.02085
G1 X136.456 Y24.076 E.93792
G1 X136.501 Y23.468 E.02221
G1 X136.956 Y23.506 F15000
G1 F1800
G1 X137.081 Y22.945 E.02088
G1 X137.287 Y22.41 E.02088
G1 X137.57 Y21.91 E.02088
G1 X137.925 Y21.455 E.02101
G1 X138.307 Y21.086 E.01933
G1 X145.749 Y14.812 E.35421
G1 X146.23 Y14.463 E.02163
G1 X146.739 Y14.197 E.02088
G1 X147.301 Y14.005 E.02162
G1 X147.853 Y13.902 E.02044
G1 X148.299 Y13.877 E.01625
G1 X224.499 Y13.878 E2.77301
G1 X225.102 Y13.924 E.02199
G1 X225.661 Y14.052 E.02088
G1 X226.196 Y14.26 E.02088
G1 X226.699 Y14.548 E.02108
G1 X227.041 Y14.807 E.01561
G1 X234.479 Y21.078 E.35405
G1 X234.917 Y21.508 E.02236
G1 X235.263 Y21.967 E.02088
G1 X235.528 Y22.453 E.02015
G1 X235.734 Y23.01 E.02162
G1 X235.847 Y23.556 E.02028
G1 X235.883 Y24.086 E.01933
G1 X235.883 Y49.827 E.93674
G1 X235.839 Y50.419 E.02163
G1 X235.715 Y50.979 E.02088
G1 X235.509 Y51.515 E.02088
G1 X235.226 Y52.015 E.02088
G1 X234.87 Y52.47 E.02101
G1 X234.488 Y52.839 E.01933
G1 X227.047 Y59.113 E.35421
G1 X226.566 Y59.462 E.02163
G1 X226.057 Y59.728 E.02088
G1 X225.495 Y59.92 E.02162
G1 X224.943 Y60.022 E.02044
G1 X224.497 Y60.048 E.01625
G1 X148.307 Y60.048 E2.77264
G1 X147.714 Y60.004 E.02163
G1 X147.154 Y59.879 E.02088
G1 X146.618 Y59.673 E.02088
G1 X146.112 Y59.386 E.02118
G1 X145.755 Y59.118 E.01625
G1 X138.317 Y52.847 E.35405
G1 X137.878 Y52.416 E.02236
G1 X137.533 Y51.958 E.02088
G1 X137.259 Y51.454 E.02088
G1 X137.062 Y50.915 E.02088
G1 X136.949 Y50.369 E.02028
G1 X136.913 Y49.83 E.01966
G1 X136.913 Y24.098 E.93641
G1 X136.953 Y23.545 E.02017
G1 X137.409 Y23.582 F15000
G1 F1800
G1 X137.518 Y23.088 E.01843
G1 X137.698 Y22.615 E.01841
G1 X137.946 Y22.174 E.01842
G1 X138.26 Y21.769 E.01864
G1 X138.617 Y21.423 E.01812
G1 X146.027 Y15.175 E.35269
G1 X146.463 Y14.859 E.01962
G1 X146.929 Y14.615 E.01915
G1 X147.427 Y14.446 E.01912
G1 X147.899 Y14.359 E.01747
G1 X148.315 Y14.334 E.01518
G1 X224.476 Y14.335 E2.77158
G1 X225.023 Y14.376 E.01994
G1 X225.516 Y14.487 E.01841
G1 X226.007 Y14.679 E.01915
G1 X226.453 Y14.936 E.01874
G1 X226.758 Y15.166 E.01392
G1 X234.167 Y21.413 E.35265
G1 X234.579 Y21.819 E.02105
G1 X234.872 Y22.207 E.0177
G1 X235.106 Y22.633 E.0177
G1 X235.295 Y23.146 E.01989
G1 X235.393 Y23.627 E.01788
G1 X235.426 Y24.106 E.01745
G1 X235.426 Y49.805 E.93521
G1 X235.387 Y50.343 E.01962
G1 X235.278 Y50.837 E.01843
G1 X235.098 Y51.31 E.01841
G1 X234.85 Y51.751 E.01842
G1 X234.536 Y52.156 E.01864
G1 X234.178 Y52.502 E.01812
G1 X226.769 Y58.75 E.35269
G1 X226.333 Y59.066 E.01962
G1 X225.866 Y59.31 E.01915
G1 X225.369 Y59.479 E.01912
G1 X224.897 Y59.566 E.01747
G1 X224.48 Y59.591 E.01518
G1 X148.329 Y59.591 E2.77124
G1 X147.791 Y59.551 E.01962
G1 X147.296 Y59.443 E.01843
G1 X146.824 Y59.262 E.01841
G1 X146.37 Y59.008 E.01892
G1 X146.037 Y58.758 E.01516
G1 X138.629 Y52.512 E.35262
G1 X138.217 Y52.106 E.02105
G1 X137.913 Y51.701 E.01841
G1 X137.673 Y51.256 E.01842
G1 X137.501 Y50.78 E.01843
G1 X137.402 Y50.298 E.0179
G1 X137.37 Y49.81 E.01778
G1 X137.37 Y24.12 E.93489
G1 X137.406 Y23.622 E.01816
G1 X137.862 Y23.658 F15000
G1 F1800
G1 X137.955 Y23.229 E.01598
G1 X138.109 Y22.819 E.01595
G1 X138.323 Y22.436 E.01595
G1 X138.595 Y22.083 E.01625
G1 X138.928 Y21.759 E.01689
G1 X146.305 Y15.539 E.35115
G1 X146.696 Y15.254 E.0176
G1 X147.12 Y15.033 E.01739
G1 X147.552 Y14.888 E.01661
G1 X147.946 Y14.815 E.01456
G1 X148.333 Y14.791 E.01411
G1 X224.454 Y14.792 E2.77012
M73 P0 R73
G1 X224.945 Y14.829 E.01792
G1 X225.372 Y14.923 E.01593
G1 X225.799 Y15.088 E.01665
G1 X226.207 Y15.323 E.01714
G1 X226.476 Y15.526 E.01225
G1 X233.855 Y21.747 E.35123
G1 X234.24 Y22.129 E.01974
G1 X234.481 Y22.449 E.01457
G1 X234.684 Y22.814 E.01523
G1 X234.856 Y23.282 E.01812
G1 X234.94 Y23.698 E.01546
G1 X234.969 Y24.126 E.0156
G1 X234.969 Y49.783 E.9337
G1 X234.934 Y50.267 E.01764
G1 X234.841 Y50.696 E.01598
G1 X234.686 Y51.106 E.01595
G1 X234.473 Y51.489 E.01595
G1 X234.2 Y51.842 E.01625
G1 X233.868 Y52.166 E.01689
G1 X226.491 Y58.386 E.35115
G1 X226.1 Y58.671 E.0176
G1 X225.676 Y58.892 E.01739
G1 X225.243 Y59.037 E.01661
G1 X224.85 Y59.11 E.01456
G1 X224.463 Y59.133 E.01411
G1 X148.35 Y59.133 E2.76982
G1 X147.867 Y59.099 E.01764
G1 X147.437 Y59.006 E.01598
G1 X147.028 Y58.851 E.01594
G1 X146.628 Y58.628 E.01665
G1 X146.318 Y58.397 E.01407
G1 X138.941 Y52.178 E.35115
G1 X138.556 Y51.796 E.01972
G1 X138.295 Y51.445 E.01592
G1 X138.088 Y51.059 E.01595
G1 X137.94 Y50.646 E.01598
G1 X137.856 Y50.227 E.01554
G1 X137.827 Y49.79 E.01592
G1 X137.827 Y24.142 E.93339
G1 X137.859 Y23.698 E.01618
G1 X138.315 Y23.733 F15000
G1 F1800
G1 X138.392 Y23.369 E.01356
G1 X138.53 Y23.003 E.01421
G1 X138.712 Y22.681 E.01348
G1 X138.945 Y22.381 E.01382
G1 X139.239 Y22.094 E.01494
G1 X146.583 Y15.902 E.34959
G1 X146.929 Y15.65 E.01558
G1 X147.31 Y15.452 E.01561
G1 X147.677 Y15.329 E.01409
G1 X148.01 Y15.269 E.01231
G1 X148.351 Y15.249 E.01243
G1 X224.432 Y15.249 E2.76866
G1 X224.868 Y15.281 E.01593
G1 X225.229 Y15.36 E.01345
G1 X225.611 Y15.507 E.01488
G1 X225.962 Y15.71 E.01475
G1 X226.193 Y15.886 E.01057
G1 X233.542 Y22.082 E.3498
G1 X233.901 Y22.438 E.01843
G1 X234.102 Y22.707 E.01218
G1 X234.262 Y22.996 E.01205
G1 X234.417 Y23.417 E.01631
G1 X234.487 Y23.768 E.01302
G1 X234.511 Y24.146 E.01378
G1 X234.512 Y49.762 E.9322
G1 X234.481 Y50.192 E.01569
G1 X234.404 Y50.556 E.01356
G1 X234.266 Y50.922 E.01421
G1 X234.084 Y51.244 E.01348
G1 X233.851 Y51.544 E.01382
G1 X233.557 Y51.831 E.01494
G1 X226.213 Y58.023 E.34959
G1 X225.866 Y58.275 E.01558
G1 X225.486 Y58.473 E.01561
G1 X225.119 Y58.595 E.01409
G1 X224.786 Y58.656 E.01231
G1 X224.445 Y58.676 E.01244
G1 X148.372 Y58.676 E2.76839
G1 X147.941 Y58.646 E.01569
G1 X147.577 Y58.568 E.01356
G1 X147.23 Y58.439 E.01347
G1 X146.885 Y58.248 E.01437
G1 X146.599 Y58.036 E.01295
G1 X139.254 Y51.843 E.34962
G1 X138.896 Y51.487 E.01837
G1 X138.677 Y51.191 E.01341
M73 P1 R73
G1 X138.504 Y50.864 E.01348
G1 X138.385 Y50.532 E.01281
G1 X138.312 Y50.176 E.01325
G1 X138.284 Y49.771 E.01476
G1 X138.284 Y24.163 E.9319
G1 X138.312 Y23.773 E.01423
G1 X138.78 Y23.84 F15000
G1 F1800
G1 X138.809 Y23.641 E.00732
G1 X138.956 Y23.21 E.01657
G1 X139.107 Y22.946 E.01108
G1 X139.512 Y22.462 E.02296
G1 X146.915 Y16.22 E.35239
G1 X147.467 Y15.893 E.02336
G1 X147.579 Y15.845 E.00441
G1 X147.93 Y15.75 E.01325
G1 X148.315 Y15.706 E.01409
G1 X224.481 Y15.706 E2.77177
G1 X224.866 Y15.75 E.01409
G1 X225.217 Y15.845 E.01325
G1 X225.328 Y15.893 E.00441
G1 X225.88 Y16.22 E.02336
G1 X233.287 Y22.465 E.35256
G1 X233.614 Y22.831 E.01785
G1 X233.727 Y22.999 E.00738
G1 X233.952 Y23.514 E.02046
G1 X233.986 Y23.634 E.00454
G1 X234.055 Y24.116 E.0177
G1 X234.055 Y49.805 E.93486
G1 X233.945 Y50.428 E.02304
G1 X233.881 Y50.625 E.00753
G1 X233.606 Y51.103 E.02008
G1 X233.287 Y51.46 E.0174
G1 X225.88 Y57.705 E.35256
G1 X225.328 Y58.032 E.02336
G1 X225.216 Y58.08 E.00446
G1 X224.952 Y58.157 E.00999
G1 X224.646 Y58.207 E.01128
G1 X148.315 Y58.219 E2.77779
G1 X147.93 Y58.175 E.01409
G1 X147.579 Y58.08 E.01325
G1 X147.467 Y58.032 E.00441
G1 X146.915 Y57.705 E.02336
G1 X139.509 Y51.46 E.35256
G1 X139.182 Y51.094 E.01785
G1 X139.069 Y50.926 E.00738
G1 X138.844 Y50.411 E.02046
G1 X138.81 Y50.291 E.00454
G1 X138.741 Y49.809 E.0177
G1 X138.741 Y24.116 E.93502
G1 X138.775 Y23.88 E.00868
G1 X139.223 Y23.95 F15000
G1 F1800
G1 X139.262 Y23.701 E.00917
G1 X139.388 Y23.359 E.01327
G1 X139.456 Y23.241 E.00498
G1 X139.797 Y22.819 E.01974
G1 X147.219 Y16.562 E.35324
G1 X147.701 Y16.286 E.02022
G1 X147.979 Y16.204 E.01055
G1 X148.307 Y16.163 E.01203
G1 X224.489 Y16.163 E2.77234
G1 X224.817 Y16.204 E.01203
G1 X225.095 Y16.286 E.01055
G1 X225.577 Y16.562 E.02022
G1 X233 Y22.82 E.35333
G1 X233.273 Y23.135 E.01517
G1 X233.345 Y23.249 E.0049
G1 X233.533 Y23.698 E.01771
G1 X233.598 Y24.106 E.01503
G1 X233.598 Y49.817 E.93565
G1 X233.495 Y50.349 E.01974
G1 X233.448 Y50.478 E.00498
G1 X233.268 Y50.795 E.01327
G1 X233 Y51.105 E.0149
G1 X225.577 Y57.363 E.35333
G1 X225.095 Y57.639 E.02022
G1 X224.816 Y57.721 E.01059
G1 X224.573 Y57.756 E.00894
G1 X148.307 Y57.762 E2.77539
G1 X147.979 Y57.721 E.01203
G1 X147.701 Y57.639 E.01055
G1 X147.219 Y57.363 E.02022
G1 X139.796 Y51.105 E.35333
G1 X139.523 Y50.789 E.01517
G1 X139.451 Y50.675 E.0049
G1 X139.262 Y50.227 E.01771
G1 X139.198 Y49.819 E.01503
G1 X139.198 Y24.106 E.93573
G1 X139.216 Y23.99 E.00428
G1 X139.66 Y24.069 F15000
G1 F1800
G1 X139.713 Y23.772 E.01101
G1 X139.814 Y23.525 E.00969
G1 X140.082 Y23.177 E.01601
G1 X147.521 Y16.904 E.35411
G1 X147.836 Y16.722 E.01322
G1 X148.036 Y16.658 E.00765
G1 X148.298 Y16.62 E.00965
G1 X224.497 Y16.62 E2.77297
G1 X224.76 Y16.658 E.00965
G1 X224.96 Y16.722 E.00765
G1 X225.274 Y16.904 E.01322
G1 X232.714 Y23.177 E.35411
G1 X232.926 Y23.433 E.01211
G1 X233.082 Y23.772 E.01358
G1 X233.141 Y24.095 E.01195
G1 X233.141 Y49.83 E.93652
G1 X233.047 Y50.26 E.01601
G1 X232.923 Y50.495 E.00969
G1 X232.714 Y50.748 E.01195
G1 X225.274 Y57.021 E.35411
G1 X224.96 Y57.203 E.01322
G1 X224.76 Y57.267 E.00765
G1 X224.497 Y57.305 E.00965
G1 X148.298 Y57.305 E2.77297
G1 X148.036 Y57.267 E.00965
G1 X147.836 Y57.203 E.00765
G1 X147.521 Y57.021 E.01322
G1 X140.082 Y50.748 E.35411
G1 X139.87 Y50.492 E.01211
G1 X139.713 Y50.153 E.01358
G1 X139.655 Y49.83 E.01195
G1 X139.655 Y24.109 E.93601
G1 X140.112 Y24.109 F15000
G1 F1800
G1 X140.112 Y24.083 E.00096
G1 X140.161 Y23.862 E.00825
G1 X140.23 Y23.714 E.00592
G1 X140.367 Y23.534 E.00825
G1 X147.825 Y17.246 E.35499
G1 X147.983 Y17.154 E.00666
G1 X148.108 Y17.109 E.00483
G1 X148.288 Y17.077 E.00666
G1 X224.507 Y17.077 E2.77369
G1 X224.687 Y17.109 E.00666
G1 X224.812 Y17.154 E.00483
G1 X224.97 Y17.246 E.00666
G1 X232.428 Y23.534 E.35499
G1 X232.566 Y23.714 E.00825
G1 X232.635 Y23.862 E.00592
G1 X232.683 Y24.083 E.00825
G1 X232.683 Y49.842 E.93741
G1 X232.635 Y50.063 E.00825
G1 X232.566 Y50.211 E.00592
G1 X232.428 Y50.391 E.00825
G1 X224.97 Y56.679 E.35499
G1 X224.812 Y56.771 E.00666
G1 X224.687 Y56.816 E.00483
G1 X224.507 Y56.848 E.00666
G1 X148.288 Y56.848 E2.77369
G1 X148.108 Y56.816 E.00666
G1 X147.983 Y56.771 E.00483
G1 X147.825 Y56.679 E.00666
G1 X140.367 Y50.391 E.35499
G1 X140.23 Y50.211 E.00825
G1 X140.161 Y50.063 E.00592
G1 X140.112 Y49.842 E.00825
G1 X140.112 Y24.149 E.935
G1 X140.569 Y24.149 F15000
G1 F1800
G1 X140.569 Y24.068 E.00296
G1 X140.651 Y23.893 E.00701
G1 X148.129 Y17.588 E.35597
G1 X148.276 Y17.534 E.00571
G1 X224.519 Y17.534 E2.77456
G1 X224.667 Y17.588 E.00571
G1 X232.145 Y23.893 E.35597
G1 X232.226 Y24.068 E.00701
G1 X232.226 Y49.857 E.9385
G1 X232.145 Y50.032 E.00701
G1 X224.667 Y56.337 E.35597
G1 X224.519 Y56.391 E.00571
G1 X148.276 Y56.391 E2.77456
G1 X148.129 Y56.337 E.00571
G1 X140.651 Y50.032 E.35597
G1 X140.569 Y49.857 E.00701
G1 X140.569 Y24.189 E.93409
G1 E-.5
G1 X231.748 Y49.741 F15000
M73 P2 R73
G1 E.5 F1800
;TYPE:Outer wall
;WIDTH:0.499999
G1 X224.428 Y55.912 E.34842
M73 P2 R72
G1 X148.368 Y55.912 E2.76791
G1 X141.048 Y49.741 E.34842
G1 X141.048 Y24.184 E.93004
G1 X148.368 Y18.012 E.34842
G1 X224.428 Y18.012 E2.76791
G1 X231.748 Y24.184 E.34842
G1 X231.748 Y24.799 E.02237
