; generated by SuperSlicer 2.4 on 2023-11-04 at 14:22:10 UTC


;
;

;
;
; 

; external perimeters extrusion width = 0.42mm
; perimeters extrusion width = 0.44mm
; infill extrusion width = 0.44mm
; solid infill extrusion width = 0.44mm
; top infill extrusion width = 0.42mm
; first layer extrusion width = 0.56mm

; external perimeters extrusion width = 0.42mm
; perimeters extrusion width = 0.44mm
; infill extrusion width = 0.44mm
; solid infill extrusion width = 0.44mm
; top infill extrusion width = 0.42mm
; first layer extrusion width = 0.56mm

; external perimeters extrusion width = 0.42mm
; perimeters extrusion width = 0.44mm
; infill extrusion width = 0.44mm
; solid infill extrusion width = 0.44mm
; top infill extrusion width = 0.42mm
; first layer extrusion width = 0.56mm

; object:{"name":"cable clip","id":"cable clip.stl id:0 copy 0","object_center":[128.886222,39.328031,0.000000],"boundingbox_center":[128.886222,39.328031,2.109416],"boundingbox_size":[21.213204,21.213204,4.218832]}
; object:{"name":"NeoPixel_Mount","id":"NeoPixel_Mount.stl id:1 copy 0","object_center":[174.496663,43.755073,0.000000],"boundingbox_center":[174.496663,43.755073,4.467964],"boundingbox_size":[31.263332,31.296812,8.935928]}
; object:{"name":"NeoPixel_Soldering_Jig","id":"NeoPixel_Soldering_Jig.stl id:2 copy 0","object_center":[76.982857,44.716678,0.000000],"boundingbox_center":[76.982857,44.716678,3.092157],"boundingbox_size":[45.184801,45.184801,6.184314]}
; plater:{"center":[122.259393,44.716678,0.000000],"boundingbox_center":[122.259393,44.716678,4.467964],"boundingbox_size":[135.737872,45.184801,8.935928]}

M73 P0 R27


; Pre-Processed for Cancel-Object support by preprocess_cancellation v0.2.0
; 3 known objects
EXCLUDE_OBJECT_DEFINE NAME=cable_clip_stl_id_0_copy_0 CENTER=128.883,39.306 POLYGON=[[118.406,28.851],[118.406,49.808],[139.363,49.808],[139.363,28.851]]
EXCLUDE_OBJECT_DEFINE NAME=NeoPixel_Mount_stl_id_1_copy_0 CENTER=174.530,43.741 POLYGON=[[158.89,28.143],[158.89,59.378],[190.092,59.378],[190.092,28.143]]
EXCLUDE_OBJECT_DEFINE NAME=NeoPixel_Soldering_Jig_stl_id_2_copy_0 CENTER=77.055,44.631 POLYGON=[[54.194,21.929],[54.194,67.505],[99.771,67.505],[99.771,21.929]]
;TYPE:Custom
; custom gcode: start_gcode
M104 S0 ; Stops SuperSlicer from sending temp waits separately
M140 S0
print_start EXTRUDER=230 BED=105 CHAMBER=40
; custom gcode end: start_gcode
M107
G21 ; set units to millimeters
G90 ; use absolute coordinates
M83 ; use relative distances for extrusion
; custom gcode: start_filament_gcode
; Filament gcode
; Macro syntax: https://help.prusa3d.com/article/macros_1775

; Set pressure advance per-filament
;SET_PRESSURE_ADVANCE ADVANCE=0.0372

; Set pressure advance per-filament for different nozzle sizes
;SET_PRESSURE_ADVANCE ADVANCE=0.0x
;

; custom gcode end: start_filament_gcode
;_TOOLCHANGE 0
;LAYER_CHANGE
;Z:0.3
;HEIGHT:0.3
G1 Z0.3 F7800
G92 E0
M73 P1 R27
G1 E-0.6 F1800
G1 Z0.6 F7800
G1 X49.364 Y35.797
G1 Z0.3
G1 E0.6 F1800
;TYPE:Skirt
;WIDTH:0.52
G1 X48.453 Y37.492 E0.10126
G1 X48.081 Y38.944 E0.07888
G1 X48.044 Y40.522 E0.08304
G1 X48.531 Y42.548 E0.10968
G1 X49.361 Y44.04 E0.08984
G1 X50.058 Y44.864 E0.05677
G1 X76.835 Y71.642 E1.99277
G1 X77.659 Y72.338 E0.05677
G1 X79.355 Y73.248 E0.10127
G1 X81.178 Y73.655 E0.09827
G1 X82.46 Y73.655 E0.06746
G1 X180.659 Y63.839 E5.1932
G1 X183.364 Y62.908 E0.15055
G1 X190.817 Y58.202 E0.46384
G1 X191.89 Y57.346 E0.07224
G1 X193.681 Y55.56 E0.13307
G1 X195.246 Y52.947 E0.16029
G1 X195.497 Y50.738 E0.11699
G1 X194.956 Y48.582 E0.11699
G1 X193.693 Y46.753 E0.11699
G1 X171.552 Y24.551 E1.64997
G1 X169.75 Y23.293 E0.11563
G1 X167.598 Y22.737 E0.11699
G1 X72.697 Y15.778 E5.00727
G1 X71.938 Y15.767 E0.03997
G1 X70.412 Y15.993 E0.08117
G1 X68.973 Y16.548 E0.08117
G1 X67.654 Y17.434 E0.08359
G1 X50.061 Y34.974 E1.30733
G1 X49.364 Y35.797 E0.05672
M104 S230 ; set temperature
G1 E-0.6
G1 Z0.6 F7800
; printing object cable clip.stl id:0 copy 0
EXCLUDE_OBJECT_START NAME=cable_clip_stl_id_0_copy_0
G1 X119.892 Y42.933
G1 Z0.3
G1 E0.6 F1800
;TYPE:Internal perimeter
;WIDTH:0.56
G1 X132.491 Y30.334 E1.01993
G1 X137.88 Y35.723 E0.43625
M73 P2 R27
G1 X125.281 Y48.322 E1.01993
G1 X119.892 Y42.933 E0.43625
G1 X119.191 Y42.933 F7800
G1 F1800
G1 X132.491 Y29.633 E1.07667
G1 X138.581 Y35.723 E0.49299
G1 X125.281 Y49.023 E1.07667
G1 X119.191 Y42.933 E0.49299
G1 X118.49 Y42.933 F7800
;TYPE:External perimeter
G1 F1800
G1 X132.491 Y28.932 E1.13341
G1 X139.282 Y35.723 E0.54973
G1 X125.281 Y49.724 E1.13341
G1 X118.49 Y42.933 E0.54973
;WIPE_START
G1 X118.877 Y42.83 F7800
;WIPE_END
G1 E-0.6 F1800
G1 Z0.6 F7800
G1 X132.334 Y30.702
G1 Z0.3
G1 E0.6 F1800
;TYPE:Solid infill
;WIDTH:0.562026
G1 X137.362 Y35.73 E0.4085
G1 X137.011 Y36.08 E0.02847
G1 X132.134 Y31.203 E0.39626
G1 X131.783 Y31.554 E0.02847
G1 X136.661 Y36.431 E0.39626
G1 X136.31 Y36.781 E0.02847
G1 X131.433 Y31.904 E0.39626
G1 X131.082 Y32.254 E0.02847
G1 X135.96 Y37.132 E0.39626
G1 X135.609 Y37.482 E0.02847
G1 X130.732 Y32.605 E0.39626
G1 X130.382 Y32.955 E0.02847
G1 X135.259 Y37.833 E0.39626
G1 X134.908 Y38.183 E0.02847
G1 X130.031 Y33.306 E0.39626
G1 X129.681 Y33.656 E0.02847
G1 X134.558 Y38.534 E0.39626
G1 X134.207 Y38.884 E0.02847
G1 X129.33 Y34.007 E0.39626
G1 X128.98 Y34.357 E0.02847
G1 X133.857 Y39.235 E0.39626
G1 X133.507 Y39.585 E0.02847
G1 X128.629 Y34.708 E0.39626
G1 X128.279 Y35.058 E0.02847
G1 X133.156 Y39.935 E0.39626
G1 X132.806 Y40.286 E0.02847
G1 X127.928 Y35.409 E0.39626
G1 X127.578 Y35.759 E0.02847
G1 X132.455 Y40.636 E0.39626
G1 X132.105 Y40.987 E0.02847
G1 X127.227 Y36.11 E0.39626
G1 X126.877 Y36.46 E0.02847
G1 X131.754 Y41.337 E0.39626
G1 X131.404 Y41.688 E0.02847
G1 X126.527 Y36.81 E0.39626
G1 X126.176 Y37.161 E0.02847
G1 X131.053 Y42.038 E0.39626
G1 X130.703 Y42.389 E0.02847
G1 X125.826 Y37.511 E0.39626
G1 X125.475 Y37.862 E0.02847
G1 X130.352 Y42.739 E0.39626
G1 X130.002 Y43.09 E0.02847
G1 X125.125 Y38.212 E0.39626
G1 X124.774 Y38.563 E0.02847
G1 X129.652 Y43.44 E0.39626
G1 X129.301 Y43.79 E0.02847
G1 X124.424 Y38.913 E0.39626
G1 X124.073 Y39.264 E0.02847
G1 X128.951 Y44.141 E0.39626
G1 X128.6 Y44.491 E0.02847
G1 X123.723 Y39.614 E0.39626
G1 X123.372 Y39.965 E0.02847
G1 X128.25 Y44.842 E0.39626
G1 X127.899 Y45.192 E0.02847
G1 X123.022 Y40.315 E0.39626
G1 X122.672 Y40.665 E0.02847
G1 X127.549 Y45.543 E0.39626
G1 X127.198 Y45.893 E0.02847
G1 X122.321 Y41.016 E0.39626
G1 X121.971 Y41.366 E0.02847
G1 X126.848 Y46.244 E0.39626
G1 X126.497 Y46.594 E0.02847
G1 X121.62 Y41.717 E0.39626
G1 X121.27 Y42.067 E0.02847
G1 X126.147 Y46.945 E0.39626
G1 X125.797 Y47.295 E0.02847
G1 X120.919 Y42.418 E0.39626
G1 X120.569 Y42.768 E0.02847
G1 X125.597 Y47.796 E0.4085
G1 E-0.6
G1 Z0.6 F7800
; stop printing object cable clip.stl id:0 copy 0
EXCLUDE_OBJECT_END NAME=cable_clip_stl_id_0_copy_0
; printing object NeoPixel_Mount.stl id:1 copy 0
EXCLUDE_OBJECT_START NAME=NeoPixel_Mount_stl_id_1_copy_0
G1 X174.855 Y49.044
G1 Z0.3
G1 E0.6 F1800
;TYPE:Internal perimeter
;WIDTH:0.56
G1 X179.689 Y53.89 E0.39182
G1 X184.535 Y49.057 E0.39182
G1 X179.702 Y44.21 E0.39182
G1 X177.281 Y46.624 E0.19568
G1 X174.855 Y49.044 E0.19614
G1 X175.556 Y49.045 F7800
;TYPE:External perimeter
G1 F1800
G1 X179.69 Y53.189 E0.33508
G1 X183.835 Y49.056 E0.33508
G1 X179.701 Y44.911 E0.33508
G1 X177.631 Y46.975 E0.16731
G1 X175.556 Y49.045 E0.16777
;WIPE_START
G1 X175.273 Y49.327 F7800
;WIPE_END
G1 E-0.6 F1800
G1 Z0.6 F7800
G1 X169.201 Y44.076
G1 Z0.3
G1 E0.6 F1800
;TYPE:Internal perimeter
G1 X174.832 Y38.46 E0.45524
M73 P3 R27
G1 X179.785 Y43.427 E0.40154
G1 X176.931 Y46.273 E0.23072
G1 X174.154 Y49.043 E0.22451
G1 X179.69 Y54.593 E0.44873
G1 X179.541 Y54.797 E0.01445
G1 X179.346 Y55.146 E0.0229
G1 X163.111 Y38.868 E1.31597
M73 P3 R26
G1 X163.469 Y38.67 E0.02343
G1 X163.664 Y38.524 E0.01394
G1 X169.201 Y44.076 E0.44882
G1 E-0.6
G1 Z0.6 F7800
G1 X183.795 Y50.495
G1 Z0.3
G1 E0.6 F1800
G1 X185.319 Y48.976 E0.1232
G1 X186.768 Y50.429 E0.11751
G1 X186.616 Y50.692 E0.01739
G1 X185.99 Y50.525 E0.0371
G1 X185.305 Y50.481 E0.03929
G1 X184.6 Y50.569 E0.04067
G1 X184.129 Y50.703 E0.02805
G1 X183.975 Y50.766 E0.00951
G1 X183.795 Y50.495 E0.01863
G1 E-0.6
G1 Z0.6 F7800
G1 X167.513 Y34.27
G1 Z0.3
G1 E0.6 F1800
G1 X167.703 Y33.632 E0.03808
G1 X167.795 Y32.914 E0.04145
G1 X167.74 Y32.176 E0.04233
G1 X167.59 Y31.614 E0.0333
G1 X167.854 Y31.462 E0.01742
G1 X169.299 Y32.911 E0.11712
G1 X167.778 Y34.428 E0.12293
G1 X167.513 Y34.27 E0.01765
G1 E-0.6
G1 Z0.6 F7800
G1 X169.202 Y43.375
G1 Z0.3
G1 E0.6 F1800
G1 X174.048 Y38.541 E0.39182
G1 X169.215 Y33.695 E0.39182
G1 X164.368 Y38.528 E0.39182
G1 X169.202 Y43.375 E0.39182
G1 X169.203 Y42.674 F7800
;TYPE:External perimeter
G1 F1800
G1 X173.348 Y38.54 E0.33508
G1 X169.214 Y34.395 E0.33508
G1 X165.069 Y38.529 E0.33508
G1 X169.203 Y42.674 E0.33508
;WIPE_START
G1 X169.485 Y42.957 F7800
;WIPE_END
G1 E-0.6 F1800
G1 Z0.6 F7800
G1 X162.246 Y38.703
G1 Z0.3
G1 E0.6 F1800
;TYPE:Internal perimeter
G1 X162.655 Y38.555 E0.02489
G1 X163.199 Y38.253 E0.03561
G1 X163.554 Y37.987 E0.0254
G1 X163.927 Y37.638 E0.02923
G1 X166.155 Y35.415 E0.18018
G1 X166.578 Y34.925 E0.037
G1 X166.909 Y34.384 E0.03635
G1 X167.078 Y33.994 E0.02432
G1 X167.216 Y33.529 E0.02774
G1 X167.297 Y32.901 E0.03628
G1 X167.249 Y32.259 E0.03682
G1 X167.122 Y31.784 E0.02817
G1 X166.84 Y31.209 E0.03665
G1 X166.454 Y30.73 E0.03521
G1 X167.141 Y30.045 E0.0555
G1 X188.186 Y51.149 E1.70603
G1 X187.501 Y51.832 E0.05538
G1 X187.003 Y51.432 E0.03657
G1 X186.478 Y51.168 E0.03364
G1 X185.91 Y51.017 E0.03366
G1 X185.32 Y50.978 E0.03382
G1 X184.699 Y51.056 E0.0358
G1 X184.292 Y51.172 E0.02425
G1 X183.912 Y51.329 E0.02353
G1 X183.44 Y51.594 E0.031
G1 X183.107 Y51.841 E0.02374
G1 X182.762 Y52.156 E0.02674
G1 X180.441 Y54.473 E0.18772
G1 X180.161 Y54.789 E0.02418
G1 X179.958 Y55.065 E0.0196
G1 X179.658 Y55.604 E0.03534
G1 X179.508 Y56.011 E0.0248
G1 X162.246 Y38.703 E1.39926
G1 X161.217 Y38.372 F7800
;TYPE:External perimeter
G1 F1800
G1 X161.496 Y38.36 E0.016
G1 X162.007 Y38.263 E0.02979
G1 X162.449 Y38.102 E0.02691
G1 X162.929 Y37.836 E0.03143
G1 X163.235 Y37.606 E0.02191
G1 X163.583 Y37.281 E0.02722
G1 X165.792 Y35.077 E0.17867
G1 X166.176 Y34.632 E0.03363
G1 X166.468 Y34.155 E0.03204
G1 X166.612 Y33.824 E0.02063
G1 X166.73 Y33.427 E0.02374
G1 X166.799 Y32.888 E0.03111
G1 X166.758 Y32.342 E0.03131
G1 X166.656 Y31.959 E0.02272
G1 X166.419 Y31.477 E0.0307
G1 X166.136 Y31.125 E0.02591
G1 X165.747 Y30.735 E0.03149
G1 X167.142 Y29.344 E0.11274
G1 X188.887 Y51.15 E1.76277
G1 X187.493 Y52.54 E0.1127
G1 X187.098 Y52.143 E0.03205
G1 X186.734 Y51.851 E0.02672
G1 X186.301 Y51.634 E0.02771
G1 X185.829 Y51.508 E0.02797
G1 X185.335 Y51.476 E0.02835
G1 X184.798 Y51.543 E0.03093
G1 X184.455 Y51.641 E0.02044
G1 X184.129 Y51.775 E0.02019
G1 X183.71 Y52.011 E0.02752
G1 X183.422 Y52.224 E0.02047
G1 X183.105 Y52.515 E0.02465
G1 X180.802 Y54.813 E0.18625
G1 X180.547 Y55.101 E0.02199
G1 X180.376 Y55.334 E0.01654
G1 X180.109 Y55.812 E0.03134
G1 X179.948 Y56.253 E0.02689
G1 X179.849 Y56.764 E0.02981
G1 X179.836 Y57.041 E0.01589
G1 X161.217 Y38.372 E1.50927
;WIPE_START
G1 X161.606 Y38.465 F7800
;WIPE_END
G1 E-0.6 F1800
G1 Z0.6 F7800
G1 X163.841 Y38.379
G1 Z0.3
G1 E0.6 F1800
;TYPE:Gap fill
;WIDTH:0.552191
G1 X164.018 Y38.205 E0.014
G1 X164.135 Y38.092 E0.00914
G1 X164.257 Y37.974 E0.00958
G1 X165.376 Y36.858 E0.08901
G1 X166.494 Y35.742 E0.08901
G1 X166.507 Y35.729 E0.00102
G1 X166.736 Y35.483 E0.01899
;WIDTH:0.609395
G1 X166.966 Y35.236 E0.02121
G1 X166.995 Y35.202 E0.00279
G1 X167.074 Y35.102 E0.00803
;WIDTH:0.649731
G1 X167.153 Y35.002 E0.00862
;WIDTH:0.690067
G1 X167.232 Y34.902 E0.00922
;WIDTH:0.738607
G1 X167.311 Y34.802 E0.00993
G1 X167.36 Y34.737 E0.00634
G1 X167.408 Y34.671 E0.00634
G1 X167.464 Y34.593 E0.00749
;WIDTH:0.804513
G1 X167.507 Y34.531 E0.00643
G1 E-0.6
G1 Z0.6 F7800
G1 X169.418 Y33.114
G1 Z0.3
G1 E0.6 F1800
;WIDTH:0.717063
G1 X169.648 Y33.345 E0.0246
G1 X172.024 Y35.727 E0.25359
G1 X174.4 Y38.109 E0.25359
G1 X174.515 Y38.224 E0.0123
G1 X174.63 Y38.34 E0.0123
G1 X174.674 Y38.828 F7800
;TYPE:Solid infill
;WIDTH:0.640074
G1 F1800
G1 X179.273 Y43.427 E0.42556
G1 X178.922 Y43.777 E0.03243
G1 X174.474 Y39.328 E0.41162
G1 X174.123 Y39.678 E0.03243
G1 X178.571 Y44.127 E0.41162
G1 X178.22 Y44.477 E0.03243
G1 X173.772 Y40.028 E0.41162
G1 X173.421 Y40.378 E0.03243
G1 X177.869 Y44.827 E0.41162
G1 X177.518 Y45.177 E0.03243
G1 X173.07 Y40.728 E0.41162
G1 X172.719 Y41.078 E0.03243
G1 X177.168 Y45.527 E0.41162
G1 X176.817 Y45.877 E0.03243
G1 X172.368 Y41.428 E0.41162
G1 X172.017 Y41.778 E0.03243
G1 X176.466 Y46.227 E0.41162
G1 X176.115 Y46.577 E0.03243
G1 X171.666 Y42.128 E0.41162
G1 X171.315 Y42.478 E0.03243
G1 X175.764 Y46.927 E0.41162
G1 X175.413 Y47.277 E0.03243
G1 X170.964 Y42.828 E0.41162
G1 X170.613 Y43.178 E0.03243
G1 X175.062 Y47.627 E0.41162
G1 X174.711 Y47.977 E0.03243
G1 X170.262 Y43.528 E0.41162
G1 X169.911 Y43.878 E0.03243
G1 X174.36 Y48.327 E0.41162
G1 X174.009 Y48.677 E0.03243
G1 X169.41 Y44.077 E0.42556
G1 E-0.6
G1 Z0.6 F7800
G1 X179.905 Y43.629
G1 Z0.3
G1 E0.6 F1800
;TYPE:Gap fill
;WIDTH:0.716871
G1 X180.135 Y43.86 E0.02459
G1 X182.511 Y46.242 E0.25353
G1 X184.886 Y48.624 E0.25353
G1 X185.117 Y48.855 E0.02458
G1 X186.261 Y50.444 F7800
;TYPE:Solid infill
;WIDTH:0.532651
G1 F1800
G1 X185.311 Y49.494 E0.07312
G1 X184.96 Y49.844 E0.02698
G1 X185.241 Y50.124 E0.02158
G1 X184.617 Y50.202 E0.03419
G1 X184.459 Y50.043 E0.01222
G1 X183.693 Y50.753 F7800
;TYPE:Gap fill
;WIDTH:0.793143
G1 F1800
G1 X183.612 Y50.813 E0.00851
G1 X183.519 Y50.885 E0.00985
;WIDTH:0.733504
G1 X183.427 Y50.957 E0.00905
G1 X183.3 Y51.053 E0.01229
;WIDTH:0.647359
G1 X183.173 Y51.149 E0.0107
G1 X183.145 Y51.171 E0.00244
G1 X182.977 Y51.316 E0.01488
;WIDTH:0.574806
G1 X182.81 Y51.46 E0.01303
G1 X182.79 Y51.478 E0.00158
G1 X182.615 Y51.645 E0.01427
G1 X182.44 Y51.812 E0.01427
G1 X182.433 Y51.819 E0.00061
G1 X180.103 Y54.144 E0.19403
G1 X180.092 Y54.155 E0.00089
G1 X180.011 Y54.241 E0.00701
G1 X179.924 Y54.33 E0.00731
G1 X179.837 Y54.418 E0.00731
G1 E-0.6
G1 Z0.6 F7800
G1 X186.869 Y50.71
G1 Z0.3
G1 E0.6 F1800
;WIDTH:0.834322
G1 X186.938 Y50.753 E0.00722
;WIDTH:0.793865
G1 X187.006 Y50.797 E0.00684
;WIDTH:0.753409
G1 X187.074 Y50.841 E0.00646
;WIDTH:0.712953
G1 X187.143 Y50.884 E0.00608
G1 X187.202 Y50.927 E0.00549
;WIDTH:0.665982
G1 X187.262 Y50.97 E0.00509
G1 X187.311 Y51.01 E0.0044
G1 X187.388 Y51.079 E0.00716
;WIDTH:0.62969
G1 X187.464 Y51.148 E0.00673
G1 X187.573 Y51.239 E0.00926
;WIDTH:0.566909
G1 X187.681 Y51.33 E0.00823
G1 E-0.6
G1 Z0.6 F7800
G1 X167.84 Y31.975
M73 P4 R26
G1 Z0.3
G1 E0.6 F1800
;TYPE:Solid infill
;WIDTH:0.532888
G1 X168.781 Y32.916 E0.0725
G1 X168.43 Y33.266 E0.027
G1 X168.15 Y32.986 E0.02159
G1 X168.071 Y33.608 E0.03414
G1 X168.23 Y33.767 E0.01227
G1 E-0.6
G1 Z0.6 F7800
G1 X167.571 Y31.362
G1 Z0.3
G1 E0.6 F1800
;TYPE:Gap fill
;WIDTH:0.840612
G1 X167.528 Y31.293 E0.00732
;WIDTH:0.799313
G1 X167.484 Y31.224 E0.00693
;WIDTH:0.758014
G1 X167.44 Y31.155 E0.00654
;WIDTH:0.716716
G1 X167.397 Y31.086 E0.00615
G1 X167.349 Y31.02 E0.00614
;WIDTH:0.663643
G1 X167.302 Y30.954 E0.00564
G1 X167.261 Y30.903 E0.00455
G1 X167.2 Y30.835 E0.00628
;WIDTH:0.630156
G1 X167.14 Y30.767 E0.00593
G1 X167.048 Y30.659 E0.00928
;WIDTH:0.569364
G1 X166.957 Y30.55 E0.00828
G1 E-0.6
G1 Z0.6 F7800
; stop printing object NeoPixel_Mount.stl id:1 copy 0
EXCLUDE_OBJECT_END NAME=NeoPixel_Mount_stl_id_1_copy_0
; printing object NeoPixel_Soldering_Jig.stl id:2 copy 0
EXCLUDE_OBJECT_START NAME=NeoPixel_Soldering_Jig_stl_id_2_copy_0
G1 X88.073 Y49.906
G1 Z0.3
G1 E0.6 F1800
;TYPE:Internal perimeter
;WIDTH:0.56
G1 X82.302 Y44.136 E0.46713
G1 X76.538 Y49.906 E0.46687
G1 X82.302 Y55.67 E0.46661
G1 X88.073 Y49.906 E0.46687
G1 X87.372 Y49.906 F7800
G1 F1800
G1 X82.303 Y44.837 E0.41036
G1 X77.239 Y49.906 E0.41013
G1 X82.303 Y54.97 E0.4099
G1 X87.372 Y49.906 E0.41013
G1 X86.671 Y49.906 F7800
;TYPE:External perimeter
G1 F1800
G1 X82.303 Y45.538 E0.35359
G1 X77.94 Y49.906 E0.35339
G1 X82.303 Y54.269 E0.35319
G1 X86.671 Y49.906 E0.35339
;WIPE_START
