; HEADER_BLOCK_START
; generated by OrcaSlicer 1.7.0 on 2023-12-03 at 11:05:30
; total layer number: 4
; HEADER_BLOCK_END

; THUMBNAIL_BLOCK_START
; THUMBNAIL_BLOCK_END

; external perimeters extrusion width = 0.40mm
; perimeters extrusion width = 0.40mm
; infill extrusion width = 0.45mm
; solid infill extrusion width = 0.40mm
; top infill extrusion width = 0.40mm
; first layer extrusion width = 0.56mm

; EXECUTABLE_BLOCK_START
EXCLUDE_OBJECT_DEFINE NAME=Orca-PA-Calibration-Test CENTER=0,0 POLYGON=[[5,5],[345,5],[345,345],[5,345],[5,5]]
M73 P0 R6
M106 S0
M106 P2 S0
;TYPE:Custom
SKEW_PROFILE LOAD=my_skew_profile
M190 S105
M109 S150
PRINT_START EXTRUDER=230 BED=105
; You can use following code instead if your PRINT_START macro support Chamber and print area bedmesh
; PRINT_START EXTRUDER=230 BED=105 Chamber=0 PRINT_MIN=5,5 PRINT_MAX=345,345
G90
G21
M83 ; use relative distances for extrusion
; Filament gcode
;LAYER_CHANGE
;Z:0.25
;HEIGHT:0.25
;BEFORE_LAYER_CHANGE
;0.25
G92 E0

;AFTER_LAYER_CHANGE
;0.25
;_SET_FAN_SPEED_CHANGING_LAYER
SET_VELOCITY_LIMIT ACCEL=500 ACCEL_TO_DECEL=250
SET_VELOCITY_LIMIT SQUARE_CORNER_VELOCITY=5
;CUSTOM_GCODE
; start pressure advance pattern for layer
G1 E-.5 F1800 ; retract
G1 X135.461 Y149.507 F15000 ; Move to start XY position
G1 E.5 F1800 ;  ; unretract
G1 Z.25 F15000 ; Move to start Z position
SET_PRESSURE_ADVANCE ADVANCE=0; Override pressure advance value
G1 E-.5 F1800 ; retract
G1 X135.461 Y149.507 F15000 ; Move to box start
G1 E.5 F1800 ;  ; unretract

G1 X135.461 Y191.933 E2.06762 ; Draw perimeter (up)

G1 X219.539 Y191.933 E4.09752 ; Draw perimeter (right)

M73 P1 R6
G1 X219.539 Y149.507 E2.06762 ; Draw perimeter (down)

G1 X135.461 Y149.507 E4.09752 ; Draw perimeter (left)
M73 P2 R6
G1 E-.5 ; retract
G1 X135.967 Y150.013 F15000 ; Step inwards to print next perimeter
G1 E.5 F1800 ;  ; unretract

G1 X135.967 Y191.427 E2.01827 ; Draw perimeter (up)

G1 X219.033 Y191.427 E4.04817 ; Draw perimeter (right)

M73 P3 R6
G1 X219.033 Y150.013 E2.01827 ; Draw perimeter (down)

G1 X135.967 Y150.013 E4.04817 ; Draw perimeter (left)
M73 P4 R6
G1 E-.5 ; retract
G1 X136.473 Y150.519 F15000 ; Step inwards to print next perimeter
G1 E.5 F1800 ;  ; unretract

G1 X136.473 Y190.921 E1.96892 ; Draw perimeter (up)

M73 P5 R6
G1 X218.527 Y190.921 E3.99882 ; Draw perimeter (right)

G1 X218.527 Y150.519 E1.96892 ; Draw perimeter (down)

M73 P6 R6
G1 X136.473 Y150.519 E3.99882 ; Draw perimeter (left)
G1 E-.5 ; retract
G1 X135.461 Y192.44 F15000 ; Move to box start
G1 E.5 F1800 ;  ; unretract

G1 X135.461 Y205.946 E.65822 ; Draw perimeter (up)

M73 P7 R6
G1 X199.73 Y205.946 E3.13215 ; Draw perimeter (right)

G1 X199.73 Y192.44 E.65822 ; Draw perimeter (down)

G1 X135.461 Y192.44 E3.13215 ; Draw perimeter (left)
M73 P8 R6
G1 E-.5 ; retract
G1 X135.967 Y192.946 F15000 ; Step inwards to print next perimeter
G1 E.5 F1800 ;  ; unretract

G1 X135.967 Y205.44 E.60887 ; Draw perimeter (up)

G1 X199.224 Y205.44 E3.0828 ; Draw perimeter (right)

G1 X199.224 Y192.946 E.60887 ; Draw perimeter (down)

M73 P9 R6
G1 X135.967 Y192.946 E3.0828 ; Draw perimeter (left)
G1 E-.5 ; retract
G1 X136.473 Y193.452 F15000 ; Step inwards to print next perimeter
G1 E.5 F1800 ;  ; unretract

G1 X136.473 Y204.933 E.55952 ; Draw perimeter (up)

G1 X198.718 Y204.933 E3.03344 ; Draw perimeter (right)

M73 P10 R6
G1 X198.718 Y193.452 E.55952 ; Draw perimeter (down)

G1 X136.473 Y193.452 E3.03344 ; Draw perimeter (left)
M73 P10 R5
G1 E-.5 ; retract
G1 X136.847 Y193.826 F15000 ; Move to fill start
G1 E.5 F1800 ;  ; unretract
G1 E-.5 ; retract
G1 X137.563 Y193.826 F15000 ; Fill: Step right
G1 E.5 F1800 ;  ; unretract

G1 X136.847 Y194.542 E.04935 ; Fill: Print up/left
G1 E-.5 ; retract
G1 X136.847 Y195.258 F15000 ; Fill: Step up
G1 E.5 F1800 ;  ; unretract

G1 X138.279 Y193.826 E.09871 ; Fill: Print down/right
G1 E-.5 ; retract
G1 X138.995 Y193.826 F15000 ; Fill: Step right
M73 P11 R5
G1 E.5 F1800 ;  ; unretract

G1 X136.847 Y195.974 E.14806 ; Fill: Print up/left
G1 E-.5 ; retract
G1 X136.847 Y196.69 F15000 ; Fill: Step up
G1 E.5 F1800 ;  ; unretract

G1 X139.711 Y193.826 E.19741 ; Fill: Print down/right
G1 E-.5 ; retract
G1 X140.427 Y193.826 F15000 ; Fill: Step right
G1 E.5 F1800 ;  ; unretract

G1 X136.847 Y197.406 E.24677 ; Fill: Print up/left
G1 E-.5 ; retract
G1 X136.847 Y198.122 F15000 ; Fill: Step up
G1 E.5 F1800 ;  ; unretract

G1 X141.143 Y193.826 E.29612 ; Fill: Print down/right
G1 E-.5 ; retract
G1 X141.859 Y193.826 F15000 ; Fill: Step right
G1 E.5 F1800 ;  ; unretract

G1 X136.847 Y198.838 E.34547 ; Fill: Print up/left
G1 E-.5 ; retract
G1 X136.847 Y199.554 F15000 ; Fill: Step up
G1 E.5 F1800 ;  ; unretract

G1 X142.575 Y193.826 E.39483 ; Fill: Print down/right
G1 E-.5 ; retract
G1 X143.291 Y193.826 F15000 ; Fill: Step right
G1 E.5 F1800 ;  ; unretract

G1 X136.847 Y200.27 E.44418 ; Fill: Print up/left
G1 E-.5 ; retract
G1 X136.847 Y200.986 F15000 ; Fill: Step up
G1 E.5 F1800 ;  ; unretract

G1 X144.008 Y193.826 E.49353 ; Fill: Print down/right
G1 E-.5 ; retract
G1 X144.724 Y193.826 F15000 ; Fill: Step right
G1 E.5 F1800 ;  ; unretract

G1 X136.847 Y201.703 E.54289 ; Fill: Print up/left
G1 E-.5 ; retract
G1 X136.847 Y202.419 F15000 ; Fill: Step up
G1 E.5 F1800 ;  ; unretract

G1 X145.44 Y193.826 E.59224 ; Fill: Print down/right
M73 P12 R5
G1 E-.5 ; retract
G1 X146.156 Y193.826 F15000 ; Fill: Step right
G1 E.5 F1800 ;  ; unretract

G1 X136.847 Y203.135 E.64159 ; Fill: Print up/left
G1 E-.5 ; retract
G1 X136.847 Y203.851 F15000 ; Fill: Step up
G1 E.5 F1800 ;  ; unretract

G1 X146.872 Y193.826 E.69095 ; Fill: Print down/right
G1 E-.5 ; retract
G1 X147.588 Y193.826 F15000 ; Fill: Step right
G1 E.5 F1800 ;  ; unretract

G1 X136.854 Y204.56 E.73982 ; Fill: Print up/left
G1 E-.5 ; retract
G1 X137.57 Y204.56 F15000 ; Fill: Step right
G1 E.5 F1800 ;  ; unretract

G1 X148.304 Y193.826 E.73982 ; Fill: Print down/right
G1 E-.5 ; retract
G1 X149.02 Y193.826 F15000 ; Fill: Step right
G1 E.5 F1800 ;  ; unretract

G1 X138.286 Y204.56 E.73982 ; Fill: Print up/left
G1 E-.5 ; retract
G1 X139.002 Y204.56 F15000 ; Fill: Step right
G1 E.5 F1800 ;  ; unretract

G1 X149.736 Y193.826 E.73982 ; Fill: Print down/right
M73 P13 R5
G1 E-.5 ; retract
G1 X150.452 Y193.826 F15000 ; Fill: Step right
G1 E.5 F1800 ;  ; unretract

G1 X139.718 Y204.56 E.73982 ; Fill: Print up/left
G1 E-.5 ; retract
G1 X140.434 Y204.56 F15000 ; Fill: Step right
G1 E.5 F1800 ;  ; unretract

G1 X151.168 Y193.826 E.73982 ; Fill: Print down/right
G1 E-.5 ; retract
G1 X151.885 Y193.826 F15000 ; Fill: Step right
G1 E.5 F1800 ;  ; unretract

G1 X141.15 Y204.56 E.73982 ; Fill: Print up/left
G1 E-.5 ; retract
G1 X141.866 Y204.56 F15000 ; Fill: Step right
G1 E.5 F1800 ;  ; unretract

G1 X152.601 Y193.826 E.73982 ; Fill: Print down/right
G1 E-.5 ; retract
G1 X153.317 Y193.826 F15000 ; Fill: Step right
G1 E.5 F1800 ;  ; unretract

G1 X142.582 Y204.56 E.73982 ; Fill: Print up/left
G1 E-.5 ; retract
G1 X143.298 Y204.56 F15000 ; Fill: Step right
G1 E.5 F1800 ;  ; unretract

G1 X154.033 Y193.826 E.73982 ; Fill: Print down/right
M73 P14 R5
G1 E-.5 ; retract
G1 X154.749 Y193.826 F15000 ; Fill: Step right
G1 E.5 F1800 ;  ; unretract

G1 X144.015 Y204.56 E.73982 ; Fill: Print up/left
G1 E-.5 ; retract
G1 X144.731 Y204.56 F15000 ; Fill: Step right
G1 E.5 F1800 ;  ; unretract

G1 X155.465 Y193.826 E.73982 ; Fill: Print down/right
G1 E-.5 ; retract
G1 X156.181 Y193.826 F15000 ; Fill: Step right
G1 E.5 F1800 ;  ; unretract

G1 X145.447 Y204.56 E.73982 ; Fill: Print up/left
G1 E-.5 ; retract
G1 X146.163 Y204.56 F15000 ; Fill: Step right
G1 E.5 F1800 ;  ; unretract

G1 X156.897 Y193.826 E.73982 ; Fill: Print down/right
G1 E-.5 ; retract
G1 X157.613 Y193.826 F15000 ; Fill: Step right
G1 E.5 F1800 ;  ; unretract

G1 X146.879 Y204.56 E.73982 ; Fill: Print up/left
G1 E-.5 ; retract
G1 X147.595 Y204.56 F15000 ; Fill: Step right
G1 E.5 F1800 ;  ; unretract

G1 X158.329 Y193.826 E.73982 ; Fill: Print down/right
M73 P15 R5
G1 E-.5 ; retract
G1 X159.045 Y193.826 F15000 ; Fill: Step right
G1 E.5 F1800 ;  ; unretract

G1 X148.311 Y204.56 E.73982 ; Fill: Print up/left
G1 E-.5 ; retract
G1 X149.027 Y204.56 F15000 ; Fill: Step right
G1 E.5 F1800 ;  ; unretract

G1 X159.761 Y193.826 E.73982 ; Fill: Print down/right
G1 E-.5 ; retract
G1 X160.478 Y193.826 F15000 ; Fill: Step right
G1 E.5 F1800 ;  ; unretract

G1 X149.743 Y204.56 E.73982 ; Fill: Print up/left
G1 E-.5 ; retract
G1 X150.459 Y204.56 F15000 ; Fill: Step right
G1 E.5 F1800 ;  ; unretract

G1 X161.194 Y193.826 E.73982 ; Fill: Print down/right
G1 E-.5 ; retract
G1 X161.91 Y193.826 F15000 ; Fill: Step right
G1 E.5 F1800 ;  ; unretract

G1 X151.175 Y204.56 E.73982 ; Fill: Print up/left
G1 E-.5 ; retract
G1 X151.892 Y204.56 F15000 ; Fill: Step right
G1 E.5 F1800 ;  ; unretract

G1 X162.626 Y193.826 E.73982 ; Fill: Print down/right
M73 P16 R5
G1 E-.5 ; retract
G1 X163.342 Y193.826 F15000 ; Fill: Step right
G1 E.5 F1800 ;  ; unretract

G1 X152.608 Y204.56 E.73982 ; Fill: Print up/left
G1 E-.5 ; retract
G1 X153.324 Y204.56 F15000 ; Fill: Step right
G1 E.5 F1800 ;  ; unretract

G1 X164.058 Y193.826 E.73982 ; Fill: Print down/right
G1 E-.5 ; retract
G1 X164.774 Y193.826 F15000 ; Fill: Step right
G1 E.5 F1800 ;  ; unretract

G1 X154.04 Y204.56 E.73982 ; Fill: Print up/left
G1 E-.5 ; retract
G1 X154.756 Y204.56 F15000 ; Fill: Step right
G1 E.5 F1800 ;  ; unretract

G1 X165.49 Y193.826 E.73982 ; Fill: Print down/right
G1 E-.5 ; retract
G1 X166.206 Y193.826 F15000 ; Fill: Step right
G1 E.5 F1800 ;  ; unretract

G1 X155.472 Y204.56 E.73982 ; Fill: Print up/left
G1 E-.5 ; retract
G1 X156.188 Y204.56 F15000 ; Fill: Step right
G1 E.5 F1800 ;  ; unretract

G1 X166.922 Y193.826 E.73982 ; Fill: Print down/right
M73 P17 R5
G1 E-.5 ; retract
G1 X167.638 Y193.826 F15000 ; Fill: Step right
G1 E.5 F1800 ;  ; unretract

G1 X156.904 Y204.56 E.73982 ; Fill: Print up/left
G1 E-.5 ; retract
G1 X157.62 Y204.56 F15000 ; Fill: Step right
G1 E.5 F1800 ;  ; unretract

G1 X168.354 Y193.826 E.73982 ; Fill: Print down/right
G1 E-.5 ; retract
G1 X169.071 Y193.826 F15000 ; Fill: Step right
G1 E.5 F1800 ;  ; unretract

G1 X158.336 Y204.56 E.73982 ; Fill: Print up/left
G1 E-.5 ; retract
G1 X159.052 Y204.56 F15000 ; Fill: Step right
G1 E.5 F1800 ;  ; unretract

G1 X169.787 Y193.826 E.73982 ; Fill: Print down/right
G1 E-.5 ; retract
G1 X170.503 Y193.826 F15000 ; Fill: Step right
G1 E.5 F1800 ;  ; unretract

G1 X159.768 Y204.56 E.73982 ; Fill: Print up/left
G1 E-.5 ; retract
G1 X160.485 Y204.56 F15000 ; Fill: Step right
G1 E.5 F1800 ;  ; unretract

G1 X171.219 Y193.826 E.73982 ; Fill: Print down/right
M73 P18 R5
G1 E-.5 ; retract
G1 X171.935 Y193.826 F15000 ; Fill: Step right
G1 E.5 F1800 ;  ; unretract

G1 X161.201 Y204.56 E.73982 ; Fill: Print up/left
G1 E-.5 ; retract
G1 X161.917 Y204.56 F15000 ; Fill: Step right
G1 E.5 F1800 ;  ; unretract

G1 X172.651 Y193.826 E.73982 ; Fill: Print down/right
G1 E-.5 ; retract
G1 X173.367 Y193.826 F15000 ; Fill: Step right
G1 E.5 F1800 ;  ; unretract

G1 X162.633 Y204.56 E.73982 ; Fill: Print up/left
G1 E-.5 ; retract
G1 X163.349 Y204.56 F15000 ; Fill: Step right
G1 E.5 F1800 ;  ; unretract

G1 X174.083 Y193.826 E.73982 ; Fill: Print down/right
G1 E-.5 ; retract
G1 X174.799 Y193.826 F15000 ; Fill: Step right
G1 E.5 F1800 ;  ; unretract

G1 X164.065 Y204.56 E.73982 ; Fill: Print up/left
G1 E-.5 ; retract
G1 X164.781 Y204.56 F15000 ; Fill: Step right
M73 P19 R5
G1 E.5 F1800 ;  ; unretract

G1 X175.515 Y193.826 E.73982 ; Fill: Print down/right
G1 E-.5 ; retract
G1 X176.231 Y193.826 F15000 ; Fill: Step right
G1 E.5 F1800 ;  ; unretract

G1 X165.497 Y204.56 E.73982 ; Fill: Print up/left
G1 E-.5 ; retract
G1 X166.213 Y204.56 F15000 ; Fill: Step right
G1 E.5 F1800 ;  ; unretract

G1 X176.948 Y193.826 E.73982 ; Fill: Print down/right
G1 E-.5 ; retract
G1 X177.664 Y193.826 F15000 ; Fill: Step right
G1 E.5 F1800 ;  ; unretract

G1 X166.929 Y204.56 E.73982 ; Fill: Print up/left
G1 E-.5 ; retract
G1 X167.645 Y204.56 F15000 ; Fill: Step right
G1 E.5 F1800 ;  ; unretract

G1 X178.38 Y193.826 E.73982 ; Fill: Print down/right
G1 E-.5 ; retract
G1 X179.096 Y193.826 F15000 ; Fill: Step right
G1 E.5 F1800 ;  ; unretract

G1 X168.362 Y204.56 E.73982 ; Fill: Print up/left
M73 P20 R5
G1 E-.5 ; retract
G1 X169.078 Y204.56 F15000 ; Fill: Step right
G1 E.5 F1800 ;  ; unretract

G1 X179.812 Y193.826 E.73982 ; Fill: Print down/right
G1 E-.5 ; retract
G1 X180.528 Y193.826 F15000 ; Fill: Step right
G1 E.5 F1800 ;  ; unretract

G1 X169.794 Y204.56 E.73982 ; Fill: Print up/left
G1 E-.5 ; retract
G1 X170.51 Y204.56 F15000 ; Fill: Step right
G1 E.5 F1800 ;  ; unretract

G1 X181.244 Y193.826 E.73982 ; Fill: Print down/right
G1 E-.5 ; retract
G1 X181.96 Y193.826 F15000 ; Fill: Step right
G1 E.5 F1800 ;  ; unretract

G1 X171.226 Y204.56 E.73982 ; Fill: Print up/left
G1 E-.5 ; retract
G1 X171.942 Y204.56 F15000 ; Fill: Step right
G1 E.5 F1800 ;  ; unretract

G1 X182.676 Y193.826 E.73982 ; Fill: Print down/right
G1 E-.5 ; retract
G1 X183.392 Y193.826 F15000 ; Fill: Step right
G1 E.5 F1800 ;  ; unretract

G1 X172.658 Y204.56 E.73982 ; Fill: Print up/left
M73 P21 R5
G1 E-.5 ; retract
G1 X173.374 Y204.56 F15000 ; Fill: Step right
G1 E.5 F1800 ;  ; unretract

G1 X184.108 Y193.826 E.73982 ; Fill: Print down/right
G1 E-.5 ; retract
G1 X184.824 Y193.826 F15000 ; Fill: Step right
G1 E.5 F1800 ;  ; unretract

G1 X174.09 Y204.56 E.73982 ; Fill: Print up/left
G1 E-.5 ; retract
G1 X174.806 Y204.56 F15000 ; Fill: Step right
G1 E.5 F1800 ;  ; unretract

G1 X185.541 Y193.826 E.73982 ; Fill: Print down/right
G1 E-.5 ; retract
G1 X186.257 Y193.826 F15000 ; Fill: Step right
G1 E.5 F1800 ;  ; unretract

G1 X175.522 Y204.56 E.73982 ; Fill: Print up/left
G1 E-.5 ; retract
G1 X176.238 Y204.56 F15000 ; Fill: Step right
G1 E.5 F1800 ;  ; unretract

G1 X186.973 Y193.826 E.73982 ; Fill: Print down/right
G1 E-.5 ; retract
G1 X187.689 Y193.826 F15000 ; Fill: Step right
G1 E.5 F1800 ;  ; unretract

G1 X176.955 Y204.56 E.73982 ; Fill: Print up/left
M73 P22 R5
G1 E-.5 ; retract
G1 X177.671 Y204.56 F15000 ; Fill: Step right
G1 E.5 F1800 ;  ; unretract

G1 X188.405 Y193.826 E.73982 ; Fill: Print down/right
G1 E-.5 ; retract
G1 X189.121 Y193.826 F15000 ; Fill: Step right
G1 E.5 F1800 ;  ; unretract

G1 X178.387 Y204.56 E.73982 ; Fill: Print up/left
G1 E-.5 ; retract
G1 X179.103 Y204.56 F15000 ; Fill: Step right
G1 E.5 F1800 ;  ; unretract

G1 X189.837 Y193.826 E.73982 ; Fill: Print down/right
G1 E-.5 ; retract
G1 X190.553 Y193.826 F15000 ; Fill: Step right
G1 E.5 F1800 ;  ; unretract

G1 X179.819 Y204.56 E.73982 ; Fill: Print up/left
G1 E-.5 ; retract
G1 X180.535 Y204.56 F15000 ; Fill: Step right
G1 E.5 F1800 ;  ; unretract

G1 X191.269 Y193.826 E.73982 ; Fill: Print down/right
G1 E-.5 ; retract
G1 X191.985 Y193.826 F15000 ; Fill: Step right
G1 E.5 F1800 ;  ; unretract

G1 X181.251 Y204.56 E.73982 ; Fill: Print up/left
M73 P23 R5
G1 E-.5 ; retract
G1 X181.967 Y204.56 F15000 ; Fill: Step right
G1 E.5 F1800 ;  ; unretract

G1 X192.701 Y193.826 E.73982 ; Fill: Print down/right
G1 E-.5 ; retract
G1 X193.418 Y193.826 F15000 ; Fill: Step right
G1 E.5 F1800 ;  ; unretract

G1 X182.683 Y204.56 E.73982 ; Fill: Print up/left
G1 E-.5 ; retract
G1 X183.399 Y204.56 F15000 ; Fill: Step right
G1 E.5 F1800 ;  ; unretract

G1 X194.134 Y193.826 E.73982 ; Fill: Print down/right
G1 E-.5 ; retract
G1 X194.85 Y193.826 F15000 ; Fill: Step right
G1 E.5 F1800 ;  ; unretract

G1 X184.115 Y204.56 E.73982 ; Fill: Print up/left
G1 E-.5 ; retract
G1 X184.831 Y204.56 F15000 ; Fill: Step right
G1 E.5 F1800 ;  ; unretract

G1 X195.566 Y193.826 E.73982 ; Fill: Print down/right
G1 E-.5 ; retract
G1 X196.282 Y193.826 F15000 ; Fill: Step right
G1 E.5 F1800 ;  ; unretract

G1 X185.548 Y204.56 E.73982 ; Fill: Print up/left
M73 P24 R5
G1 E-.5 ; retract
G1 X186.264 Y204.56 F15000 ; Fill: Step right
G1 E.5 F1800 ;  ; unretract

G1 X196.998 Y193.826 E.73982 ; Fill: Print down/right
G1 E-.5 ; retract
G1 X197.714 Y193.826 F15000 ; Fill: Step right
