; HEADER_BLOCK_START
; generated by OrcaSlicer 1.7.0 on 2023-12-03 at 11:31:17
; total layer number: 4
; HEADER_BLOCK_END

; THUMBNAIL_BLOCK_START
; THUMBNAIL_BLOCK_END

; external perimeters extrusion width = 0.40mm
; perimeters extrusion width = 0.40mm
; infill extrusion width = 0.45mm
; solid infill extrusion width = 0.40mm
; top infill extrusion width = 0.40mm
; first layer extrusion width = 0.56mm

; EXECUTABLE_BLOCK_START
EXCLUDE_OBJECT_DEFINE NAME=Orca-PA-Calibration-Test CENTER=0,0 POLYGON=[[5,5],[345,5],[345,345],[5,345],[5,5]]
M73 P0 R6
M106 S0
M106 P2 S0
;TYPE:Custom
SKEW_PROFILE LOAD=my_skew_profile
M190 S105
M109 S150
PRINT_START EXTRUDER=230 BED=105
; You can use following code instead if your PRINT_START macro support Chamber and print area bedmesh
; PRINT_START EXTRUDER=230 BED=105 Chamber=0 PRINT_MIN=5,5 PRINT_MAX=345,345
G90
G21
M83 ; use relative distances for extrusion
; Filament gcode
;LAYER_CHANGE
;Z:0.25
;HEIGHT:0.25
;BEFORE_LAYER_CHANGE
;0.25
G92 E0

;AFTER_LAYER_CHANGE
;0.25
;_SET_FAN_SPEED_CHANGING_LAYER
SET_VELOCITY_LIMIT ACCEL=500 ACCEL_TO_DECEL=250
SET_VELOCITY_LIMIT SQUARE_CORNER_VELOCITY=5
;CUSTOM_GCODE
; start pressure advance pattern for layer
G1 E-.5 F1800
G1 X48.304 Y40.777 F15000
G1 E.5 F1800
G1 Z.25 F15000
SET_PRESSURE_ADVANCE ADVANCE=0; Override pressure advance value
G1 E-.5 F1800
G1 X48.304 Y40.777 F15000
G1 E.5 F1800

G1 X48.304 Y83.203 E2.06762

G1 X132.383 Y83.203 E4.09752

M73 P1 R6
G1 X132.383 Y40.777 E2.06762

G1 X48.304 Y40.777 E4.09752
M73 P2 R6
G1 E-.5
G1 X48.811 Y41.283 F15000
G1 E.5 F1800

G1 X48.811 Y82.697 E2.01827

G1 X131.876 Y82.697 E4.04817

M73 P3 R6
G1 X131.876 Y41.283 E2.01827

G1 X48.811 Y41.283 E4.04817
M73 P4 R6
G1 E-.5
G1 X49.317 Y41.79 F15000
G1 E.5 F1800

G1 X49.317 Y82.191 E1.96892

G1 X131.37 Y82.191 E3.99882

M73 P5 R6
G1 X131.37 Y41.79 E1.96892

G1 X49.317 Y41.79 E3.99882
M73 P6 R6
G1 E-.5
G1 X48.304 Y83.71 F15000
G1 E.5 F1800

G1 X48.304 Y97.216 E.65822

G1 X112.574 Y97.216 E3.13215

M73 P7 R6
G1 X112.574 Y83.71 E.65822

G1 X48.304 Y83.71 E3.13215
M73 P8 R6
G1 E-.5
G1 X48.811 Y84.216 F15000
G1 E.5 F1800

G1 X48.811 Y96.71 E.60887

G1 X112.068 Y96.71 E3.0828

G1 X112.068 Y84.216 E.60887

G1 X48.811 Y84.216 E3.0828
M73 P9 R6
G1 E-.5
G1 X49.317 Y84.722 F15000
G1 E.5 F1800

G1 X49.317 Y96.203 E.55952

G1 X111.561 Y96.203 E3.03344

M73 P10 R6
G1 X111.561 Y84.722 E.55952

G1 X49.317 Y84.722 E3.03344
M73 P10 R5
G1 E-.5
G1 X49.69 Y85.096 F15000
G1 E.5 F1800
G1 E-.5
G1 X50.406 Y85.096 F15000
G1 E.5 F1800

G1 X49.69 Y85.812 E.04935
G1 E-.5
G1 X49.69 Y86.528 F15000
G1 E.5 F1800

G1 X51.122 Y85.096 E.09871
G1 E-.5
G1 X51.838 Y85.096 F15000
G1 E.5 F1800

G1 X49.69 Y87.244 E.14806
G1 E-.5
G1 X49.69 Y87.96 F15000
G1 E.5 F1800

G1 X52.555 Y85.096 E.19741
G1 E-.5
M73 P11 R5
G1 X53.271 Y85.096 F15000
G1 E.5 F1800

G1 X49.69 Y88.676 E.24677
G1 E-.5
G1 X49.69 Y89.392 F15000
G1 E.5 F1800

G1 X53.987 Y85.096 E.29612
G1 E-.5
G1 X54.703 Y85.096 F15000
G1 E.5 F1800

G1 X49.69 Y90.108 E.34547
G1 E-.5
G1 X49.69 Y90.824 F15000
G1 E.5 F1800

G1 X55.419 Y85.096 E.39483
G1 E-.5
G1 X56.135 Y85.096 F15000
G1 E.5 F1800

G1 X49.69 Y91.54 E.44418
G1 E-.5
G1 X49.69 Y92.257 F15000
G1 E.5 F1800

G1 X56.851 Y85.096 E.49353
G1 E-.5
G1 X57.567 Y85.096 F15000
G1 E.5 F1800

G1 X49.69 Y92.973 E.54289
G1 E-.5
G1 X49.69 Y93.689 F15000
G1 E.5 F1800

G1 X58.283 Y85.096 E.59224
G1 E-.5
G1 X58.999 Y85.096 F15000
G1 E.5 F1800

G1 X49.69 Y94.405 E.64159
M73 P12 R5
G1 E-.5
G1 X49.69 Y95.121 F15000
G1 E.5 F1800

G1 X59.715 Y85.096 E.69095
G1 E-.5
G1 X60.432 Y85.096 F15000
G1 E.5 F1800

G1 X49.697 Y95.83 E.73982
G1 E-.5
G1 X50.413 Y95.83 F15000
G1 E.5 F1800

G1 X61.148 Y85.096 E.73982
G1 E-.5
G1 X61.864 Y85.096 F15000
G1 E.5 F1800

G1 X51.129 Y95.83 E.73982
G1 E-.5
G1 X51.845 Y95.83 F15000
G1 E.5 F1800

G1 X62.58 Y85.096 E.73982
G1 E-.5
G1 X63.296 Y85.096 F15000
G1 E.5 F1800

G1 X52.562 Y95.83 E.73982
M73 P13 R5
G1 E-.5
G1 X53.278 Y95.83 F15000
G1 E.5 F1800

G1 X64.012 Y85.096 E.73982
G1 E-.5
G1 X64.728 Y85.096 F15000
G1 E.5 F1800

G1 X53.994 Y95.83 E.73982
G1 E-.5
G1 X54.71 Y95.83 F15000
G1 E.5 F1800

G1 X65.444 Y85.096 E.73982
G1 E-.5
G1 X66.16 Y85.096 F15000
G1 E.5 F1800

G1 X55.426 Y95.83 E.73982
G1 E-.5
G1 X56.142 Y95.83 F15000
G1 E.5 F1800

G1 X66.876 Y85.096 E.73982
G1 E-.5
G1 X67.592 Y85.096 F15000
G1 E.5 F1800

G1 X56.858 Y95.83 E.73982
M73 P14 R5
G1 E-.5
G1 X57.574 Y95.83 F15000
G1 E.5 F1800

G1 X68.308 Y85.096 E.73982
G1 E-.5
G1 X69.025 Y85.096 F15000
G1 E.5 F1800

G1 X58.29 Y95.83 E.73982
G1 E-.5
G1 X59.006 Y95.83 F15000
G1 E.5 F1800

G1 X69.741 Y85.096 E.73982
G1 E-.5
G1 X70.457 Y85.096 F15000
G1 E.5 F1800

G1 X59.722 Y95.83 E.73982
G1 E-.5
G1 X60.439 Y95.83 F15000
G1 E.5 F1800

G1 X71.173 Y85.096 E.73982
G1 E-.5
G1 X71.889 Y85.096 F15000
G1 E.5 F1800

G1 X61.155 Y95.83 E.73982
M73 P15 R5
G1 E-.5
G1 X61.871 Y95.83 F15000
G1 E.5 F1800

G1 X72.605 Y85.096 E.73982
G1 E-.5
G1 X73.321 Y85.096 F15000
G1 E.5 F1800

G1 X62.587 Y95.83 E.73982
G1 E-.5
G1 X63.303 Y95.83 F15000
G1 E.5 F1800

G1 X74.037 Y85.096 E.73982
G1 E-.5
G1 X74.753 Y85.096 F15000
G1 E.5 F1800

G1 X64.019 Y95.83 E.73982
G1 E-.5
G1 X64.735 Y95.83 F15000
G1 E.5 F1800

G1 X75.469 Y85.096 E.73982
G1 E-.5
G1 X76.185 Y85.096 F15000
M73 P16 R5
G1 E.5 F1800

G1 X65.451 Y95.83 E.73982
G1 E-.5
G1 X66.167 Y95.83 F15000
G1 E.5 F1800

G1 X76.901 Y85.096 E.73982
G1 E-.5
G1 X77.618 Y85.096 F15000
G1 E.5 F1800

G1 X66.883 Y95.83 E.73982
G1 E-.5
G1 X67.599 Y95.83 F15000
G1 E.5 F1800

G1 X78.334 Y85.096 E.73982
G1 E-.5
G1 X79.05 Y85.096 F15000
G1 E.5 F1800

G1 X68.315 Y95.83 E.73982
G1 E-.5
G1 X69.032 Y95.83 F15000
G1 E.5 F1800

G1 X79.766 Y85.096 E.73982
G1 E-.5
M73 P17 R5
G1 X80.482 Y85.096 F15000
G1 E.5 F1800

G1 X69.748 Y95.83 E.73982
G1 E-.5
G1 X70.464 Y95.83 F15000
G1 E.5 F1800

G1 X81.198 Y85.096 E.73982
G1 E-.5
G1 X81.914 Y85.096 F15000
G1 E.5 F1800

G1 X71.18 Y95.83 E.73982
G1 E-.5
G1 X71.896 Y95.83 F15000
G1 E.5 F1800

G1 X82.63 Y85.096 E.73982
G1 E-.5
G1 X83.346 Y85.096 F15000
G1 E.5 F1800

G1 X72.612 Y95.83 E.73982
G1 E-.5
G1 X73.328 Y95.83 F15000
G1 E.5 F1800

G1 X84.062 Y85.096 E.73982
M73 P18 R5
G1 E-.5
G1 X84.778 Y85.096 F15000
G1 E.5 F1800

G1 X74.044 Y95.83 E.73982
G1 E-.5
G1 X74.76 Y95.83 F15000
G1 E.5 F1800

G1 X85.495 Y85.096 E.73982
G1 E-.5
G1 X86.211 Y85.096 F15000
G1 E.5 F1800

G1 X75.476 Y95.83 E.73982
G1 E-.5
G1 X76.192 Y95.83 F15000
G1 E.5 F1800

G1 X86.927 Y85.096 E.73982
G1 E-.5
G1 X87.643 Y85.096 F15000
G1 E.5 F1800

G1 X76.909 Y95.83 E.73982
G1 E-.5
G1 X77.625 Y95.83 F15000
G1 E.5 F1800

G1 X88.359 Y85.096 E.73982
M73 P19 R5
G1 E-.5
G1 X89.075 Y85.096 F15000
G1 E.5 F1800

G1 X78.341 Y95.83 E.73982
G1 E-.5
G1 X79.057 Y95.83 F15000
G1 E.5 F1800

G1 X89.791 Y85.096 E.73982
G1 E-.5
G1 X90.507 Y85.096 F15000
G1 E.5 F1800

G1 X79.773 Y95.83 E.73982
G1 E-.5
G1 X80.489 Y95.83 F15000
G1 E.5 F1800

G1 X91.223 Y85.096 E.73982
G1 E-.5
G1 X91.939 Y85.096 F15000
G1 E.5 F1800

G1 X81.205 Y95.83 E.73982
G1 E-.5
G1 X81.921 Y95.83 F15000
G1 E.5 F1800

G1 X92.655 Y85.096 E.73982
M73 P20 R5
G1 E-.5
G1 X93.371 Y85.096 F15000
G1 E.5 F1800

G1 X82.637 Y95.83 E.73982
G1 E-.5
G1 X83.353 Y95.83 F15000
G1 E.5 F1800

G1 X94.088 Y85.096 E.73982
G1 E-.5
G1 X94.804 Y85.096 F15000
G1 E.5 F1800

G1 X84.069 Y95.83 E.73982
G1 E-.5
G1 X84.785 Y95.83 F15000
G1 E.5 F1800

G1 X95.52 Y85.096 E.73982
G1 E-.5
G1 X96.236 Y85.096 F15000
G1 E.5 F1800

G1 X85.502 Y95.83 E.73982
G1 E-.5
G1 X86.218 Y95.83 F15000
G1 E.5 F1800

G1 X96.952 Y85.096 E.73982
M73 P21 R5
G1 E-.5
G1 X97.668 Y85.096 F15000
G1 E.5 F1800

G1 X86.934 Y95.83 E.73982
G1 E-.5
G1 X87.65 Y95.83 F15000
G1 E.5 F1800

G1 X98.384 Y85.096 E.73982
G1 E-.5
G1 X99.1 Y85.096 F15000
G1 E.5 F1800

G1 X88.366 Y95.83 E.73982
G1 E-.5
G1 X89.082 Y95.83 F15000
G1 E.5 F1800

G1 X99.816 Y85.096 E.73982
G1 E-.5
G1 X100.532 Y85.096 F15000
G1 E.5 F1800

G1 X89.798 Y95.83 E.73982
G1 E-.5
G1 X90.514 Y95.83 F15000
G1 E.5 F1800

G1 X101.248 Y85.096 E.73982
M73 P22 R5
G1 E-.5
G1 X101.965 Y85.096 F15000
G1 E.5 F1800

G1 X91.23 Y95.83 E.73982
G1 E-.5
G1 X91.946 Y95.83 F15000
G1 E.5 F1800

G1 X102.681 Y85.096 E.73982
G1 E-.5
G1 X103.397 Y85.096 F15000
G1 E.5 F1800

G1 X92.662 Y95.83 E.73982
G1 E-.5
G1 X93.378 Y95.83 F15000
G1 E.5 F1800

G1 X104.113 Y85.096 E.73982
G1 E-.5
G1 X104.829 Y85.096 F15000
G1 E.5 F1800

G1 X94.095 Y95.83 E.73982
G1 E-.5
G1 X94.811 Y95.83 F15000
G1 E.5 F1800

G1 X105.545 Y85.096 E.73982
M73 P23 R5
G1 E-.5
G1 X106.261 Y85.096 F15000
G1 E.5 F1800

G1 X95.527 Y95.83 E.73982
G1 E-.5
G1 X96.243 Y95.83 F15000
G1 E.5 F1800

G1 X106.977 Y85.096 E.73982
G1 E-.5
G1 X107.693 Y85.096 F15000
G1 E.5 F1800

G1 X96.959 Y95.83 E.73982
G1 E-.5
G1 X97.675 Y95.83 F15000
G1 E.5 F1800

G1 X108.409 Y85.096 E.73982
G1 E-.5
G1 X109.125 Y85.096 F15000
G1 E.5 F1800

G1 X98.391 Y95.83 E.73982
G1 E-.5
G1 X99.107 Y95.83 F15000
G1 E.5 F1800

G1 X109.841 Y85.096 E.73982
M73 P24 R5
G1 E-.5
G1 X110.558 Y85.096 F15000
G1 E.5 F1800

G1 X99.823 Y95.83 E.73982
G1 E-.5
G1 X100.539 Y95.83 F15000
G1 E.5 F1800

G1 X111.188 Y85.181 E.73391
G1 E-.5
G1 X111.188 Y85.897 F15000
G1 E.5 F1800

G1 X101.255 Y95.83 E.68456
G1 E-.5
G1 X101.972 Y95.83 F15000
G1 E.5 F1800

G1 X111.188 Y86.614 E.6352
G1 E-.5
G1 X111.188 Y87.33 F15000
G1 E.5 F1800

G1 X102.688 Y95.83 E.58585
G1 E-.5
G1 X103.404 Y95.83 F15000
G1 E.5 F1800

G1 X111.188 Y88.046 E.5365
M73 P25 R5
G1 E-.5
G1 X111.188 Y88.762 F15000
G1 E.5 F1800

G1 X104.12 Y95.83 E.48714
G1 E-.5
G1 X104.836 Y95.83 F15000
G1 E.5 F1800

G1 X111.188 Y89.478 E.43779
G1 E-.5
G1 X111.188 Y90.194 F15000
G1 E.5 F1800

G1 X105.552 Y95.83 E.38844
G1 E-.5
G1 X106.268 Y95.83 F15000
G1 E.5 F1800

G1 X111.188 Y90.91 E.33908
G1 E-.5
G1 X111.188 Y91.626 F15000
G1 E.5 F1800

G1 X106.984 Y95.83 E.28973
M73 P25 R4
G1 E-.5
G1 X107.7 Y95.83 F15000
G1 E.5 F1800

G1 X111.188 Y92.342 E.24038
G1 E-.5
G1 X111.188 Y93.058 F15000
G1 E.5 F1800

G1 X108.416 Y95.83 E.19102
G1 E-.5
G1 X109.132 Y95.83 F15000
G1 E.5 F1800

G1 X111.188 Y93.774 E.14167
G1 E-.5
G1 X111.188 Y94.49 F15000
G1 E.5 F1800

G1 X109.848 Y95.83 E.09232
G1 E-.5
G1 X110.565 Y95.83 F15000
G1 E.5 F1800

G1 X111.188 Y95.207 E.04296
G1 E-.5
G1 X52.263 Y42.163 F15000
M73 P26 R4
G1 E.5 F1800
SET_PRESSURE_ADVANCE ADVANCE=0; Override pressure advance value

G1 X72.09 Y61.99 E1.06964

G1 X52.263 Y81.817 E1.06964
G1 E-.5
G1 X52.839 Y42.163 F15000
G1 E.5 F1800

G1 X72.666 Y61.99 E1.06964

M73 P27 R4
G1 X52.839 Y81.817 E1.06964
G1 E-.5
G1 X53.414 Y42.163 F15000
G1 E.5 F1800

G1 X73.241 Y61.99 E1.06964

G1 X53.414 Y81.817 E1.06964
G1 E-.5
G1 X55.864 Y42.163 F15000
M73 P28 R4
G1 E.5 F1800
SET_PRESSURE_ADVANCE ADVANCE=0.005; Override pressure advance value

G1 X75.691 Y61.99 E1.06964

G1 X55.864 Y81.817 E1.06964
G1 E-.5
G1 X56.44 Y42.163 F15000
G1 E.5 F1800

G1 X76.267 Y61.99 E1.06964

G1 X56.44 Y81.817 E1.06964
M73 P29 R4
G1 E-.5
G1 X57.016 Y42.163 F15000
G1 E.5 F1800

G1 X76.843 Y61.99 E1.06964

G1 X57.016 Y81.817 E1.06964
G1 E-.5
G1 X59.466 Y42.163 F15000
G1 E.5 F1800
SET_PRESSURE_ADVANCE ADVANCE=0.01; Override pressure advance value

M73 P30 R4
G1 X79.293 Y61.99 E1.06964

G1 X59.466 Y81.817 E1.06964
G1 E-.5
G1 X60.041 Y42.163 F15000
G1 E.5 F1800

G1 X79.869 Y61.99 E1.06964

G1 X60.041 Y81.817 E1.06964
M73 P31 R4
G1 E-.5
G1 X60.617 Y42.163 F15000
G1 E.5 F1800

G1 X80.444 Y61.99 E1.06964

G1 X60.617 Y81.817 E1.06964
G1 E-.5
G1 X63.067 Y42.163 F15000
G1 E.5 F1800
SET_PRESSURE_ADVANCE ADVANCE=0.015; Override pressure advance value

G1 X82.894 Y61.99 E1.06964

M73 P32 R4
G1 X63.067 Y81.817 E1.06964
G1 E-.5
G1 X63.643 Y42.163 F15000
G1 E.5 F1800

G1 X83.47 Y61.99 E1.06964

G1 X63.643 Y81.817 E1.06964
M73 P33 R4
G1 E-.5
G1 X64.218 Y42.163 F15000
G1 E.5 F1800

G1 X84.046 Y61.99 E1.06964

G1 X64.218 Y81.817 E1.06964
G1 E-.5
G1 X66.668 Y42.163 F15000
G1 E.5 F1800
SET_PRESSURE_ADVANCE ADVANCE=0.02; Override pressure advance value

G1 X86.496 Y61.99 E1.06964

M73 P34 R4
G1 X66.668 Y81.817 E1.06964
G1 E-.5
G1 X67.244 Y42.163 F15000
G1 E.5 F1800

G1 X87.071 Y61.99 E1.06964

G1 X67.244 Y81.817 E1.06964
G1 E-.5
G1 X67.82 Y42.163 F15000
M73 P35 R4
G1 E.5 F1800

G1 X87.647 Y61.99 E1.06964

G1 X67.82 Y81.817 E1.06964
G1 E-.5
G1 X70.27 Y42.163 F15000
G1 E.5 F1800
SET_PRESSURE_ADVANCE ADVANCE=0.025; Override pressure advance value

G1 X90.097 Y61.99 E1.06964

M73 P36 R4
G1 X70.27 Y81.817 E1.06964
G1 E-.5
G1 X70.846 Y42.163 F15000
G1 E.5 F1800

G1 X90.673 Y61.99 E1.06964

G1 X70.846 Y81.817 E1.06964
G1 E-.5
G1 X71.421 Y42.163 F15000
M73 P37 R4
G1 E.5 F1800

G1 X91.248 Y61.99 E1.06964

G1 X71.421 Y81.817 E1.06964
G1 E-.5
G1 X73.871 Y42.163 F15000
G1 E.5 F1800
SET_PRESSURE_ADVANCE ADVANCE=0.03; Override pressure advance value

G1 X93.698 Y61.99 E1.06964

G1 X73.871 Y81.817 E1.06964
M73 P38 R4
G1 E-.5
G1 X74.447 Y42.163 F15000
G1 E.5 F1800

G1 X94.274 Y61.99 E1.06964

G1 X74.447 Y81.817 E1.06964
G1 E-.5
G1 X75.023 Y42.163 F15000
G1 E.5 F1800

G1 X94.85 Y61.99 E1.06964

M73 P39 R4
G1 X75.023 Y81.817 E1.06964
G1 E-.5
G1 X77.473 Y42.163 F15000
G1 E.5 F1800
SET_PRESSURE_ADVANCE ADVANCE=0.035; Override pressure advance value

G1 X97.3 Y61.99 E1.06964

G1 X77.473 Y81.817 E1.06964
M73 P40 R4
G1 E-.5
G1 X78.048 Y42.163 F15000
G1 E.5 F1800

G1 X97.876 Y61.99 E1.06964

G1 X78.048 Y81.817 E1.06964
M73 P40 R3
G1 E-.5
G1 X78.624 Y42.163 F15000
G1 E.5 F1800

G1 X98.451 Y61.99 E1.06964

M73 P41 R3
G1 X78.624 Y81.817 E1.06964
G1 E-.5
G1 X81.074 Y42.163 F15000
G1 E.5 F1800
SET_PRESSURE_ADVANCE ADVANCE=0.04; Override pressure advance value

G1 X100.901 Y61.99 E1.06964

G1 X81.074 Y81.817 E1.06964
M73 P42 R3
G1 E-.5
G1 X81.65 Y42.163 F15000
G1 E.5 F1800

G1 X101.477 Y61.99 E1.06964

G1 X81.65 Y81.817 E1.06964
G1 E-.5
G1 X82.225 Y42.163 F15000
G1 E.5 F1800

G1 X102.053 Y61.99 E1.06964

M73 P43 R3
G1 X82.225 Y81.817 E1.06964
G1 E-.5
G1 X84.675 Y42.163 F15000
G1 E.5 F1800
SET_PRESSURE_ADVANCE ADVANCE=0.045; Override pressure advance value

G1 X104.503 Y61.99 E1.06964

G1 X84.675 Y81.817 E1.06964
G1 E-.5
G1 X85.251 Y42.163 F15000
M73 P44 R3
G1 E.5 F1800

G1 X105.078 Y61.99 E1.06964

G1 X85.251 Y81.817 E1.06964
G1 E-.5
G1 X85.827 Y42.163 F15000
G1 E.5 F1800

G1 X105.654 Y61.99 E1.06964

G1 X85.827 Y81.817 E1.06964
M73 P45 R3
G1 E-.5
G1 X88.277 Y42.163 F15000
G1 E.5 F1800
SET_PRESSURE_ADVANCE ADVANCE=0.05; Override pressure advance value

G1 X108.104 Y61.99 E1.06964

G1 X88.277 Y81.817 E1.06964
G1 E-.5
G1 X88.853 Y42.163 F15000
G1 E.5 F1800

G1 X108.68 Y61.99 E1.06964

M73 P46 R3
G1 X88.853 Y81.817 E1.06964
G1 E-.5
G1 X89.428 Y42.163 F15000
G1 E.5 F1800

G1 X109.255 Y61.99 E1.06964

G1 X89.428 Y81.817 E1.06964
M73 P47 R3
G1 E-.5
G1 X91.878 Y42.163 F15000
G1 E.5 F1800
SET_PRESSURE_ADVANCE ADVANCE=0.055; Override pressure advance value

G1 X111.705 Y61.99 E1.06964

G1 X91.878 Y81.817 E1.06964
G1 E-.5
G1 X92.454 Y42.163 F15000
G1 E.5 F1800

G1 X112.281 Y61.99 E1.06964

M73 P48 R3
G1 X92.454 Y81.817 E1.06964
G1 E-.5
G1 X93.03 Y42.163 F15000
G1 E.5 F1800

G1 X112.857 Y61.99 E1.06964

G1 X93.03 Y81.817 E1.06964
M73 P49 R3
G1 E-.5
G1 X95.48 Y42.163 F15000
G1 E.5 F1800
SET_PRESSURE_ADVANCE ADVANCE=0.06; Override pressure advance value

G1 X115.307 Y61.99 E1.06964

G1 X95.48 Y81.817 E1.06964
G1 E-.5
G1 X96.055 Y42.163 F15000
G1 E.5 F1800

G1 X115.883 Y61.99 E1.06964

M73 P50 R3
G1 X96.055 Y81.817 E1.06964
G1 E-.5
G1 X96.631 Y42.163 F15000
G1 E.5 F1800

G1 X116.458 Y61.99 E1.06964

G1 X96.631 Y81.817 E1.06964
G1 E-.5
G1 X99.081 Y42.163 F15000
M73 P51 R3
G1 E.5 F1800
SET_PRESSURE_ADVANCE ADVANCE=0.065; Override pressure advance value

G1 X118.908 Y61.99 E1.06964

G1 X99.081 Y81.817 E1.06964
G1 E-.5
G1 X99.657 Y42.163 F15000
G1 E.5 F1800

G1 X119.484 Y61.99 E1.06964

G1 X99.657 Y81.817 E1.06964
M73 P52 R3
G1 E-.5
G1 X100.232 Y42.163 F15000
G1 E.5 F1800

G1 X120.06 Y61.99 E1.06964

G1 X100.232 Y81.817 E1.06964
G1 E-.5
G1 X102.682 Y42.163 F15000
M73 P53 R3
G1 E.5 F1800
SET_PRESSURE_ADVANCE ADVANCE=0.07; Override pressure advance value

G1 X122.51 Y61.99 E1.06964

G1 X102.682 Y81.817 E1.06964
G1 E-.5
G1 X103.258 Y42.163 F15000
G1 E.5 F1800

G1 X123.085 Y61.99 E1.06964

G1 X103.258 Y81.817 E1.06964
M73 P54 R3
G1 E-.5
