; generated by SuperSlicer 2.4 on 2023-10-31 at 15:37:35 UTC


;
;

;
;
; 

; external perimeters extrusion width = 0.42mm
; perimeters extrusion width = 0.44mm
; infill extrusion width = 0.44mm
; solid infill extrusion width = 0.44mm
; top infill extrusion width = 0.42mm
; support material extrusion width = 0.42mm
; first layer extrusion width = 0.56mm

; object:{"name":"Dragonburner tap adapter (1)","id":"Dragonburner tap adapter (1).STL id:0 copy 0","object_center":[166.319563,93.373053,0.000000],"boundingbox_center":[166.319563,93.373053,9.150001],"boundingbox_size":[75.150195,75.150194,18.300001]}
; plater:{"center":[166.319563,93.373053,0.000000],"boundingbox_center":[166.319563,93.373053,9.150001],"boundingbox_size":[75.150195,75.150194,18.300001]}

M73 P0 R85


; Pre-Processed for Cancel-Object support by preprocess_cancellation v0.2.0
; 1 known objects
EXCLUDE_OBJECT_DEFINE NAME=Dragonburner_tap_adapter_1_STL_id_0_copy_0 CENTER=156.834,102.819 POLYGON=[[128.204,51.551],[128.204,131.489],[208.142,131.489],[208.142,51.551]]
;TYPE:Custom
; custom gcode: start_gcode
M104 S0 ; Stops SuperSlicer from sending temp waits separately
M140 S0
print_start EXTRUDER=250 BED=105 CHAMBER=40
; custom gcode end: start_gcode
M107
G21 ; set units to millimeters
G90 ; use absolute coordinates
M83 ; use relative distances for extrusion
; custom gcode: start_filament_gcode
; Filament gcode
; Macro syntax: https://help.prusa3d.com/article/macros_1775

; Set pressure advance per-filament
;SET_PRESSURE_ADVANCE ADVANCE=0.0372

; Set pressure advance per-filament for different nozzle sizes
;SET_PRESSURE_ADVANCE ADVANCE=0.0x
;

; custom gcode end: start_filament_gcode
;_TOOLCHANGE 0
;LAYER_CHANGE
;Z:0.3
;HEIGHT:0.3
G1 Z0.3 F7800
G92 E0
G1 E-0.6 F1800
G1 Z0.6 F7800
G1 X115.532 Y88.227
G1 Z0.3
G1 E0.6 F1800
;TYPE:Skirt
;WIDTH:0.52
G1 X114.958 Y89.018 E0.05143
G1 X113.524 Y91.504 E0.151
G1 X112.497 Y94.183 E0.15099
G1 X111.902 Y96.99 E0.15099
G1 X111.754 Y98.878 E0.09968
G1 X111.902 Y101.744 E0.151
G1 X112.497 Y104.551 E0.15099
G1 X112.799 Y105.481 E0.05143
G1 X113.687 Y107.592 E0.12051
G1 X117.822 Y116.014 E0.49371
G1 X119.009 Y117.673 E0.10736
G1 X142.018 Y140.683 E1.71236
G1 X143.678 Y141.87 E0.10734
G1 X152.462 Y146.168 E0.51463
G1 X155.142 Y147.195 E0.151
G1 X157.949 Y147.79 E0.151
G1 X160.814 Y147.939 E0.15098
G1 X162.702 Y147.79 E0.09967
G1 X165.509 Y147.195 E0.151
G1 X166.439 Y146.893 E0.05143
G1 X169.059 Y145.725 E0.15099
G1 X171.465 Y144.161 E0.151
G1 X172.79 Y143.023 E0.0919
G1 X216.501 Y102.592 E3.13323
G1 X226.687 Y92.408 E0.75795
G1 X228.248 Y89.794 E0.16023
G1 X228.496 Y87.585 E0.11699
G1 X227.952 Y85.429 E0.11699
G1 X226.686 Y83.602 E0.11699
G1 X176.088 Y33.005 E3.7654
G1 X173.473 Y31.443 E0.1603
G1 X171.264 Y31.195 E0.11699
G1 X169.108 Y31.739 E0.11699
G1 X167.281 Y33.005 E0.11699
G1 X157.097 Y43.196 E0.75814
G1 X116.67 Y86.903 E3.13295
G1 X115.532 Y88.227 E0.0919
G1 E-0.6
G1 Z0.6 F7800
G1 X120.786 Y92.244
G1 Z0.3
G1 E0.6 F1800
;WIDTH:0.56
G1 X121.253 Y91.633 E0.04404
G1 X131.118 Y81.729 E0.8002
G1 X132.208 Y80.862 E0.07969
G1 X134.229 Y79.84 E0.12964
G1 X136.41 Y79.324 E0.1283
G1 X138.669 Y79.316 E0.1293
G1 X140.482 Y79.693 E0.10601
G1 X142.001 Y80.313 E0.09392
G1 X142.127 Y80.386 E0.00833
G1 X142.75 Y80.123 E0.03872
G1 X143.838 Y79.845 E0.06431
G1 X152.029 Y71.758 E0.65888
G1 X153.552 Y70.836 E0.1019
G1 X154.831 Y70.325 E0.07883
G1 X155.568 Y70.16 E0.04327
G1 X155.847 Y69.112 E0.06206
G1 X156.396 Y67.854 E0.07855
G1 X157.081 Y66.737 E0.07503
G1 X157.233 Y66.555 E0.01353
G1 X157.642 Y63.873 E0.15531
G1 X157.657 Y62.428 E0.08271
G1 X158.108 Y59.471 E0.17125
G1 X158.539 Y58.053 E0.08485
G1 X159.648 Y51.289 E0.39236
G1 X160.536 Y49.187 E0.13057
G1 X161.788 Y47.439 E0.12308
G1 X165.797 Y43.549 E0.31974
G1 X167.308 Y42.627 E0.10135
G1 X168.958 Y41.993 E0.10115
G1 X170.806 Y41.663 E0.10748
G1 X172.602 Y41.665 E0.1028
G1 X174.199 Y41.936 E0.09272
G1 X175.725 Y42.459 E0.09232
G1 X178.23 Y44.078 E0.17074
G1 X215.621 Y81.469 E3.0269
G1 X217.071 Y83.651 E0.15
G1 X217.531 Y84.822 E0.07198
G1 X217.851 Y86.015 E0.07072
G1 X217.851 Y89.997 E0.22789
G1 X217.532 Y91.19 E0.07072
G1 X217.072 Y92.361 E0.07201
G1 X215.615 Y94.553 E0.15069
G1 X212.062 Y98.067 E0.28601
G1 X210.832 Y98.962 E0.08707
G1 X209.474 Y99.662 E0.08744
G1 X207.833 Y100.19 E0.09869
G1 X201.62 Y101.161 E0.35999
G1 X200.222 Y101.584 E0.08358
G1 X197.266 Y102.036 E0.1712
G1 X195.82 Y102.05 E0.08276
G1 X193.137 Y102.46 E0.15533
G1 X192.956 Y102.611 E0.01353
G1 X191.838 Y103.297 E0.07503
G1 X190.581 Y103.846 E0.07855
G1 X189.533 Y104.124 E0.06206
G1 X189.368 Y104.862 E0.04327
G1 X188.857 Y106.141 E0.07883
G1 X187.935 Y107.664 E0.1019
G1 X179.847 Y115.854 E0.65888
G1 X179.57 Y116.943 E0.06431
G1 X179.306 Y117.566 E0.03872
G1 X179.38 Y117.691 E0.00833
G1 X180 Y119.211 E0.09393
G1 X180.377 Y121.027 E0.10619
G1 X180.339 Y123.52 E0.14275
G1 X179.812 Y125.571 E0.12119
G1 X178.941 Y127.309 E0.1113
G1 X178.051 Y128.475 E0.08396
G1 X168.421 Y138.113 E0.77992
G1 X167.236 Y139.106 E0.08848
G1 X165.351 Y140.23 E0.12558
G1 X163.296 Y140.984 E0.12534
G1 X161.527 Y141.304 E0.10291
G1 X160.165 Y141.363 E0.07803
G1 X158.782 Y141.263 E0.07938
G1 X157.144 Y140.924 E0.09574
G1 X155.592 Y140.367 E0.09438
G1 X153.692 Y139.302 E0.12468
G1 X152.286 Y138.166 E0.10349
G1 X150.312 Y136.195 E0.15966
G1 X148.653 Y136.085 E0.09517
G1 X146.628 Y135.448 E0.12154
G1 X144.56 Y134.21 E0.13796
G1 X125.82 Y115.554 E1.51363
M73 P0 R84
G1 X124.349 Y113.295 E0.15432
G1 X123.614 Y111.068 E0.13423
G1 X123.499 Y109.38 E0.09686
G1 X121.404 Y107.269 E0.17025
G1 X120.371 Y105.969 E0.09504
G1 X119.423 Y104.312 E0.10928
G1 X118.831 Y102.76 E0.09505
G1 X118.461 Y101.124 E0.09603
G1 X118.33 Y99.476 E0.09465
G1 X118.438 Y97.77 E0.09786
G1 X118.792 Y96.106 E0.09737
G1 X119.386 Y94.505 E0.09777
G1 X120.233 Y92.967 E0.10048
G1 X120.786 Y92.244 E0.05208
G1 X121.178 Y92.545 F7800
G1 F1800
G1 X121.636 Y91.948 E0.04312
G1 X131.459 Y82.089 E0.79663
G1 X132.496 Y81.266 E0.07578
G1 X134.373 Y80.316 E0.12041
G1 X136.442 Y79.82 E0.12177
G1 X138.594 Y79.807 E0.12324
G1 X140.316 Y80.161 E0.10061
G1 X141.795 Y80.764 E0.09142
G1 X142.085 Y80.944 E0.01953
G1 X142.891 Y80.598 E0.0502
G1 X144.091 Y80.292 E0.0709
G1 X152.356 Y72.131 E0.66489
G1 X153.754 Y71.289 E0.09343
G1 X154.996 Y70.793 E0.07652
G1 X155.97 Y70.579 E0.05713
G1 X156.308 Y69.293 E0.07611
G1 X156.843 Y68.069 E0.07645
G1 X157.493 Y67.013 E0.07095
G1 X157.701 Y66.77 E0.01833
G1 X158.138 Y63.913 E0.16543
G1 X158.149 Y62.486 E0.0817
G1 X158.596 Y59.564 E0.1692
G1 X159.023 Y58.166 E0.08367
G1 X160.133 Y51.398 E0.39258
G1 X160.955 Y49.453 E0.12087
G1 X162.15 Y47.779 E0.11772
G1 X166.079 Y43.957 E0.31377
G1 X167.508 Y43.081 E0.09594
G1 X169.069 Y42.477 E0.09582
G1 X170.828 Y42.159 E0.10235
G1 X172.54 Y42.158 E0.098
G1 X174.057 Y42.412 E0.08805
G1 X175.535 Y42.918 E0.08942
G1 X177.898 Y44.447 E0.16109
G1 X215.254 Y81.802 E3.02399
G1 X216.62 Y83.858 E0.14131
G1 X217.056 Y84.964 E0.06806
G1 X217.363 Y86.112 E0.06806
G1 X217.364 Y89.9 E0.21682
G1 X217.057 Y91.049 E0.06806
G1 X216.621 Y92.155 E0.06809
G1 X215.248 Y94.219 E0.14188
G1 X211.755 Y97.677 E0.28135
G1 X210.556 Y98.55 E0.0849
G1 X209.266 Y99.212 E0.08298
G1 X207.738 Y99.703 E0.09192
G1 X201.509 Y100.677 E0.36088
G1 X200.13 Y101.097 E0.08252
G1 X197.208 Y101.543 E0.16916
G1 X195.78 Y101.555 E0.08175
G1 X192.923 Y101.991 E0.16545
G1 X192.679 Y102.199 E0.01833
G1 X191.624 Y102.849 E0.07095
G1 X190.4 Y103.384 E0.07645
G1 X189.114 Y103.722 E0.07611
G1 X188.9 Y104.697 E0.05713
G1 X188.404 Y105.938 E0.07652
G1 X187.561 Y107.336 E0.09343
G1 X179.4 Y115.602 E0.66489
G1 X179.095 Y116.802 E0.0709
G1 X178.749 Y117.608 E0.0502
G1 X178.929 Y117.898 E0.01953
G1 X179.532 Y119.376 E0.09142
G1 X179.886 Y121.1 E0.10072
G1 X179.851 Y123.427 E0.13319
G1 X179.357 Y125.373 E0.11494
G1 X178.509 Y127.066 E0.10842
G1 X177.668 Y128.161 E0.079
G1 X168.078 Y137.755 E0.77654
G1 X166.964 Y138.691 E0.08325
G1 X165.158 Y139.773 E0.1205
G1 X163.186 Y140.5 E0.12033
G1 X161.488 Y140.81 E0.09877
G1 X160.158 Y140.867 E0.07623
G1 X158.835 Y140.77 E0.07595
G1 X157.262 Y140.442 E0.09195
G1 X155.779 Y139.908 E0.09022
G1 X153.953 Y138.88 E0.11994
G1 X152.627 Y137.806 E0.0977
G1 X150.53 Y135.712 E0.16965
G1 X148.773 Y135.604 E0.10074
G1 X146.805 Y134.984 E0.11813
G1 X144.842 Y133.801 E0.13121
M73 P1 R84
G1 X126.189 Y115.221 E1.50704
G1 X124.81 Y113.109 E0.14439
G1 X124.095 Y110.943 E0.13057
G1 X123.982 Y109.163 E0.10211
G1 X121.783 Y106.949 E0.17859
G1 X120.791 Y105.706 E0.09104
G1 X119.879 Y104.117 E0.10487
G1 X119.301 Y102.6 E0.09292
G1 X118.948 Y101.033 E0.09197
G1 X118.825 Y99.455 E0.09059
G1 X118.931 Y97.82 E0.0938
G1 X119.273 Y96.227 E0.09323
G1 X119.844 Y94.695 E0.09362
G1 X120.658 Y93.223 E0.09626
G1 X121.178 Y92.545 E0.04891
G1 X121.569 Y92.847 F7800
G1 F1800
G1 X122.019 Y92.263 E0.04222
G1 X131.8 Y82.449 E0.79309
G1 X132.784 Y81.671 E0.07184
G1 X134.57 Y80.771 E0.11446
G1 X136.474 Y80.315 E0.11206
G1 X138.521 Y80.298 E0.1172
G1 X140.15 Y80.628 E0.09516
G1 X141.587 Y81.214 E0.0888
G1 X142.04 Y81.503 E0.03076
G1 X143.032 Y81.073 E0.06189
G1 X144.344 Y80.739 E0.07747
G1 X152.683 Y72.505 E0.67089
G1 X153.957 Y71.742 E0.08497
G1 X155.16 Y71.261 E0.0742
G1 X156.397 Y70.993 E0.07242
G1 X156.408 Y70.864 E0.00745
G1 X156.77 Y69.473 E0.08226
G1 X157.29 Y68.283 E0.07433
G1 X157.904 Y67.291 E0.06678
G1 X158.169 Y66.987 E0.02311
G1 X158.633 Y63.952 E0.17573
G1 X158.642 Y62.543 E0.08068
G1 X159.083 Y59.656 E0.16713
G1 X159.506 Y58.279 E0.08248
G1 X160.617 Y51.507 E0.39282
G1 X161.374 Y49.718 E0.11121
G1 X162.512 Y48.119 E0.11235
G1 X166.362 Y44.365 E0.30777
G1 X167.748 Y43.515 E0.09306
G1 X169.225 Y42.948 E0.09057
G1 X170.894 Y42.651 E0.09704
G1 X172.519 Y42.653 E0.09304
G1 X173.954 Y42.897 E0.08334
G1 X175.345 Y43.377 E0.08421
G1 X177.566 Y44.816 E0.15148
G1 X214.886 Y82.135 E3.02108
G1 X216.169 Y84.064 E0.13264
G1 X216.581 Y85.106 E0.06412
G1 X216.876 Y86.209 E0.06538
G1 X216.877 Y89.803 E0.20574
G1 X216.582 Y90.907 E0.06538
G1 X216.169 Y91.949 E0.06414
G1 X214.881 Y93.885 E0.13312
G1 X211.448 Y97.288 E0.27674
G1 X210.313 Y98.118 E0.08049
G1 X209.058 Y98.762 E0.08071
G1 X207.642 Y99.217 E0.08515
G1 X201.397 Y100.193 E0.3618
G1 X200.037 Y100.61 E0.08144
G1 X197.151 Y101.051 E0.1671
G1 X195.741 Y101.06 E0.08073
G1 X192.706 Y101.523 E0.17576
G1 X192.401 Y101.788 E0.02311
G1 X191.409 Y102.402 E0.06678
G1 X190.219 Y102.922 E0.07433
G1 X188.829 Y103.284 E0.08226
G1 X188.699 Y103.296 E0.00745
G1 X188.432 Y104.532 E0.07242
G1 X187.951 Y105.736 E0.0742
G1 X187.188 Y107.009 E0.08497
G1 X178.953 Y115.349 E0.67089
G1 X178.619 Y116.66 E0.07747
G1 X178.189 Y117.653 E0.06189
G1 X178.479 Y118.106 E0.03076
G1 X179.064 Y119.542 E0.0888
G1 X179.395 Y121.173 E0.09523
G1 X179.363 Y123.334 E0.12374
G1 X178.902 Y125.175 E0.10866
G1 X178.076 Y126.823 E0.10548
G1 X177.286 Y127.845 E0.07398
G1 X167.735 Y137.397 E0.77323
G1 X166.692 Y138.276 E0.07807
G1 X164.964 Y139.316 E0.11542
G1 X163.075 Y140.017 E0.11532
G1 X161.449 Y140.315 E0.09463
G1 X160.179 Y140.372 E0.07278
G1 X158.919 Y140.281 E0.07233
G1 X157.413 Y139.97 E0.088
G1 X155.967 Y139.449 E0.08801
G1 X154.215 Y138.459 E0.11517
G1 X152.968 Y137.447 E0.09195
G1 X150.747 Y135.228 E0.17972
G1 X148.893 Y135.122 E0.1063
G1 X146.982 Y134.52 E0.11466
G1 X145.124 Y133.393 E0.12441
G1 X126.557 Y114.888 E1.50051
G1 X125.27 Y112.923 E0.13446
G1 X124.575 Y110.818 E0.12687
G1 X124.465 Y108.947 E0.10733
G1 X122.161 Y106.629 E0.18705
G1 X121.211 Y105.442 E0.08704
G1 X120.335 Y103.922 E0.10045
G1 X119.78 Y102.474 E0.08877
G1 X119.441 Y100.976 E0.08791
G1 X119.321 Y99.469 E0.08655
G1 X119.42 Y97.906 E0.08964
G1 X119.753 Y96.349 E0.09113
G1 X120.301 Y94.886 E0.08944
G1 X121.082 Y93.48 E0.09205
G1 X121.569 Y92.847 E0.04573
G1 X121.961 Y93.149 F7800
G1 F1800
G1 X122.402 Y92.578 E0.04133
G1 X132.141 Y82.81 E0.78957
G1 X133.072 Y82.075 E0.06788
G1 X134.715 Y81.246 E0.10536
G1 X136.507 Y80.81 E0.10555
G1 X138.499 Y80.794 E0.11407
G1 X140.028 Y81.109 E0.08934
G1 X141.377 Y81.664 E0.08353
G1 X141.994 Y82.064 E0.04208
G1 X143.174 Y81.549 E0.07371
G1 X144.49 Y81.214 E0.07771
G1 X144.58 Y81.202 E0.00522
G1 X153.01 Y72.879 E0.67816
G1 X154.159 Y72.195 E0.0765
G1 X155.325 Y71.729 E0.07188
G1 X156.72 Y71.431 E0.08167
G1 X156.872 Y71.423 E0.00872
G1 X156.894 Y70.964 E0.02633
G1 X157.245 Y69.617 E0.07966
G1 X157.737 Y68.499 E0.06993
G1 X158.314 Y67.571 E0.06256
G1 X158.637 Y67.206 E0.02789
G1 X159.128 Y63.991 E0.1862
G1 X159.135 Y62.599 E0.07964
G1 X159.57 Y59.749 E0.16503
G1 X159.99 Y58.393 E0.08128
G1 X161.101 Y51.617 E0.39308
G1 X161.794 Y49.983 E0.10159
G1 X162.874 Y48.457 E0.10698
G1 X166.645 Y44.773 E0.3018
G1 X167.948 Y43.969 E0.0876
G1 X169.336 Y43.431 E0.08522
G1 X170.916 Y43.146 E0.09191
G1 X172.457 Y43.145 E0.08823
G1 X173.812 Y43.372 E0.07863
G1 X175.155 Y43.836 E0.08131
G1 X177.234 Y45.184 E0.14188
G1 X214.518 Y82.468 E3.01818
G1 X215.718 Y84.271 E0.12397
G1 X216.115 Y85.275 E0.0618
G1 X216.389 Y86.305 E0.06105
G1 X216.389 Y89.707 E0.19473
G1 X216.115 Y90.738 E0.06105
G1 X215.718 Y91.742 E0.06181
G1 X214.514 Y93.551 E0.12436
G1 X211.14 Y96.899 E0.27211
G1 X210.036 Y97.706 E0.07829
G1 X208.851 Y98.311 E0.07617
G1 X207.546 Y98.73 E0.07842
G1 X201.285 Y99.708 E0.36275
G1 X199.944 Y100.123 E0.08035
G1 X197.094 Y100.558 E0.16501
G1 X195.702 Y100.564 E0.07969
G1 X192.486 Y101.055 E0.18622
G1 X192.122 Y101.379 E0.02789
G1 X191.194 Y101.956 E0.06256
G1 X190.075 Y102.448 E0.06993
G1 X188.729 Y102.798 E0.07966
G1 X188.269 Y102.82 E0.02633
G1 X188.261 Y102.973 E0.00872
G1 X187.964 Y104.368 E0.08167
G1 X187.498 Y105.534 E0.07188
G1 X186.814 Y106.682 E0.0765
G1 X178.49 Y115.112 E0.67816
G1 X178.479 Y115.203 E0.00522
G1 X178.144 Y116.519 E0.07771
G1 X177.628 Y117.699 E0.07371
G1 X178.029 Y118.315 E0.04208
G1 X178.584 Y119.665 E0.08353
G1 X178.899 Y121.193 E0.08934
G1 X178.875 Y123.243 E0.11732
G1 X178.447 Y124.978 E0.1023
G1 X177.644 Y126.579 E0.1025
G1 X176.904 Y127.528 E0.06891
G1 X167.392 Y137.04 E0.77002
G1 X166.418 Y137.862 E0.07294
G1 X164.769 Y138.86 E0.11033
G1 X162.964 Y139.533 E0.1103
G1 X161.409 Y139.821 E0.09048
G1 X160.2 Y139.877 E0.0693
G1 X158.971 Y139.788 E0.07054
G1 X157.532 Y139.488 E0.08416
G1 X156.155 Y138.99 E0.0838
G1 X154.478 Y138.038 E0.1104
G1 X153.309 Y137.087 E0.08624
G1 X150.963 Y134.743 E0.18987
G1 X149.012 Y134.639 E0.11183
G1 X147.16 Y134.057 E0.11114
G1 X145.407 Y132.985 E0.11757
G1 X126.925 Y114.556 E1.49407
G1 X125.731 Y112.737 E0.12454
G1 X125.056 Y110.694 E0.12313
G1 X124.95 Y108.731 E0.11254
G1 X122.54 Y106.308 E0.19562
G1 X121.631 Y105.178 E0.08304
G1 X120.791 Y103.726 E0.09604
G1 X120.26 Y102.347 E0.08458
G1 X119.928 Y100.884 E0.08585
G1 X119.817 Y99.448 E0.08246
G1 X119.913 Y97.956 E0.08556
G1 X120.234 Y96.472 E0.08693
G1 X120.759 Y95.078 E0.08525
G1 X121.506 Y93.738 E0.08784
G1 X121.961 Y93.149 E0.04256
G1 X122.351 Y93.452 F7800
G1 F1800
G1 X122.784 Y92.894 E0.04044
G1 X132.481 Y83.17 E0.78607
G1 X133.358 Y82.48 E0.06389
G1 X134.912 Y81.702 E0.09947
G1 X136.539 Y81.306 E0.09587
G1 X138.477 Y81.289 E0.1109
G1 X139.903 Y81.589 E0.08345
G1 X141.166 Y82.113 E0.07824
G1 X141.99 Y82.655 E0.05649
G1 X142.216 Y82.508 E0.01542
G1 X143.316 Y82.024 E0.0688
G1 X144.593 Y81.699 E0.0754
G1 X144.802 Y81.68 E0.01201
G1 X153.337 Y73.253 E0.6866
G1 X154.393 Y72.632 E0.07016
G1 X155.488 Y72.197 E0.0674
G1 X156.8 Y71.921 E0.07677
G1 X157.351 Y71.907 E0.03154
G1 X157.381 Y71.062 E0.04841
G1 X157.707 Y69.798 E0.07472
G1 X158.167 Y68.745 E0.06573
G1 X158.723 Y67.851 E0.06028
G1 X159.105 Y67.428 E0.03262
G1 X159.624 Y64.029 E0.19681
G1 X159.627 Y62.656 E0.0786
G1 X160.057 Y59.843 E0.16291
G1 X160.473 Y58.507 E0.08006
G1 X161.585 Y51.727 E0.39333
G1 X162.239 Y50.202 E0.09494
G1 X163.237 Y48.796 E0.09869
G1 X166.93 Y45.179 E0.29587
G1 X168.148 Y44.423 E0.0821
G1 X169.493 Y43.902 E0.08252
G1 X170.981 Y43.638 E0.08653
G1 X172.436 Y43.641 E0.08328
G1 X173.709 Y43.857 E0.07391
G1 X174.964 Y44.294 E0.07606
G1 X176.902 Y45.553 E0.13232
G1 X214.15 Y82.801 E3.01529
G1 X215.267 Y84.478 E0.11534
G1 X215.64 Y85.416 E0.05779
G1 X215.902 Y86.402 E0.05836
