; generated by SuperSlicer 2.4 on 2023-10-30 at 15:40:39 UTC


;
;

;
;
; 

; external perimeters extrusion width = 0.42mm
; perimeters extrusion width = 0.44mm
; infill extrusion width = 0.44mm
; solid infill extrusion width = 0.44mm
; top infill extrusion width = 0.42mm
; first layer extrusion width = 0.56mm

; object:{"name":"EBB36 1","id":"EBB36 1.0 orbiter 2.0 mount strain relief.stl id:0 copy 0","object_center":[58.667494,51.011455,0.000000],"boundingbox_center":[58.667494,51.011455,4.431967],"boundingbox_size":[58.220559,56.497914,8.863934]}
; plater:{"center":[58.667494,51.011455,0.000000],"boundingbox_center":[58.667494,51.011455,4.431967],"boundingbox_size":[58.220559,56.497914,8.863934]}

M73 P0 R31


; Pre-Processed for Cancel-Object support by preprocess_cancellation v0.2.0
; 1 known objects
EXCLUDE_OBJECT_DEFINE NAME=EBB36_1_0_orbiter_2_0_mount_strain_relief_stl_id_0_copy_0 CENTER=60.364,51.258 POLYGON=[[29.243,22.463],[29.243,79.559],[88.092,79.559],[88.092,22.463]]
;TYPE:Custom
; custom gcode: start_gcode
M104 S0 ; Stops SuperSlicer from sending temp waits separately
M140 S0
print_start EXTRUDER=240 BED=105 CHAMBER=50
; custom gcode end: start_gcode
M107
G21 ; set units to millimeters
G90 ; use absolute coordinates
M83 ; use relative distances for extrusion
; custom gcode: start_filament_gcode
; Filament gcode
; Macro syntax: https://help.prusa3d.com/article/macros_1775

; Set pressure advance per-filament
SET_PRESSURE_ADVANCE ADVANCE=0.0372

; Set pressure advance per-filament for different nozzle sizes
;SET_PRESSURE_ADVANCE ADVANCE=0.0x
;

; custom gcode end: start_filament_gcode
;_TOOLCHANGE 0
;LAYER_CHANGE
;Z:0.3
;HEIGHT:0.3
G1 Z0.3 F7800
G92 E0
M73 P1 R31
G1 E-0.6 F1800
G1 Z0.6 F7800
G1 X24.629 Y22.846
G1 Z0.3
G1 E0.6 F1800
;TYPE:Skirt
;WIDTH:0.52
G1 X23.202 Y25.062 E0.13872
G1 X22.805 Y27.25 E0.11699
G1 X22.805 Y28.329 E0.05682
G1 X23.099 Y30.221 E0.10076
G1 X36.106 Y71.01 E2.25285
G1 X36.814 Y72.704 E0.09665
G1 X37.375 Y73.626 E0.05677
G1 X38.323 Y74.794 E0.07919
G1 X47.092 Y83.554 E0.65222
G1 X48.269 Y84.501 E0.07949
G1 X49.684 Y85.274 E0.08485
G1 X50.477 Y85.576 E0.04465
G1 X51.475 Y85.829 E0.05419
G1 X52.354 Y85.956 E0.04676
G1 X53.565 Y85.987 E0.0637
G1 X55.457 Y85.687 E0.10081
G1 X56.638 Y85.273 E0.06585
G1 X57.559 Y84.814 E0.05416
G1 X61.772 Y82.105 E0.26357
G1 X76.501 Y71.444 E0.9568
G1 X78.341 Y69.867 E0.12753
G1 X79.692 Y68.483 E0.10174
G1 X80.929 Y66.998 E0.10174
G1 X82.006 Y65.485 E0.09773
G1 X93.56 Y46.976 E1.14815
G1 X94.117 Y45.613 E0.07751
G1 X94.46 Y44.037 E0.08486
G1 X94.52 Y42.565 E0.07752
G1 X94.22 Y40.673 E0.10078
G1 X93.656 Y39.162 E0.0849
G1 X93.034 Y38.077 E0.06581
G1 X92.264 Y37.091 E0.06584
G1 X83.584 Y28.446 E0.64464
G1 X82.475 Y27.652 E0.07177
G1 X72.615 Y21.686 E0.60641
G1 X71.27 Y21.004 E0.07935
G1 X70.121 Y20.594 E0.06423
G1 X68.661 Y20.283 E0.07854
G1 X35.902 Y16.076 E1.73801
G1 X34.029 Y16.026 E0.0986
G1 X31.452 Y16.584 E0.13872
G1 X29.625 Y17.85 E0.11699
G1 X24.629 Y22.846 E0.3718
M104 S240 ; set temperature
G1 E-0.6
G1 Z0.6 F7800
; printing object EBB36 1.0 orbiter 2.0 mount strain relief.stl id:0 copy 0
EXCLUDE_OBJECT_START NAME=EBB36_1_0_orbiter_2_0_mount_strain_relief_stl_id_0_copy_0
G1 X54.124 Y53.285
G1 Z0.3
G1 E0.6 F1800
;TYPE:Internal perimeter
;WIDTH:0.56
G1 X54.094 Y53.313 E0.00235
G1 X53.824 Y53.66 E0.02513
G1 X53.553 Y54.215 E0.03537
G1 X53.426 Y54.819 E0.03536
G1 X53.426 Y56.241 E0.08141
G1 X53.526 Y56.636 E0.02331
G1 X53.804 Y57.082 E0.03007
G1 X54.115 Y57.345 E0.02331
G1 X54.459 Y57.512 E0.0219
G1 X54.833 Y57.59 E0.0219
G1 X55.216 Y57.574 E0.0219
G1 X55.582 Y57.464 E0.0219
G1 X55.91 Y57.268 E0.02186
G1 X58.095 Y55.081 E0.17697
G1 X58.3 Y54.817 E0.01913
G1 X58.463 Y54.445 E0.02326
G1 X58.518 Y53.898 E0.03143
G1 X58.372 Y53.369 E0.03143
G1 X58.136 Y53.009 E0.02467
G1 X57.729 Y52.679 E0.03001
G1 X57.35 Y52.531 E0.02326
G1 X57.017 Y52.49 E0.0192
G1 X55.747 Y52.496 E0.0727
G1 X55.16 Y52.619 E0.03432
G1 X54.759 Y52.796 E0.02512
G1 X54.405 Y53.027 E0.0242
G1 X54.124 Y53.285 E0.02185
G1 X54.459 Y53.65 F7800
;TYPE:External perimeter
G1 F1800
G1 X54.247 Y53.923 E0.01983
G1 X54.025 Y54.377 E0.02889
G1 X53.921 Y54.871 E0.02889
G1 X53.921 Y56.18 E0.07492
G1 X53.987 Y56.439 E0.01533
G1 X54.183 Y56.753 E0.0212
G1 X54.388 Y56.926 E0.01533
G1 X54.62 Y57.04 E0.01482
G1 X54.874 Y57.092 E0.01482
G1 X55.133 Y57.081 E0.01482
G1 X55.381 Y57.007 E0.01482
G1 X55.603 Y56.874 E0.01481
G1 X57.723 Y54.753 E0.17167
G1 X57.871 Y54.562 E0.01381
G1 X57.977 Y54.317 E0.0153
G1 X58.016 Y53.941 E0.02167
G1 X57.915 Y53.576 E0.02167
G1 X57.764 Y53.345 E0.01581
G1 X57.477 Y53.112 E0.02116
G1 X57.228 Y53.015 E0.0153
G1 X56.988 Y52.985 E0.01383
G1 X55.8 Y52.992 E0.06799
G1 X55.312 Y53.094 E0.02851
G1 X54.995 Y53.233 E0.01983
G1 X54.71 Y53.419 E0.0195
G1 X54.459 Y53.65 E0.0195
;WIPE_START
G1 X54.067 Y53.573 F7800
;WIPE_END
G1 X53.622 Y53.112
;TYPE:Internal perimeter
G1 F1800
G1 X53.354 Y53.02 E0.0162
G1 X53.354 Y51.649 E0.07852
G1 X53.991 Y52.156 E0.04663
G1 X54.474 Y52.389 E0.0307
G1 X54.099 Y52.634 E0.02566
G1 X53.728 Y52.976 E0.0289
G1 X53.622 Y53.112 E0.00985
G1 X54.845 Y51.96 F7800
G1 F1800
G1 X55.012 Y51.999 E0.0098
G1 X56.891 Y51.999 E0.10758
G1 X57.284 Y51.909 E0.02308
G1 X57.628 Y51.743 E0.02182
G1 X57.828 Y51.601 E0.01404
G1 X58.097 Y51.332 E0.02182
G1 X58.311 Y50.99 E0.02308
G1 X58.444 Y50.609 E0.02307
G1 X58.486 Y50.231 E0.02182
G1 X58.472 Y49.986 E0.01404
G1 X58.386 Y49.614 E0.02182
G1 X58.211 Y49.251 E0.02308
G1 X57.985 Y48.97 E0.02063
G1 X56.331 Y47.332 E0.13326
G1 X55.991 Y47.12 E0.02297
G1 X55.631 Y46.995 E0.02178
G1 X55.39 Y46.954 E0.01401
G1 X55.136 Y46.954 E0.01454
G1 X55.009 Y46.955 E0.00724
G1 X54.639 Y47.04 E0.02178
G1 X54.413 Y47.134 E0.01401
G1 X54.109 Y47.325 E0.02052
G1 X53.927 Y47.488 E0.01401
G1 X53.704 Y47.768 E0.02052
G1 X53.585 Y47.983 E0.01401
G1 X53.46 Y48.342 E0.02177
G1 X53.42 Y48.7 E0.02061
G1 X53.426 Y50.414 E0.09816
G1 X53.516 Y50.805 E0.02296
G1 X53.69 Y51.168 E0.02305
G1 X53.942 Y51.483 E0.02305
G1 X54.256 Y51.734 E0.02305
G1 X54.619 Y51.909 E0.02305
G1 X54.845 Y51.96 E0.01325
G1 X54.955 Y51.477 F7800
;TYPE:External perimeter
G1 F1800
G1 X55.068 Y51.503 E0.00661
G1 X56.835 Y51.503 E0.10118
G1 X57.119 Y51.438 E0.01668
G1 X57.375 Y51.315 E0.01622
G1 X57.506 Y51.221 E0.00925
G1 X57.707 Y51.021 E0.01622
G1 X57.861 Y50.774 E0.01668
G1 X57.957 Y50.499 E0.01668
G1 X57.989 Y50.217 E0.01622
G1 X57.979 Y50.056 E0.00925
G1 X57.916 Y49.78 E0.01622
G1 X57.789 Y49.518 E0.01668
G1 X57.616 Y49.302 E0.01579
G1 X56.021 Y47.723 E0.12848
G1 X55.775 Y47.569 E0.01662
G1 X55.508 Y47.476 E0.01619
G1 X55.349 Y47.45 E0.00923
G1 X55.137 Y47.45 E0.01214
G1 X55.066 Y47.45 E0.00405
G1 X54.79 Y47.513 E0.01619
G1 X54.641 Y47.575 E0.00923
G1 X54.409 Y47.722 E0.01574
G1 X54.289 Y47.829 E0.00923
G1 X54.117 Y48.044 E0.01574
G1 X54.039 Y48.186 E0.00923
G1 X53.946 Y48.453 E0.01619
G1 X53.915 Y48.726 E0.01577
G1 X53.922 Y50.357 E0.09337
G1 X53.986 Y50.641 E0.01663
G1 X54.113 Y50.903 E0.01666
G1 X54.294 Y51.13 E0.01666
G1 X54.522 Y51.312 E0.01666
G1 X54.784 Y51.438 E0.01666
G1 X54.955 Y51.477 E0.01006
;WIPE_START
G1 X55.073 Y51.86 F7800
;WIPE_END
G1 E-0.6 F1800
G1 Z0.6 F7800
G1 X65.571 Y47.452
G1 Z0.3
G1 E0.6 F1800
;TYPE:Internal perimeter
G1 X65.679 Y47.456 E0.00617
G1 X64.359 Y48.783 E0.10715
G1 X64.106 Y49.188 E0.02734
G1 X63.981 Y49.492 E0.01879
G1 X63.875 Y49.958 E0.02736
G1 X63.876 Y50.436 E0.02737
G1 X63.925 Y50.724 E0.01674
G1 X64.007 Y51.005 E0.01674
G1 X64.215 Y51.435 E0.02737
G1 X64.513 Y51.809 E0.02736
G1 X64.758 Y52.027 E0.01879
G1 X65.262 Y52.344 E0.0341
G1 X64.754 Y52.853 E0.04114
G1 X64.481 Y53.289 E0.02948
G1 X64.323 Y53.741 E0.02741
G1 X64.269 Y54.065 E0.01883
G1 X64.269 Y54.491 E0.02436
G1 X63.749 Y54.076 E0.03806
G1 X63.295 Y53.856 E0.02889
G1 X62.804 Y53.739 E0.0289
G1 X62.299 Y53.733 E0.0289
G1 X61.966 Y53.803 E0.01952
G1 X61.771 Y53.844 E0.0114
G1 X61.131 Y54.18 E0.04137
G1 X60.609 Y54.732 E0.04342
G1 X60.339 Y55.325 E0.03732
G1 X59.67 Y57.822 E0.14796
G1 X59.096 Y57.168 E0.04982
G1 X58.692 Y56.872 E0.02866
G1 X58.234 Y56.671 E0.02865
G1 X57.376 Y56.502 E0.05002
G1 X58.468 Y55.41 E0.0884
G1 X58.73 Y55.072 E0.02445
G1 X58.948 Y54.572 E0.03122
G1 X59.021 Y53.856 E0.04119
G1 X58.829 Y53.163 E0.04119
G1 X58.508 Y52.673 E0.03352
G1 X57.886 Y52.168 E0.04587
G1 X58.149 Y51.981 E0.01846
G1 X58.487 Y51.642 E0.02741
G1 X58.761 Y51.206 E0.02948
G1 X58.93 Y50.72 E0.02947
G1 X58.983 Y50.244 E0.02741
G1 X58.954 Y49.741 E0.0288
G1 X59.709 Y49.961 E0.04498
G1 X60.246 Y49.991 E0.03083
G1 X60.781 Y49.923 E0.03083
G1 X61.443 Y49.678 E0.0404
G1 X61.893 Y49.382 E0.03083
G1 X62.261 Y49.03 E0.02916
G1 X62.559 Y48.617 E0.02916
G1 X62.778 Y48.157 E0.02915
G1 X63.329 Y46.102 E0.12183
G1 X63.697 Y46.693 E0.03992
G1 X64.279 Y47.17 E0.04305
G1 X64.983 Y47.434 E0.04305
G1 X65.571 Y47.452 E0.03367
G1 E-0.6
G1 Z0.6 F7800
G1 X61.026 Y55.012
G1 Z0.3
G1 E0.6 F1800
G1 X60.808 Y55.493 E0.03024
G1 X57.983 Y66.034 E0.62466
G1 X57.899 Y66.462 E0.025
G1 X57.883 Y67.123 E0.03785
G1 X58.002 Y67.787 E0.03861
G1 X58.249 Y68.401 E0.03785
G1 X58.498 Y68.806 E0.02726
G1 X58.927 Y69.295 E0.03722
G1 X59.589 Y69.825 E0.04854
G1 X60.169 Y70.103 E0.03682
G1 X60.797 Y70.243 E0.03684
G1 X61.441 Y70.236 E0.03684
G1 X62.052 Y70.087 E0.03599
G1 X62.437 Y69.91 E0.02427
G1 X63.374 Y69.359 E0.06221
G1 X64.156 Y69.009 E0.04908
G1 X64.685 Y68.827 E0.03198
G1 X66.138 Y68.45 E0.08591
G1 X67.028 Y68.171 E0.05345
G1 X68.317 Y67.667 E0.07921
G1 X69.167 Y67.266 E0.05376
G1 X70.176 Y66.707 E0.06603
G1 X70.55 Y66.414 E0.02721
G1 X70.875 Y66.076 E0.02684
G1 X71.149 Y65.696 E0.02684
G1 X71.367 Y65.281 E0.02684
G1 X71.525 Y64.839 E0.02684
G1 X71.621 Y64.366 E0.02763
G1 X71.638 Y63.677 E0.03945
G1 X71.507 Y62.987 E0.04025
G1 X71.233 Y62.339 E0.04024
G1 X70.838 Y61.775 E0.03944
G1 X63.759 Y54.718 E0.57217
G1 X63.483 Y54.498 E0.02018
G1 X63.128 Y54.325 E0.02262
G1 X62.743 Y54.234 E0.02263
G1 X62.348 Y54.229 E0.02263
G1 X62.068 Y54.288 E0.01639
G1 X61.94 Y54.315 E0.00747
G1 X61.434 Y54.581 E0.03271
G1 X61.026 Y55.012 E0.03397
G1 X61.443 Y55.292 F7800
;TYPE:External perimeter
G1 F1800
G1 X61.276 Y55.661 E0.02316
G1 X58.466 Y66.146 E0.62135
G1 X58.393 Y66.516 E0.02163
G1 X58.379 Y67.085 E0.03255
G1 X58.481 Y67.649 E0.03283
G1 X58.693 Y68.177 E0.03255
G1 X58.898 Y68.511 E0.02244
G1 X59.271 Y68.935 E0.03232
G1 X59.855 Y69.403 E0.0428
G1 X60.332 Y69.632 E0.03031
G1 X60.849 Y69.746 E0.03032
G1 X61.379 Y69.741 E0.03032
G1 X61.888 Y69.616 E0.03001
G1 X62.207 Y69.47 E0.02012
G1 X63.146 Y68.918 E0.06235
G1 X63.974 Y68.547 E0.05192
G1 X64.542 Y68.352 E0.03435
G1 X66.001 Y67.974 E0.08629
G1 X66.864 Y67.703 E0.05176
G1 X68.121 Y67.211 E0.07728
G1 X68.941 Y66.825 E0.05187
G1 X69.901 Y66.293 E0.06286
G1 X70.217 Y66.046 E0.02296
G1 X70.494 Y65.758 E0.02282
G1 X70.727 Y65.435 E0.02283
G1 X70.912 Y65.082 E0.02283
G1 X71.046 Y64.706 E0.02282
G1 X71.126 Y64.31 E0.02311
G1 X71.141 Y63.718 E0.03393
G1 X71.03 Y63.131 E0.03421
G1 X70.797 Y62.58 E0.03421
G1 X70.457 Y62.095 E0.03392
G1 X63.428 Y55.088 E0.5681
G1 X63.217 Y54.92 E0.01547
G1 X62.96 Y54.795 E0.01635
G1 X62.682 Y54.729 E0.01635
G1 X62.397 Y54.726 E0.01635
G1 X62.17 Y54.773 E0.01326
G1 X62.109 Y54.786 E0.00354
G1 X61.737 Y54.981 E0.02405
G1 X61.443 Y55.292 E0.02451
;WIPE_START
G1 X61.043 Y55.287 F7800
;WIPE_END
G1 E-0.6 F1800
G1 Z0.6 F7800
G1 X59.062 Y57.908
G1 Z0.3
G1 E0.6 F1800
;TYPE:Internal perimeter
G1 X59.032 Y57.846 E0.0039
G1 X58.76 Y57.536 E0.02366
G1 X58.443 Y57.304 E0.02243
G1 X58.084 Y57.147 E0.02243
G1 X57.7 Y57.071 E0.02243
G1 X57.287 Y57.081 E0.02366
G1 X56.745 Y57.246 E0.03243
G1 X56.32 Y57.552 E0.02998
G1 X50.601 Y63.297 E0.464
G1 X50.323 Y63.616 E0.02424
G1 X50.069 Y64.003 E0.0265
G1 X49.811 Y64.598 E0.03709
G1 X49.7 Y65.047 E0.0265
G1 X49.653 Y65.494 E0.02574
G1 X49.666 Y65.944 E0.02575
G1 X49.738 Y66.377 E0.02512
G1 X49.855 Y66.797 E0.02495
G1 X49.942 Y67.22 E0.02477
G1 X49.988 Y67.654 E0.02494
G1 X50.006 Y68.073 E0.02402
G1 X50.077 Y68.387 E0.01842
G1 X50.206 Y68.687 E0.01868
G1 X50.445 Y69.028 E0.02382
G1 X50.893 Y69.395 E0.03319
G1 X51.395 Y69.571 E0.03047
G1 X51.773 Y69.574 E0.02161
G1 X52.053 Y69.512 E0.01645
G1 X52.355 Y69.368 E0.01912
G1 X52.663 Y69.155 E0.02146
G1 X53.064 Y68.911 E0.02685
G1 X53.707 Y68.611 E0.04065
G1 X54.388 Y68.394 E0.04086
G1 X55.268 Y68.206 E0.05151
G1 X55.707 Y68.041 E0.02684
G1 X56.266 Y67.713 E0.03709
G1 X56.62 Y67.415 E0.02651
G1 X56.922 Y67.082 E0.02575
G1 X57.176 Y66.711 E0.02575
G1 X57.378 Y66.309 E0.02575
G1 X57.515 Y65.908 E0.02426
G1 X59.323 Y59.136 E0.40123
G1 X59.34 Y58.745 E0.02241
G1 X59.268 Y58.337 E0.02366
G1 X59.062 Y57.908 E0.0273
G1 X58.615 Y58.122 F7800
;TYPE:External perimeter
G1 F1800
G1 X58.423 Y57.904 E0.01666
G1 X58.194 Y57.736 E0.01621
G1 X57.935 Y57.623 E0.01621
G1 X57.657 Y57.568 E0.01621
G1 X57.366 Y57.574 E0.01666
G1 X56.968 Y57.696 E0.02385
G1 X56.642 Y57.931 E0.02297
G1 X50.964 Y63.634 E0.46071
G1 X50.719 Y63.916 E0.02135
G1 X50.507 Y64.24 E0.02217
G1 X50.282 Y64.757 E0.03227
G1 X50.189 Y65.133 E0.02217
G1 X50.149 Y65.513 E0.02189
G1 X50.16 Y65.896 E0.0219
G1 X50.222 Y66.269 E0.02167
G1 X50.337 Y66.68 E0.02442
G1 X50.433 Y67.144 E0.02714
G1 X50.483 Y67.617 E0.02721
G1 X50.5 Y68.007 E0.02236
G1 X50.55 Y68.233 E0.01325
G1 X50.641 Y68.444 E0.01316
G1 X50.812 Y68.688 E0.01702
G1 X51.139 Y68.956 E0.02425
G1 X51.482 Y69.076 E0.02076
G1 X51.72 Y69.078 E0.01365
G1 X51.891 Y69.04 E0.01002
G1 X52.106 Y68.938 E0.01362
G1 X52.393 Y68.739 E0.02
G1 X52.83 Y68.474 E0.02926
G1 X53.527 Y68.148 E0.04401
G1 X54.261 Y67.914 E0.04409
G1 X55.128 Y67.729 E0.05076
G1 X55.492 Y67.592 E0.02229
G1 X55.979 Y67.307 E0.03228
G1 X56.275 Y67.058 E0.02217
G1 X56.532 Y66.774 E0.0219
G1 X56.748 Y66.458 E0.0219
G1 X56.92 Y66.117 E0.0219
G1 X57.041 Y65.763 E0.02136
G1 X58.83 Y59.06 E0.39716
G1 X58.843 Y58.777 E0.01621
G1 X58.792 Y58.491 E0.01666
G1 X58.615 Y58.122 E0.0234
;WIPE_START
G1 X58.777 Y57.756 F7800
;WIPE_END
G1 E-0.6 F1800
G1 Z0.6 F7800
G1 X53.354 Y59.828
G1 Z0.3
G1 E0.6 F1800
;TYPE:Internal perimeter
G1 X53.354 Y57.35 E0.14184
G1 X53.842 Y57.763 E0.03658
G1 X54.297 Y57.985 E0.02898
G1 X55.036 Y58.139 E0.04321
G1 X53.354 Y59.828 E0.13647
G1 E-0.6
M73 P2 R31
G1 Z0.6 F7800
G1 X51.625 Y61.565
G1 Z0.3
G1 E0.6 F1800
G1 X51.612 Y61.009 E0.03188
G1 X51.336 Y60.344 E0.04119
G1 X50.899 Y59.829 E0.03869
G1 X53.354 Y59.829 E0.14051
G1 X51.625 Y61.565 E0.14028
G1 E-0.6
G1 Z0.6 F7800
G1 X47.873 Y64.947
G1 Z0.3
G1 E0.6 F1800
G1 X47.988 Y64.68 E0.0166
G1 X48.421 Y64.722 E0.02494
G1 X48.971 Y64.636 E0.03184
G1 X49.337 Y64.449 E0.02352
G1 X49.211 Y64.961 E0.03021
G1 X49.156 Y65.475 E0.02959
G1 X49.172 Y66.015 E0.0309
G1 X48.883 Y66.104 E0.0173
G1 X48.623 Y65.694 E0.0278
G1 X48.282 Y65.3 E0.02983
G1 X47.873 Y64.947 E0.03091
G1 E-0.6
G1 Z0.6 F7800
G1 X44.927 Y64.283
G1 Z0.3
G1 E0.6 F1800
G1 X44.33 Y64.474 E0.03588
G1 X43.988 Y64.627 E0.02145
G1 X44.07 Y63.535 E0.06269
G1 X44.508 Y63.843 E0.03067
G1 X44.933 Y64 E0.02588
G1 X44.927 Y64.283 E0.01619
G1 E-0.6
G1 Z0.6 F7800
G1 X43.411 Y60.597
G1 Z0.3
G1 E0.6 F1800
G1 X43.236 Y60.233 E0.02312
G1 X42.992 Y59.829 E0.02704
G1 X44.009 Y59.829 E0.0582
G1 X43.411 Y60.597 E0.05575
G1 E-0.6
G1 Z0.6 F7800
G1 X51.119 Y61.113
G1 Z0.3
G1 E0.6 F1800
G1 X50.908 Y60.606 E0.03143
G1 X50.645 Y60.296 E0.02326
G1 X50.315 Y60.06 E0.02326
G1 X49.816 Y59.9 E0.02998
G1 X45.281 Y59.894 E0.2596
G1 X44.933 Y59.94 E0.02005
G1 X44.563 Y60.092 E0.02293
G1 X44.244 Y60.334 E0.02293
G1 X44.013 Y60.63 E0.02146
G1 X43.901 Y60.854 E0.01436
G1 X43.8 Y61.215 E0.02147
G1 X43.796 Y61.602 E0.0221
G1 X43.991 Y62.511 E0.05322
G1 X44.155 Y62.862 E0.02217
G1 X44.412 Y63.17 E0.02299
G1 X44.741 Y63.401 E0.02299
G1 X45.135 Y63.546 E0.02406
G1 X46.115 Y63.591 E0.05617
G1 X46.724 Y63.697 E0.03535
G1 X47.097 Y63.808 E0.02227
G1 X48.001 Y64.183 E0.05608
G1 X48.406 Y64.223 E0.0233
G1 X48.816 Y64.158 E0.02372
G1 X49.291 Y63.916 E0.03053
G1 X50.724 Y62.486 E0.11587
G1 X50.944 Y62.202 E0.02056
G1 X51.132 Y61.686 E0.03143
G1 X51.119 Y61.113 E0.03285
G1 X50.626 Y61.217 F7800
;TYPE:External perimeter
G1 F1800
G1 X50.48 Y60.867 E0.02167
