; HEADER_BLOCK_START
; generated by OrcaSlicer 1.7.0 on 2023-12-02 at 18:42:54
; total layer number: 76
; HEADER_BLOCK_END

; THUMBNAIL_BLOCK_START
; THUMBNAIL_BLOCK_END

; external perimeters extrusion width = 0.40mm
; perimeters extrusion width = 0.40mm
; infill extrusion width = 0.45mm
; solid infill extrusion width = 0.40mm
; top infill extrusion width = 0.40mm
; support material extrusion width = 0.40mm
; first layer extrusion width = 0.50mm

; external perimeters extrusion width = 0.40mm
; perimeters extrusion width = 0.40mm
; infill extrusion width = 0.45mm
; solid infill extrusion width = 0.40mm
; top infill extrusion width = 0.40mm
; support material extrusion width = 0.40mm
; first layer extrusion width = 0.50mm

; external perimeters extrusion width = 0.40mm
; perimeters extrusion width = 0.40mm
; infill extrusion width = 0.45mm
; solid infill extrusion width = 0.40mm
; top infill extrusion width = 0.40mm
; support material extrusion width = 0.40mm
; first layer extrusion width = 0.50mm

; EXECUTABLE_BLOCK_START
EXCLUDE_OBJECT_DEFINE NAME=ethernet-rj45-repair.stl_id_0_copy_0 CENTER=88.0078,70.5048 POLYGON=[[76.693,72.4887],[76.7164,72.3966],[76.7621,72.3132],[76.8271,72.2439],[87.1403,62.26],[87.1632,62.2417],[87.1714,62.2361],[87.1881,62.2284],[87.2076,62.2211],[87.2464,62.216],[95.9464,62.216],[95.9852,62.2211],[96.0047,62.2284],[96.0214,62.2361],[96.0295,62.2417],[96.0524,62.26],[96.0707,62.2829],[96.0763,62.291],[96.084,62.3077],[96.0913,62.3272],[99.2094,74.004],[99.2203,74.0474],[99.27,74.2457],[99.2772,74.2927],[99.3077,74.492],[99.3178,74.6505],[99.3226,74.7408],[99.3194,74.8616],[99.3144,74.9897],[99.3045,75.072],[99.283,75.2367],[99.2704,75.2945],[99.2282,75.4793],[99.2095,75.5383],[99.15,75.7155],[99.1246,75.7747],[99.0785,75.8793],[99.0498,75.9426],[98.9829,76.0657],[98.9303,76.1589],[98.8743,76.2443],[98.7936,76.3642],[98.7494,76.4212],[98.642,76.5583],[98.5919,76.6141],[98.4775,76.7409],[98.3887,76.828],[98.3023,76.9117],[98.1184,77.071],[97.927,77.2198],[97.7291,77.3588],[97.5857,77.4497],[97.4404,77.5378],[97.3175,77.6099],[97.2209,77.6611],[96.9982,77.7759],[96.891,77.8297],[96.7711,77.8836],[96.6948,77.9176],[96.4525,78.0214],[96.3087,78.0759],[96.0041,78.1871],[95.8362,78.2405],[95.5478,78.3288],[95.3555,78.3798],[95.0855,78.4487],[94.8694,78.496],[94.8355,78.5033],[94.6193,78.5489],[94.3801,78.5915],[94.1508,78.6311],[93.8885,78.6678],[93.6804,78.6959],[93.3949,78.7255],[93.2084,78.744],[93.0311,78.7563],[92.8996,78.7651],[92.7349,78.776],[92.4032,78.7875],[92.2605,78.7924],[91.7849,78.7935],[91.483,78.7845],[91.3089,78.7788],[91.0952,78.7654],[90.8336,78.7477],[90.7082,78.7352],[90.36,78.6998],[89.889,78.6341],[89.5692,78.5767],[89.4215,78.5491],[89.2019,78.5002],[88.9578,78.4431],[88.8373,78.41],[88.4987,78.3137],[88.1178,78.1842],[88.0458,78.1595],[87.7651,78.0481],[87.6014,77.9804],[78.8854,74.3232],[78.6669,74.2224],[78.4382,74.1043],[78.2421,73.9973],[78.0296,73.868],[77.8344,73.7424],[77.6379,73.6028],[77.4466,73.4546],[77.262,73.2973],[77.0851,73.1298],[76.9836,73.0215],[76.9183,72.9507],[76.7639,72.7587],[76.7175,72.6757],[76.6934,72.5838],[76.693,72.4887]]
EXCLUDE_OBJECT_DEFINE NAME=ethernet-rj45-repair.stl_id_1_copy_0 CENTER=53.6908,66.9836 POLYGON=[[42.376,68.9675],[42.3994,68.8754],[42.4451,68.792],[42.5102,68.7227],[52.8233,58.7388],[52.8463,58.7205],[52.8544,58.7149],[52.8711,58.7072],[52.8906,58.6999],[52.9294,58.6948],[61.6294,58.6948],[61.6682,58.6999],[61.6877,58.7072],[61.7044,58.7149],[61.7125,58.7205],[61.7355,58.7388],[61.7537,58.7617],[61.7593,58.7698],[61.767,58.7865],[61.7743,58.806],[64.8924,70.4828],[64.9033,70.5262],[64.953,70.7245],[64.9602,70.7715],[64.9908,70.9708],[65.0008,71.1293],[65.0056,71.2196],[65.0024,71.3404],[64.9974,71.4685],[64.9875,71.5508],[64.966,71.7155],[64.9535,71.7733],[64.9112,71.9581],[64.8925,72.0172],[64.833,72.1943],[64.8076,72.2535],[64.7615,72.3581],[64.7328,72.4214],[64.666,72.5445],[64.6133,72.6377],[64.5574,72.7231],[64.4767,72.843],[64.4324,72.9],[64.325,73.0371],[64.275,73.0929],[64.1606,73.2197],[64.0718,73.3068],[63.9854,73.3905],[63.8015,73.5498],[63.6101,73.6986],[63.4121,73.8376],[63.2688,73.9285],[63.1234,74.0166],[63.0006,74.0887],[62.9039,74.1399],[62.6812,74.2547],[62.574,74.3085],[62.4541,74.3624],[62.3778,74.3964],[62.1355,74.5002],[61.9917,74.5547],[61.6871,74.6659],[61.5192,74.7193],[61.2308,74.8076],[61.0386,74.8586],[60.7686,74.9275],[60.5525,74.9748],[60.5185,74.9821],[60.3023,75.0277],[60.0631,75.0703],[59.8338,75.1099],[59.5715,75.1466],[59.3635,75.1747],[59.0779,75.2043],[58.8914,75.2228],[58.7141,75.2351],[58.5827,75.2439],[58.418,75.2548],[58.0862,75.2663],[57.9435,75.2712],[57.4679,75.2723],[57.166,75.2633],[56.992,75.2576],[56.7782,75.2442],[56.5167,75.2265],[56.3913,75.214],[56.043,75.1786],[55.5721,75.1129],[55.2522,75.0555],[55.1045,75.0279],[54.8849,74.979],[54.6409,74.9219],[54.5204,74.8888],[54.1817,74.7925],[53.8008,74.663],[53.7288,74.6383],[53.4481,74.5269],[53.2844,74.4592],[44.5685,70.802],[44.3499,70.7013],[44.1213,70.5831],[43.9252,70.4761],[43.7127,70.3468],[43.5174,70.2212],[43.3209,70.0816],[43.1297,69.9334],[42.9451,69.7761],[42.7681,69.6086],[42.6666,69.5003],[42.6013,69.4295],[42.4469,69.2375],[42.4006,69.1545],[42.3764,69.0626],[42.376,68.9675]]
EXCLUDE_OBJECT_DEFINE NAME=Body2.stl_id_2_copy_0 CENTER=71.9407,36.1591 POLYGON=[[41.9407,36.1591],[41.9763,35.661],[42.0825,35.1731],[42.257,34.7052],[42.4963,34.2669],[42.7956,33.8671],[43.1487,33.514],[43.5485,33.2147],[43.9868,32.9754],[44.4546,32.8009],[44.9426,32.6948],[45.4407,32.6591],[98.4407,32.6591],[98.9388,32.6948],[99.4268,32.8009],[99.8947,32.9754],[100.333,33.2147],[100.733,33.514],[101.086,33.8671],[101.385,34.2669],[101.624,34.7052],[101.799,35.1731],[101.905,35.661],[101.941,36.1591],[101.941,39.6591],[41.9407,39.6591],[41.9407,36.1591]]
M73 P0 R29
M106 S0
M106 P2 S0
;TYPE:Custom
SKEW_PROFILE LOAD=my_skew_profile
M190 S105
M109 S150
PRINT_START EXTRUDER=230 BED=105
; You can use following code instead if your PRINT_START macro support Chamber and print area bedmesh
; PRINT_START EXTRUDER=230 BED=105 Chamber=0 PRINT_MIN=37.4358,28.096 PRINT_MAX=106.446,83.6408
G90
G21
M83 ; use relative distances for extrusion
; Filament gcode
;LAYER_CHANGE
;Z:0.2
;HEIGHT:0.2
;BEFORE_LAYER_CHANGE
;0.2
G92 E0

;AFTER_LAYER_CHANGE
;0.2
;_SET_FAN_SPEED_CHANGING_LAYER
SET_VELOCITY_LIMIT ACCEL=500 ACCEL_TO_DECEL=250
SET_VELOCITY_LIMIT SQUARE_CORNER_VELOCITY=5
; printing object Body2.stl id:2 copy 0
G1 E-.5 F1800
EXCLUDE_OBJECT_START NAME=Body2.stl_id_2_copy_0
G1 X39.379 Y31.276 F15000
G1 Z.2
G1 E.5 F1800
;TYPE:Brim
;WIDTH:0.5
G1 X39.795 Y30.796 E.02238
G1 X40.136 Y30.455 E.01696
G1 X40.616 Y30.039 E.02238
G1 X41.002 Y29.75 E.01696
G1 X41.537 Y29.406 E.02238
G1 X41.96 Y29.175 E.01696
G1 X42.538 Y28.911 E.02238
G1 X42.99 Y28.743 E.01696
G1 X43.6 Y28.564 E.02238
G1 X44.071 Y28.461 E.01696
G1 X44.699 Y28.371 E.02232
G1 X45.506 Y28.325 E.02845
G1 X98.396 Y28.326 E1.86142
G1 X99.183 Y28.371 E.02774
G1 X99.81 Y28.461 E.02232
G1 X100.281 Y28.564 E.01696
G1 X100.892 Y28.743 E.02238
G1 X101.343 Y28.911 E.01696
G1 X101.921 Y29.175 E.02238
G1 X102.344 Y29.406 E.01696
G1 X102.879 Y29.75 E.02238
G1 X103.265 Y30.039 E.01696
G1 X103.746 Y30.455 E.02238
G1 X104.087 Y30.796 E.01696
G1 X104.503 Y31.276 E.02238
G1 X104.792 Y31.662 E.01696
G1 X105.135 Y32.197 E.02238
G1 X105.366 Y32.62 E.01696
G1 X105.631 Y33.199 E.02238
G1 X105.799 Y33.65 E.01696
G1 X105.978 Y34.26 E.02238
G1 X106.081 Y34.731 E.01696
G1 X106.171 Y35.359 E.02232
G1 X106.217 Y36.166 E.02844
G1 X106.217 Y39.643 E.12238
G1 X106.169 Y40.291 E.02288
G1 X106.028 Y40.917 E.02259
G1 X105.796 Y41.516 E.02259
G1 X105.478 Y42.073 E.02259
G1 X105.082 Y42.578 E.02259
G1 X104.615 Y43.019 E.02259
G1 X104.089 Y43.386 E.02259
G1 X103.514 Y43.672 E.02258
G1 X102.904 Y43.869 E.02259
G1 X102.268 Y43.976 E.0227
G1 X101.87 Y43.994 E.01402
G1 X42.015 Y43.994 E2.10651
G1 X41.367 Y43.946 E.02288
G1 X40.741 Y43.804 E.02259
G1 X40.142 Y43.572 E.02259
G1 X39.585 Y43.255 E.02259
G1 X39.08 Y42.858 E.02259
G1 X38.639 Y42.392 E.02259
G1 X38.272 Y41.866 E.02259
G1 X37.986 Y41.291 E.02258
G1 X37.789 Y40.68 E.02259
G1 X37.683 Y40.044 E.0227
G1 X37.664 Y39.646 E.01402
G1 X37.664 Y36.166 E.12249
G1 X37.711 Y35.359 E.02844
G1 X37.801 Y34.731 E.02232
G1 X37.903 Y34.26 E.01696
G1 X38.082 Y33.65 E.02238
G1 X38.251 Y33.199 E.01696
G1 X38.515 Y32.62 E.02238
G1 X38.746 Y32.197 E.01696
G1 X39.09 Y31.662 E.02238
G1 X39.355 Y31.308 E.01555
G1 X39.721 Y31.583 F15000
G1 F1800
G1 X39.738 Y31.56 E.00102
G1 X40.126 Y31.111 E.02088
G1 X40.451 Y30.787 E.01616
G1 X40.899 Y30.398 E.02088
G1 X41.259 Y30.129 E.01581
G1 X41.775 Y29.797 E.02157
G1 X42.169 Y29.582 E.01581
G1 X42.709 Y29.336 E.02088
G1 X43.139 Y29.175 E.01616
G1 X43.708 Y29.008 E.02088
G1 X44.147 Y28.912 E.01581
G1 X44.75 Y28.826 E.02143
G1 X45.523 Y28.782 E.02723
G1 X98.379 Y28.783 E1.86023
G1 X99.131 Y28.826 E.02652
G1 X99.724 Y28.91 E.02109
G1 X100.173 Y29.008 E.01616
G1 X100.742 Y29.175 E.02089
G1 X101.173 Y29.336 E.01616
G1 X101.721 Y29.587 E.02123
G1 X102.115 Y29.802 E.01581
G1 X102.622 Y30.129 E.02123
G1 X102.982 Y30.398 E.01581
G1 X103.438 Y30.793 E.02123
G1 X103.755 Y31.111 E.01581
G1 X104.144 Y31.56 E.02088
G1 X104.413 Y31.919 E.01581
G1 X104.739 Y32.426 E.02123
G1 X104.955 Y32.821 E.01581
G1 X105.206 Y33.369 E.02123
G1 X105.366 Y33.799 E.01616
G1 X105.534 Y34.369 E.02088
G1 X105.631 Y34.817 E.01616
G1 X105.716 Y35.41 E.02109
G1 X105.76 Y36.175 E.02695
G1 X105.76 Y39.621 E.12128
G1 X105.716 Y40.214 E.02092
G1 X105.592 Y40.774 E.0202
G1 X105.377 Y41.328 E.02091
G1 X105.091 Y41.826 E.0202
G1 X104.736 Y42.276 E.0202
G1 X104.318 Y42.669 E.0202
G1 X103.864 Y42.986 E.01949
G1 X103.35 Y43.243 E.0202
G1 X102.805 Y43.421 E.0202
G1 X102.228 Y43.519 E.02061
G1 X101.856 Y43.537 E.01309
G1 X42.027 Y43.536 E2.10562
G1 X41.444 Y43.493 E.02056
G1 X40.884 Y43.368 E.0202
G1 X40.349 Y43.162 E.0202
G1 X39.832 Y42.868 E.02091
G1 X39.397 Y42.526 E.01949
G1 X39.002 Y42.11 E.0202
G1 X38.672 Y41.64 E.0202
G1 X38.408 Y41.108 E.02091
G1 X38.232 Y40.562 E.0202
G1 X38.139 Y40.004 E.0199
G1 X38.121 Y39.633 E.01309
G1 X38.121 Y36.183 E.12142
G1 X38.165 Y35.41 E.02722
G1 X38.252 Y34.808 E.02144
G1 X38.348 Y34.369 E.01581
G1 X38.515 Y33.799 E.02088
G1 X38.675 Y33.369 E.01616
G1 X38.926 Y32.821 E.02123
G1 X39.142 Y32.426 E.01581
G1 X39.468 Y31.919 E.02123
G1 X39.697 Y31.615 E.01339
G1 X40.062 Y31.889 F15000
G1 F1800
G1 X40.097 Y31.843 E.00203
G1 X40.458 Y31.427 E.0194
G1 X40.759 Y31.125 E.01501
G1 X41.183 Y30.757 E.01974
G1 X41.516 Y30.507 E.01466
G1 X42.012 Y30.188 E.02076
G1 X42.378 Y29.989 E.01466
G1 X42.879 Y29.76 E.0194
G1 X43.288 Y29.608 E.01535
G1 X43.817 Y29.453 E.0194
G1 X44.224 Y29.363 E.01466
G1 X44.802 Y29.281 E.02054
G1 X45.539 Y29.239 E.02601
G1 X98.362 Y29.24 E1.85904
G1 X99.08 Y29.281 E.0253
G1 X99.639 Y29.36 E.01985
G1 X100.065 Y29.453 E.01535
G1 X100.593 Y29.608 E.01939
G1 X101.002 Y29.76 E.01535
G1 X101.52 Y29.998 E.02007
G1 X101.886 Y30.198 E.01466
G1 X102.365 Y30.507 E.02008
G1 X102.698 Y30.757 E.01466
G1 X103.129 Y31.131 E.02008
G1 X103.423 Y31.426 E.01466
G1 X103.784 Y31.843 E.01941
G1 X104.035 Y32.176 E.01466
G1 X104.344 Y32.656 E.02008
G1 X104.544 Y33.021 E.01466
G1 X104.781 Y33.54 E.02007
G1 X104.931 Y33.939 E.015
G1 X105.089 Y34.477 E.01974
G1 X105.182 Y34.903 E.01535
G1 X105.261 Y35.462 E.01986
G1 X105.302 Y36.184 E.02546
M73 P0 R28
G1 X105.303 Y39.599 E.12019
G1 X105.261 Y40.157 E.01968
G1 X105.149 Y40.65 E.01781
G1 X104.967 Y41.121 E.01775
G1 X104.705 Y41.577 E.01851
G1 X104.391 Y41.973 E.01781
G1 X104.021 Y42.319 E.01782
G1 X103.62 Y42.597 E.01714
G1 X103.167 Y42.822 E.01784
G1 X102.685 Y42.978 E.01781
G1 X102.186 Y43.062 E.0178
G1 X101.842 Y43.08 E.01214
G1 X42.049 Y43.079 E2.10435
G1 X41.521 Y43.04 E.01862
G1 X41.007 Y42.926 E.01854
G1 X40.536 Y42.743 E.01779
G1 X40.08 Y42.481 E.01849
G1 X39.698 Y42.18 E.01711
G1 X39.363 Y41.827 E.01713
G1 X39.072 Y41.414 E.01778
G1 X38.837 Y40.945 E.01848
G1 X38.676 Y40.444 E.01852
G1 X38.596 Y39.963 E.01715
G1 X38.578 Y39.618 E.01215
G1 X38.578 Y36.2 E.12032
G1 X38.62 Y35.462 E.02601
G1 X38.701 Y34.894 E.0202
G1 X38.792 Y34.477 E.01501
G1 X38.948 Y33.948 E.0194
G1 X39.096 Y33.549 E.015
G1 X39.333 Y33.03 E.02007
G1 X39.538 Y32.656 E.01501
G1 X39.841 Y32.184 E.01973
G1 X40.038 Y31.921 E.01158
G1 X40.404 Y32.196 F15000
G1 F1800
G1 X40.456 Y32.127 E.00304
G1 X40.79 Y31.742 E.01792
G1 X41.068 Y31.463 E.01386
G1 X41.467 Y31.116 E.0186
G1 X41.773 Y30.886 E.0135
G1 X42.25 Y30.579 E.01993
G1 X42.587 Y30.396 E.0135
G1 X43.05 Y30.185 E.01792
G1 X43.437 Y30.04 E.01455
G1 X43.926 Y29.897 E.01792
G1 X44.31 Y29.813 E.01385
G1 X44.853 Y29.735 E.01929
G1 X45.556 Y29.696 E.0248
G1 X98.346 Y29.697 E1.85786
M73 P1 R28
G1 X99.029 Y29.736 E.0241
G1 X99.553 Y29.809 E.01861
G1 X99.956 Y29.897 E.01453
G1 X100.444 Y30.04 E.0179
G1 X100.831 Y30.185 E.01454
G1 X101.319 Y30.409 E.01891
G1 X101.656 Y30.594 E.01351
G1 X102.108 Y30.885 E.01893
G1 X102.415 Y31.116 E.01351
G1 X102.82 Y31.469 E.01893
G1 X103.091 Y31.741 E.01352
G1 X103.425 Y32.127 E.01795
G1 X103.656 Y32.434 E.01352
G1 X103.948 Y32.886 E.01893
G1 X104.133 Y33.222 E.01351
G1 X104.357 Y33.711 E.01892
G1 X104.495 Y34.079 E.01385
G1 X104.645 Y34.586 E.01858
G1 X104.732 Y34.989 E.01453
G1 X104.806 Y35.513 E.01862
G1 X104.845 Y36.193 E.02399
G1 X104.846 Y39.577 E.11908
G1 X104.805 Y40.099 E.01842
G1 X104.713 Y40.507 E.01473
G1 X104.557 Y40.914 E.01534
G1 X104.32 Y41.328 E.0168
G1 X104.046 Y41.669 E.01539
G1 X103.725 Y41.968 E.01545
G1 X103.378 Y42.206 E.01479
G1 X102.984 Y42.401 E.01548
G1 X102.566 Y42.534 E.01544
G1 X102.144 Y42.606 E.01505
G1 X101.827 Y42.622 E.01119
G1 X42.071 Y42.622 E2.10305
G1 X41.598 Y42.588 E.01668
G1 X41.15 Y42.489 E.01613
G1 X40.724 Y42.324 E.01609
G1 X40.329 Y42.095 E.01608
G1 X40.001 Y41.834 E.01476
G1 X39.724 Y41.544 E.01412
G1 X39.471 Y41.187 E.01538
G1 X39.258 Y40.762 E.01675
G1 X39.12 Y40.326 E.01609
G1 X39.052 Y39.922 E.01442
G1 X39.036 Y39.604 E.01122
G1 X39.036 Y36.216 E.1192
G1 X39.075 Y35.513 E.0248
G1 X39.151 Y34.98 E.01895
G1 X39.237 Y34.586 E.01419
G1 X39.38 Y34.097 E.01792
G1 X39.517 Y33.728 E.01385
G1 X39.74 Y33.239 E.01891
G1 X39.934 Y32.886 E.0142
G1 X40.214 Y32.45 E.01824
G1 X40.38 Y32.228 E.00976
G1 X40.746 Y32.502 F15000
G1 F1800
G1 X40.815 Y32.41 E.00404
G1 X41.122 Y32.057 E.01645
G1 X41.376 Y31.801 E.01272
G1 X41.751 Y31.475 E.01746
G1 X42.03 Y31.264 E.01233
G1 X42.487 Y30.971 E.0191
G1 X42.795 Y30.804 E.01234
G1 X43.221 Y30.609 E.01645
G1 X43.586 Y30.473 E.01374
G1 X44.035 Y30.341 E.01644
G1 X44.397 Y30.262 E.01304
G1 X44.904 Y30.19 E.01803
G1 X45.573 Y30.153 E.02359
G1 X98.329 Y30.154 E1.85668
G1 X98.979 Y30.191 E.0229
G1 X99.467 Y30.259 E.01736
G1 X99.848 Y30.342 E.01371
G1 X100.295 Y30.473 E.0164
G1 X100.66 Y30.609 E.01372
G1 X101.118 Y30.82 E.01773
G1 X101.426 Y30.989 E.01236
G1 X101.842 Y31.258 E.01744
G1 X102.13 Y31.475 E.01271
G1 X102.512 Y31.807 E.01778
G1 X102.759 Y32.056 E.01238
G1 X103.072 Y32.418 E.01684
G1 X103.284 Y32.7 E.01239
G1 X103.558 Y33.124 E.01778
G1 X103.726 Y33.432 E.01236
G1 X103.936 Y33.891 E.01776
G1 X104.063 Y34.229 E.0127
G1 X104.202 Y34.704 E.01742
G1 X104.283 Y35.075 E.01335
G1 X104.351 Y35.564 E.01738
G1 X104.388 Y36.21 E.0228
G1 X104.389 Y39.554 E.11768
G1 X104.353 Y40.02 E.01646
G1 X104.277 Y40.364 E.0124
G1 X104.147 Y40.707 E.01291
G1 X103.934 Y41.078 E.01505
G1 X103.703 Y41.364 E.01293
G1 X103.43 Y41.616 E.01308
G1 X103.138 Y41.815 E.01244
G1 X102.803 Y41.979 E.01312
G1 X102.448 Y42.091 E.01309
G1 X102.102 Y42.149 E.01236
G1 X101.811 Y42.165 E.01024
G1 X42.092 Y42.165 E2.10174
G1 X41.674 Y42.135 E.01476
G1 X41.293 Y42.053 E.0137
G1 X40.932 Y41.914 E.0136
G1 X40.579 Y41.71 E.01437
G1 X40.318 Y41.503 E.01175
G1 X40.085 Y41.259 E.01184
G1 X39.87 Y40.96 E.01297
G1 X39.688 Y40.599 E.01424
G1 X39.564 Y40.209 E.0144
G1 X39.509 Y39.88 E.01174
G1 X39.493 Y39.588 E.01029
G1 X39.493 Y36.233 E.11807
G1 X39.53 Y35.564 E.0236
G1 X39.6 Y35.066 E.0177
G1 X39.681 Y34.694 E.01338
G1 X39.813 Y34.246 E.01645
