; HEADER_BLOCK_START
; generated by OrcaSlicer 1.7.0 on 2023-12-03 at 11:59:25
; total layer number: 7
; HEADER_BLOCK_END

; THUMBNAIL_BLOCK_START
; THUMBNAIL_BLOCK_END

; external perimeters extrusion width = 0.40mm
; perimeters extrusion width = 0.40mm
; infill extrusion width = 0.45mm
; solid infill extrusion width = 0.48mm
; top infill extrusion width = 0.48mm
; first layer extrusion width = 0.50mm

; external perimeters extrusion width = 0.40mm
; perimeters extrusion width = 0.40mm
; infill extrusion width = 0.45mm
; solid infill extrusion width = 0.48mm
; top infill extrusion width = 0.48mm
; first layer extrusion width = 0.50mm

; external perimeters extrusion width = 0.40mm
; perimeters extrusion width = 0.40mm
; infill extrusion width = 0.45mm
; solid infill extrusion width = 0.48mm
; top infill extrusion width = 0.48mm
; first layer extrusion width = 0.50mm

; external perimeters extrusion width = 0.40mm
; perimeters extrusion width = 0.40mm
; infill extrusion width = 0.45mm
; solid infill extrusion width = 0.48mm
; top infill extrusion width = 0.48mm
; first layer extrusion width = 0.50mm

; external perimeters extrusion width = 0.40mm
; perimeters extrusion width = 0.40mm
; infill extrusion width = 0.45mm
; solid infill extrusion width = 0.48mm
; top infill extrusion width = 0.48mm
; first layer extrusion width = 0.50mm

; external perimeters extrusion width = 0.40mm
; perimeters extrusion width = 0.40mm
; infill extrusion width = 0.45mm
; solid infill extrusion width = 0.48mm
; top infill extrusion width = 0.48mm
; first layer extrusion width = 0.50mm

; external perimeters extrusion width = 0.40mm
; perimeters extrusion width = 0.40mm
; infill extrusion width = 0.45mm
; solid infill extrusion width = 0.48mm
; top infill extrusion width = 0.48mm
; first layer extrusion width = 0.50mm

; external perimeters extrusion width = 0.40mm
; perimeters extrusion width = 0.40mm
; infill extrusion width = 0.45mm
; solid infill extrusion width = 0.48mm
; top infill extrusion width = 0.48mm
; first layer extrusion width = 0.50mm

; external perimeters extrusion width = 0.40mm
; perimeters extrusion width = 0.40mm
; infill extrusion width = 0.45mm
; solid infill extrusion width = 0.48mm
; top infill extrusion width = 0.48mm
; first layer extrusion width = 0.50mm

; EXECUTABLE_BLOCK_START
EXCLUDE_OBJECT_DEFINE NAME=flowrate_0_id_0_copy_0 CENTER=103.508,74.7652 POLYGON=[[83.5078,59.7652],[123.508,59.7652],[123.508,79.7652],[113.508,89.7652],[93.5078,89.7652],[83.5078,79.7652],[83.5078,59.7652]]
EXCLUDE_OBJECT_DEFINE NAME=flowrate_10_id_1_copy_0 CENTER=145.508,106.765 POLYGON=[[125.508,91.7652],[165.508,91.7652],[165.508,111.765],[155.508,121.765],[135.508,121.765],[125.508,111.765],[125.508,91.7652]]
EXCLUDE_OBJECT_DEFINE NAME=flowrate_15_id_2_copy_0 CENTER=103.508,106.765 POLYGON=[[83.5078,91.7652],[123.508,91.7652],[123.508,111.765],[113.508,121.765],[93.5078,121.765],[83.5078,111.765],[83.5078,91.7652]]
EXCLUDE_OBJECT_DEFINE NAME=flowrate_20_id_3_copy_0 CENTER=61.5078,106.765 POLYGON=[[41.5078,91.7652],[81.5078,91.7652],[81.5078,111.765],[71.5078,121.765],[51.5078,121.765],[41.5078,111.765],[41.5078,91.7652]]
EXCLUDE_OBJECT_DEFINE NAME=flowrate_5_id_4_copy_0 CENTER=61.5078,74.7652 POLYGON=[[41.5078,59.7652],[81.5078,59.7652],[81.5078,79.7652],[71.5078,89.7652],[51.5078,89.7652],[41.5078,79.7652],[41.5078,59.7652]]
EXCLUDE_OBJECT_DEFINE NAME=flowrate_m10_id_5_copy_0 CENTER=145.508,42.7652 POLYGON=[[125.508,27.7652],[165.508,27.7652],[165.508,47.7652],[155.508,57.7652],[135.508,57.7652],[125.508,47.7652],[125.508,27.7652]]
EXCLUDE_OBJECT_DEFINE NAME=flowrate_m15_id_6_copy_0 CENTER=103.508,42.7652 POLYGON=[[83.5078,27.7652],[123.508,27.7652],[123.508,47.7652],[113.508,57.7652],[93.5078,57.7652],[83.5078,47.7652],[83.5078,27.7652]]
EXCLUDE_OBJECT_DEFINE NAME=flowrate_m20_id_7_copy_0 CENTER=61.5078,42.7652 POLYGON=[[41.5078,27.7652],[81.5078,27.7652],[81.5078,47.7652],[71.5078,57.7652],[51.5078,57.7652],[41.5078,47.7652],[41.5078,27.7652]]
EXCLUDE_OBJECT_DEFINE NAME=flowrate_m5_id_8_copy_0 CENTER=145.508,74.7652 POLYGON=[[125.508,59.7652],[165.508,59.7652],[165.508,79.7652],[155.508,89.7652],[135.508,89.7652],[125.508,79.7652],[125.508,59.7652]]
M73 P0 R47
M106 S0
M106 P2 S0
;TYPE:Custom
SKEW_PROFILE LOAD=my_skew_profile
M190 S105
M109 S150
PRINT_START EXTRUDER=230 BED=105
; You can use following code instead if your PRINT_START macro support Chamber and print area bedmesh
; PRINT_START EXTRUDER=230 BED=105 Chamber=0 PRINT_MIN=36.9809,23.2273 PRINT_MAX=170.035,126.303
G90
G21
M83 ; use relative distances for extrusion
; Filament gcode
;LAYER_CHANGE
;Z:0.2
;HEIGHT:0.2
;BEFORE_LAYER_CHANGE
;0.2
G92 E0

;AFTER_LAYER_CHANGE
;0.2
;_SET_FAN_SPEED_CHANGING_LAYER
SET_VELOCITY_LIMIT ACCEL=500 ACCEL_TO_DECEL=250
SET_VELOCITY_LIMIT SQUARE_CORNER_VELOCITY=5
; printing object flowrate_m20 id:7 copy 0
G1 E-.5 F1800
EXCLUDE_OBJECT_START NAME=flowrate_m20_id_7_copy_0
G1 X37.948 Y25.376 F15000
G1 Z.2
G1 E.5 F1800
;TYPE:Brim
;WIDTH:0.5
G1 X38.345 Y24.871 E.02259
G1 X38.811 Y24.431 E.02259
G1 X39.338 Y24.064 E.02259
G1 X39.912 Y23.778 E.02258
G1 X40.523 Y23.58 E.02259
G1 X41.159 Y23.474 E.0227
G1 X41.557 Y23.456 E.01402
G1 X81.455 Y23.456 E1.40418
G1 X82.104 Y23.504 E.02288
G1 X82.73 Y23.645 E.02259
G1 X83.328 Y23.877 E.02259
G1 X83.886 Y24.195 E.02259
G1 X84.391 Y24.591 E.02259
G1 X84.831 Y25.058 E.02259
G1 X85.198 Y25.584 E.02259
G1 X85.484 Y26.159 E.02258
G1 X85.682 Y26.769 E.02259
G1 X85.788 Y27.405 E.0227
G1 X85.795 Y27.57 E.00579
G1 X83.552 Y27.57 E.07897
G1 X83.411 Y27.618 E.00525
G1 X83.323 Y27.798 E.00704
G1 X83.323 Y47.754 E.70233
G1 X83.372 Y47.895 E.00525
G1 X83.552 Y47.983 E.00704
G1 X85.789 Y47.983 E.07872
G1 X85.758 Y48.394 E.01452
G1 X85.617 Y49.02 E.02259
G1 X85.385 Y49.619 E.02259
G1 X85.067 Y50.176 E.02259
G1 X84.671 Y50.681 E.02259
G1 X84.204 Y51.122 E.02259
G1 X83.678 Y51.489 E.02259
G1 X83.103 Y51.774 E.02258
G1 X82.493 Y51.972 E.02259
G1 X81.857 Y52.078 E.0227
G1 X81.459 Y52.096 E.01402
G1 X76.057 Y52.096 E.19012
G1 X75.916 Y52.145 E.00525
G1 X75.828 Y52.325 E.00704
G1 X75.828 Y57.724 E.19
G1 X75.78 Y58.372 E.02288
G1 X75.639 Y58.998 E.02259
G1 X75.417 Y59.57 E.02157
G1 X47.608 Y59.57 E.97872
G1 X47.51 Y59.372 E.00777
G1 X47.312 Y58.761 E.02259
G1 X47.206 Y58.125 E.0227
G1 X47.188 Y57.727 E.01402
G1 X47.188 Y52.325 E.19012
G1 X47.139 Y52.184 E.00525
G1 X46.959 Y52.096 E.00704
G1 X41.56 Y52.096 E.19
G1 X40.912 Y52.048 E.02288
G1 X40.286 Y51.907 E.02259
G1 X39.687 Y51.675 E.02259
G1 X39.13 Y51.358 E.02259
G1 X38.625 Y50.961 E.02259
G1 X38.184 Y50.495 E.02259
G1 X37.817 Y49.968 E.02259
G1 X37.532 Y49.394 E.02258
G1 X37.334 Y48.783 E.02259
G1 X37.228 Y48.147 E.0227
G1 X37.209 Y47.749 E.01402
G1 X37.209 Y27.807 E.70185
M73 P0 R46
G1 X37.258 Y27.158 E.02288
G1 X37.399 Y26.532 E.02259
G1 X37.631 Y25.934 E.02259
G1 X37.929 Y25.411 E.02118
G1 X38.326 Y25.639 F15000
G1 F1800
G1 X38.335 Y25.624 E.00061
G1 X38.677 Y25.188 E.01949
G1 X39.093 Y24.793 E.0202
G1 X39.563 Y24.464 E.0202
G1 X40.076 Y24.207 E.0202
G1 X40.622 Y24.029 E.0202
G1 X41.199 Y23.931 E.02061
G1 X41.57 Y23.913 E.01309
G1 X81.444 Y23.913 E1.40329
G1 X82.046 Y23.959 E.02127
G1 X82.606 Y24.087 E.0202
G1 X83.14 Y24.296 E.0202
G1 X83.638 Y24.581 E.0202
G1 X84.074 Y24.923 E.01949
G1 X84.482 Y25.355 E.02091
G1 X84.809 Y25.827 E.0202
G1 X85.063 Y26.343 E.02027
G1 X85.245 Y26.935 E.02178
G1 X85.23 Y27.049 E.00403
G1 X85.114 Y27.113 E.00466
G1 X83.563 Y27.113 E.05457
G1 X83.275 Y27.182 E.01043
G1 X83.102 Y27.285 E.00708
G1 X82.994 Y27.43 E.00637
G1 X82.919 Y27.584 E.00604
G1 X82.866 Y27.814 E.0083
G1 X82.866 Y47.743 E.70138
G1 X82.935 Y48.031 E.01043
G1 X83.038 Y48.204 E.00708
G1 X83.183 Y48.312 E.00637
G1 X83.338 Y48.387 E.00604
G1 X83.567 Y48.44 E.0083
G1 X85.108 Y48.44 E.05421
G1 X85.212 Y48.488 E.00403
G1 X85.241 Y48.607 E.00434
G1 X85.175 Y48.896 E.01043
G1 X84.966 Y49.431 E.0202
G1 X84.681 Y49.928 E.0202
G1 X84.339 Y50.364 E.01949
G1 X83.907 Y50.772 E.02091
G1 X83.435 Y51.099 E.0202
G1 X82.921 Y51.353 E.0202
G1 X82.374 Y51.529 E.0202
G1 X81.8 Y51.623 E.02047
G1 X81.445 Y51.639 E.01251
G1 X76.068 Y51.639 E.18924
G1 X75.78 Y51.708 E.01043
G1 X75.607 Y51.811 E.00708
G1 X75.499 Y51.957 E.00637
G1 X75.424 Y52.111 E.00604
G1 X75.371 Y52.341 E.0083
G1 X75.371 Y57.702 E.18868
G1 X75.327 Y58.295 E.02092
G1 X75.197 Y58.874 E.02091
G1 X75.138 Y59.025 E.00569
G1 X75.01 Y59.113 E.00545
G1 X48.006 Y59.113 E.9504
G1 X47.875 Y59.018 E.00568
G1 X47.755 Y58.643 E.01386
G1 X47.661 Y58.069 E.02047
G1 X47.645 Y57.714 E.01251
G1 X47.645 Y52.336 E.18924
G1 X47.576 Y52.048 E.01043
G1 X47.473 Y51.876 E.00708
G1 X47.327 Y51.767 E.00637
G1 X47.173 Y51.692 E.00604
G1 X46.943 Y51.639 E.0083
G1 X41.582 Y51.639 E.18868
G1 X40.989 Y51.596 E.02092
G1 X40.429 Y51.471 E.0202
G1 X39.894 Y51.265 E.0202
G1 X39.377 Y50.971 E.02091
G1 X38.942 Y50.629 E.01949
G1 X38.547 Y50.213 E.0202
G1 X38.217 Y49.743 E.0202
G1 X37.96 Y49.23 E.0202
G1 X37.782 Y48.684 E.0202
G1 X37.684 Y48.107 E.02061
G1 X37.667 Y47.742 E.01287
G1 X37.667 Y27.818 E.70118
G1 X37.713 Y27.216 E.02127
G1 X37.841 Y26.656 E.0202
G1 X38.05 Y26.122 E.0202
G1 X38.307 Y25.674 E.01818
G1 E-.5
G1 X72.676 Y48.93 F15000
G1 E.5 F1800
G1 X72.766 Y48.897 E.00336
G1 X81.436 Y48.897 E.30513
G1 X81.771 Y48.834 E.01203
G1 X82.026 Y48.725 E.00974
G1 X82.24 Y48.577 E.00915
G1 X82.403 Y48.386 E.00888
G1 X82.507 Y48.337 E.00403
G1 X82.626 Y48.404 E.00478
G1 X82.776 Y48.578 E.00809
G1 X82.902 Y48.672 E.00553
G1 X83.24 Y48.833 E.01317
G1 X83.58 Y48.897 E.01218
G1 X84.483 Y48.897 E.03177
G1 X84.587 Y48.945 E.00403
G1 X84.611 Y49.084 E.00497
G1 X84.547 Y49.241 E.00597
G1 X84.306 Y49.664 E.01713
G1 X83.993 Y50.062 E.01782
G1 X83.609 Y50.422 E.01851
G1 X83.193 Y50.709 E.01778
G1 X82.758 Y50.924 E.0171
G1 X82.257 Y51.085 E.01853
G1 X81.761 Y51.167 E.01769
G1 X81.438 Y51.182 E.01137
G1 X76.082 Y51.182 E.18851
G1 X75.681 Y51.262 E.01437
G1 X75.537 Y51.321 E.00548
G1 X75.385 Y51.412 E.00624
G1 X75.233 Y51.549 E.00721
G1 X75.139 Y51.675 E.00553
G1 X75.018 Y51.902 E.00904
G1 X74.927 Y52.233 E.01209
G1 X74.914 Y52.348 E.00408
G1 X74.914 Y57.68 E.18764
G1 X74.875 Y58.217 E.01895
G1 X74.802 Y58.548 E.01195
G1 X74.732 Y58.639 E.00403
G1 X74.668 Y58.655 E.00233
G1 X72.481 Y58.655 E.07698
G1 X72.377 Y58.608 E.00403
G1 X72.365 Y58.444 E.00577
G1 X72.491 Y58.25 E.00813
G1 X72.548 Y58.108 E.0054
G1 X72.629 Y57.707 E.01437
G1 X72.629 Y49.034 E.30524
G1 X72.66 Y48.966 E.00262
G1 X73.133 Y49.387 F15000
G1 F1800
G1 X73.223 Y49.354 E.00336
G1 X81.424 Y49.354 E.28865
G1 X81.85 Y49.284 E.01518
G1 X82.195 Y49.15 E.01304
G1 X82.431 Y49.001 E.00982
G1 X82.586 Y49.007 E.00546
G1 X83.037 Y49.242 E.01789
G1 X83.164 Y49.284 E.00472
G1 X83.486 Y49.344 E.01154
G1 X83.692 Y49.354 E.00724
G1 X83.794 Y49.407 E.00403
G1 X83.82 Y49.518 E.00403
G1 X83.661 Y49.744 E.00973
G1 X83.329 Y50.058 E.01607
G1 X82.97 Y50.308 E.01541
G1 X82.576 Y50.502 E.01544
G1 X82.159 Y50.636 E.01544
G1 X81.72 Y50.71 E.01565
G1 X81.424 Y50.725 E.01045
G1 X76.094 Y50.725 E.18758
G1 X75.6 Y50.813 E.01764
G1 X75.37 Y50.896 E.0086
G1 X75.159 Y51.015 E.00854
G1 X74.933 Y51.205 E.01039
G1 X74.776 Y51.397 E.00874
G1 X74.62 Y51.676 E.01124
G1 X74.488 Y52.106 E.01583
G1 X74.461 Y52.291 E.00658
G1 X74.457 Y57.659 E.18889
G1 X74.427 Y58.071 E.01456
G1 X74.372 Y58.171 E.00403
G1 X74.29 Y58.198 E.00302
G1 X73.164 Y58.198 E.03965
G1 X73.06 Y58.151 E.00403
G1 X73.028 Y58.039 E.00409
G1 X73.086 Y57.696 E.01223
G1 X73.086 Y49.491 E.28876
G1 X73.117 Y49.424 E.00262
G1 X73.59 Y49.844 F15000
G1 F1800
G1 X73.68 Y49.811 E.00336
G1 X81.413 Y49.811 E.27215
G1 X82.026 Y49.706 E.02191
G1 X82.471 Y49.519 E.01698
G1 X82.588 Y49.523 E.00411
G1 X82.792 Y49.63 E.00811
G1 X82.862 Y49.721 E.00403
G1 X82.839 Y49.833 E.00403
G1 X82.792 Y49.873 E.00217
G1 X82.395 Y50.08 E.01579
G1 X82.04 Y50.193 E.01307
G1 X81.678 Y50.254 E.01293
G1 X76.002 Y50.277 E.19976
G1 X75.53 Y50.361 E.01687
G1 X75.223 Y50.464 E.01141
G1 X74.943 Y50.612 E.01114
G1 X74.646 Y50.849 E.01337
G1 X74.427 Y51.103 E.01181
G1 X74.227 Y51.444 E.0139
G1 X74.054 Y51.965 E.01935
G1 X74.01 Y52.216 E.00896
G1 X74 Y57.604 E.18964
G1 X73.952 Y57.708 E.00403
G1 X73.863 Y57.741 E.00335
G1 X73.68 Y57.741 E.00644
G1 X73.576 Y57.694 E.00403
G1 X73.543 Y57.604 E.00336
G1 X73.543 Y49.948 E.26944
G1 X73.574 Y49.881 E.00262
G1 X74.048 Y50.301 F15000
G1 F1800
G1 X74.137 Y50.268 E.00336
G1 X74.254 Y50.268 E.00411
G1 X74.358 Y50.316 E.00403
G1 X74.389 Y50.426 E.00403
G1 X74.349 Y50.504 E.0031
G1 X74.241 Y50.619 E.00555
G1 X74.137 Y50.667 E.00403
G1 X74.033 Y50.619 E.00403
G1 X74 Y50.529 E.00335
G1 X74 Y50.405 E.00437
G1 X74.031 Y50.338 E.00262
G1 E-.5
G1 X72.171 Y50.338 F15000
G1 E.5 F1800
G1 X72.171 Y57.721 E.25984
G1 X72.102 Y58.009 E.01043
G1 X71.999 Y58.182 E.00708
G1 X71.854 Y58.29 E.00637
G1 X71.7 Y58.365 E.00604
G1 X71.47 Y58.418 E.0083
G1 X51.541 Y58.418 E.70138
G1 X51.253 Y58.349 E.01043
G1 X51.08 Y58.246 E.00708
G1 X50.972 Y58.101 E.00637
G1 X50.897 Y57.946 E.00604
G1 X50.844 Y57.717 E.0083
G1 X50.844 Y48.577 E.32166
G1 X50.796 Y48.473 E.00403
G1 X50.707 Y48.44 E.00336
G1 X41.563 Y48.44 E.32181
G1 X41.275 Y48.371 E.01043
G1 X41.102 Y48.268 E.00708
G1 X40.994 Y48.123 E.00637
G1 X40.919 Y47.968 E.00604
G1 X40.866 Y47.739 E.0083
G1 X40.866 Y27.81 E.70138
G1 X40.935 Y27.521 E.01043
G1 X41.038 Y27.349 E.00708
G1 X41.183 Y27.241 E.00637
G1 X41.338 Y27.165 E.00604
G1 X41.567 Y27.113 E.0083
G1 X81.452 Y27.113 E1.40371
G1 X81.741 Y27.182 E.01043
G1 X81.913 Y27.285 E.00708
G1 X82.021 Y27.43 E.00637
G1 X82.097 Y27.584 E.00604
G1 X82.15 Y27.814 E.0083
G1 X82.15 Y47.743 E.70138
G1 X82.081 Y48.031 E.01043
G1 X81.978 Y48.204 E.00708
G1 X81.832 Y48.312 E.00637
G1 X81.678 Y48.387 E.00604
G1 X81.448 Y48.44 E.0083
G1 X72.309 Y48.44 E.32166
G1 X72.205 Y48.488 E.00403
G1 X72.171 Y48.577 E.00336
G1 X72.171 Y50.298 E.06056
G1 X71.714 Y50.298 F15000
G1 F1800
G1 X71.714 Y57.732 E.26165
G1 X71.666 Y57.873 E.00525
G1 X71.486 Y57.961 E.00704
G1 X51.53 Y57.961 E.70233
G1 X51.389 Y57.912 E.00525
G1 X51.301 Y57.732 E.00704
G1 X51.301 Y47.983 E.34312
G1 X41.552 Y47.983 E.34312
G1 X41.411 Y47.934 E.00525
G1 X41.323 Y47.754 E.00704
G1 X41.323 Y27.798 E.70233
G1 X41.372 Y27.657 E.00525
G1 X41.552 Y27.57 E.00704
G1 X81.464 Y27.57 E1.40466
G1 X81.605 Y27.618 E.00525
G1 X81.692 Y27.798 E.00704
G1 X81.692 Y47.754 E.70233
G1 X81.644 Y47.895 E.00525
G1 X81.464 Y47.983 E.00704
G1 X71.714 Y47.983 E.34312
G1 X71.714 Y50.258 E.08006
G1 E-.5
M73 P1 R46
G1 X50.387 Y50.258 F15000
G1 E.5 F1800
G1 X50.387 Y57.709 E.26224
G1 X50.4 Y57.824 E.00408
G1 X50.49 Y58.153 E.01201
G1 X50.661 Y58.45 E.01204
G1 X50.672 Y58.564 E.00403
G1 X50.542 Y58.655 E.00558
G1 X48.34 Y58.655 E.07753
G1 X48.236 Y58.608 E.00403
G1 X48.204 Y58.541 E.00258
G1 X48.117 Y58.03 E.01827
G1 X48.102 Y57.7 E.01161
G1 X48.102 Y52.35 E.18829
G1 X48.022 Y51.95 E.01437
G1 X47.963 Y51.805 E.00548
G1 X47.872 Y51.653 E.00624
G1 X47.735 Y51.501 E.00721
G1 X47.609 Y51.407 E.00553
G1 X47.382 Y51.286 E.00904
G1 X47.051 Y51.195 E.01209
G1 X46.936 Y51.182 E.00408
G1 X41.604 Y51.182 E.18764
G1 X41.046 Y51.14 E.01968
G1 X40.572 Y51.034 E.01712
G1 X40.1 Y50.854 E.01778
G1 X39.625 Y50.584 E.01922
G1 X39.244 Y50.283 E.01711
G1 X38.909 Y49.93 E.01713
G1 X38.606 Y49.499 E.01852
G1 X38.381 Y49.046 E.01781
G1 X38.23 Y48.584 E.0171
G1 X38.141 Y48.066 E.01852
G1 X38.124 Y47.727 E.01192
G1 X38.124 Y27.831 E.70024
G1 X38.169 Y27.275 E.01963
G1 X38.283 Y26.782 E.01781
G1 X38.468 Y26.311 E.01781
G1 X38.721 Y25.872 E.01782
G1 X39.023 Y25.49 E.01714
G1 X39.392 Y25.142 E.01784
G1 X39.807 Y24.853 E.01781
G1 X40.26 Y24.628 E.01781
G1 X40.722 Y24.477 E.0171
G1 X41.24 Y24.387 E.01851
G1 X41.585 Y24.37 E.01214
G1 X81.421 Y24.37 E1.40199
G1 X81.967 Y24.412 E.01929
G1 X82.461 Y24.523 E.01781
G1 X82.933 Y24.706 E.01781
G1 X83.39 Y24.968 E.01854
G1 X83.772 Y25.269 E.01712
G1 X84.132 Y25.653 E.01851
G1 X84.418 Y26.069 E.01778
G1 X84.61 Y26.458 E.01527
G1 X84.613 Y26.572 E.00403
G1 X84.487 Y26.655 E.00532
G1 X83.577 Y26.655 E.03204
G1 X83.176 Y26.736 E.01437
G1 X83.032 Y26.794 E.00548
G1 X82.88 Y26.885 E.00624
