; HEADER_BLOCK_START
; generated by OrcaSlicer 1.7.0 on 2023-12-03 at 14:25:19
; total layer number: 7
; HEADER_BLOCK_END

; THUMBNAIL_BLOCK_START
; THUMBNAIL_BLOCK_END

; external perimeters extrusion width = 0.40mm
; perimeters extrusion width = 0.40mm
; infill extrusion width = 0.45mm
; solid infill extrusion width = 0.48mm
; top infill extrusion width = 0.48mm
; first layer extrusion width = 0.50mm

; external perimeters extrusion width = 0.40mm
; perimeters extrusion width = 0.40mm
; infill extrusion width = 0.45mm
; solid infill extrusion width = 0.48mm
; top infill extrusion width = 0.48mm
; first layer extrusion width = 0.50mm

; external perimeters extrusion width = 0.40mm
; perimeters extrusion width = 0.40mm
; infill extrusion width = 0.45mm
; solid infill extrusion width = 0.48mm
; top infill extrusion width = 0.48mm
; first layer extrusion width = 0.50mm

; external perimeters extrusion width = 0.40mm
; perimeters extrusion width = 0.40mm
; infill extrusion width = 0.45mm
; solid infill extrusion width = 0.48mm
; top infill extrusion width = 0.48mm
; first layer extrusion width = 0.50mm

; external perimeters extrusion width = 0.40mm
; perimeters extrusion width = 0.40mm
; infill extrusion width = 0.45mm
; solid infill extrusion width = 0.48mm
; top infill extrusion width = 0.48mm
; first layer extrusion width = 0.50mm

; external perimeters extrusion width = 0.40mm
; perimeters extrusion width = 0.40mm
; infill extrusion width = 0.45mm
; solid infill extrusion width = 0.48mm
; top infill extrusion width = 0.48mm
; first layer extrusion width = 0.50mm

; external perimeters extrusion width = 0.40mm
; perimeters extrusion width = 0.40mm
; infill extrusion width = 0.45mm
; solid infill extrusion width = 0.48mm
; top infill extrusion width = 0.48mm
; first layer extrusion width = 0.50mm

; external perimeters extrusion width = 0.40mm
; perimeters extrusion width = 0.40mm
; infill extrusion width = 0.45mm
; solid infill extrusion width = 0.48mm
; top infill extrusion width = 0.48mm
; first layer extrusion width = 0.50mm

; external perimeters extrusion width = 0.40mm
; perimeters extrusion width = 0.40mm
; infill extrusion width = 0.45mm
; solid infill extrusion width = 0.48mm
; top infill extrusion width = 0.48mm
; first layer extrusion width = 0.50mm

; external perimeters extrusion width = 0.40mm
; perimeters extrusion width = 0.40mm
; infill extrusion width = 0.45mm
; solid infill extrusion width = 0.48mm
; top infill extrusion width = 0.48mm
; first layer extrusion width = 0.50mm

; EXECUTABLE_BLOCK_START
EXCLUDE_OBJECT_DEFINE NAME=flowrate_0_id_0_copy_0 CENTER=96.8313,130.102 POLYGON=[[76.8313,115.102],[116.831,115.102],[116.831,135.102],[106.831,145.102],[86.8313,145.102],[76.8313,135.102],[76.8313,115.102]]
EXCLUDE_OBJECT_DEFINE NAME=flowrate_m1_id_1_copy_0 CENTER=54.8313,98.1016 POLYGON=[[34.8313,83.1016],[74.8313,83.1016],[74.8313,103.102],[64.8313,113.102],[44.8313,113.102],[34.8313,103.102],[34.8313,83.1016]]
EXCLUDE_OBJECT_DEFINE NAME=flowrate_m2_id_2_copy_0 CENTER=96.8313,98.1016 POLYGON=[[76.8313,83.1016],[116.831,83.1016],[116.831,103.102],[106.831,113.102],[86.8313,113.102],[76.8313,103.102],[76.8313,83.1016]]
EXCLUDE_OBJECT_DEFINE NAME=flowrate_m3_id_3_copy_0 CENTER=138.831,98.1016 POLYGON=[[118.831,83.1016],[158.831,83.1016],[158.831,103.102],[148.831,113.102],[128.831,113.102],[118.831,103.102],[118.831,83.1016]]
EXCLUDE_OBJECT_DEFINE NAME=flowrate_m4_id_4_copy_0 CENTER=54.8313,66.1016 POLYGON=[[34.8313,51.1016],[74.8313,51.1016],[74.8313,71.1016],[64.8313,81.1016],[44.8313,81.1016],[34.8313,71.1016],[34.8313,51.1016]]
EXCLUDE_OBJECT_DEFINE NAME=flowrate_m5_id_5_copy_0 CENTER=96.8313,66.1016 POLYGON=[[76.8313,51.1016],[116.831,51.1016],[116.831,71.1016],[106.831,81.1016],[86.8313,81.1016],[76.8313,71.1016],[76.8313,51.1016]]
EXCLUDE_OBJECT_DEFINE NAME=flowrate_m6_id_6_copy_0 CENTER=138.831,66.1016 POLYGON=[[118.831,51.1016],[158.831,51.1016],[158.831,71.1016],[148.831,81.1016],[128.831,81.1016],[118.831,71.1016],[118.831,51.1016]]
EXCLUDE_OBJECT_DEFINE NAME=flowrate_m7_id_7_copy_0 CENTER=138.831,34.1016 POLYGON=[[118.831,19.1016],[158.831,19.1016],[158.831,39.1016],[148.831,49.1016],[128.831,49.1016],[118.831,39.1016],[118.831,19.1016]]
EXCLUDE_OBJECT_DEFINE NAME=flowrate_m8_id_8_copy_0 CENTER=96.8313,34.1016 POLYGON=[[76.8313,19.1016],[116.831,19.1016],[116.831,39.1016],[106.831,49.1016],[86.8313,49.1016],[76.8313,39.1016],[76.8313,19.1016]]
EXCLUDE_OBJECT_DEFINE NAME=flowrate_m9_id_9_copy_0 CENTER=54.8313,34.1016 POLYGON=[[34.8313,19.1016],[74.8313,19.1016],[74.8313,39.1016],[64.8313,49.1016],[44.8313,49.1016],[34.8313,39.1016],[34.8313,19.1016]]
M73 P0 R52
M106 S0
M106 P2 S0
;TYPE:Custom
SKEW_PROFILE LOAD=my_skew_profile
M190 S105
M109 S150
PRINT_START EXTRUDER=230 BED=105
; You can use following code instead if your PRINT_START macro support Chamber and print area bedmesh
; PRINT_START EXTRUDER=230 BED=105 Chamber=0 PRINT_MIN=30.3044,14.5637 PRINT_MAX=163.358,149.639
G90
G21
M83 ; use relative distances for extrusion
; Filament gcode
;LAYER_CHANGE
;Z:0.2
;HEIGHT:0.2
;BEFORE_LAYER_CHANGE
;0.2
G92 E0

;AFTER_LAYER_CHANGE
;0.2
;_SET_FAN_SPEED_CHANGING_LAYER
SET_VELOCITY_LIMIT ACCEL=500 ACCEL_TO_DECEL=250
SET_VELOCITY_LIMIT SQUARE_CORNER_VELOCITY=5
; printing object flowrate_m3 id:3 copy 0
G1 E-.5 F1800
EXCLUDE_OBJECT_START NAME=flowrate_m3_id_3_copy_0
G1 X115.272 Y80.713 F15000
G1 Z.2
G1 E.5 F1800
;TYPE:Brim
;WIDTH:0.5
G1 X115.668 Y80.208 E.02597
G1 X116.135 Y79.767 E.02597
G1 X116.661 Y79.4 E.02597
G1 X117.236 Y79.114 E.02597
G1 X117.846 Y78.917 E.02597
G1 X118.482 Y78.81 E.0261
G1 X118.88 Y78.792 E.01612
G1 X128.625 Y78.792 E.39438
G1 X128.625 Y81.069 E.09213
G1 X128.673 Y81.21 E.00603
G1 X128.853 Y81.297 E.0081
G1 X148.809 Y81.297 E.80768
G1 X148.95 Y81.249 E.00603
G1 X149.038 Y81.069 E.0081
G1 X149.038 Y78.792 E.09213
G1 X158.779 Y78.792 E.39425
G1 X159.427 Y78.84 E.02632
G1 X160.053 Y78.982 E.02597
G1 X160.652 Y79.214 E.02597
G1 X161.209 Y79.531 E.02597
G1 X161.714 Y79.928 E.02597
G1 X162.155 Y80.394 E.02597
G1 X162.522 Y80.92 E.02597
G1 X162.808 Y81.495 E.02597
G1 X163.005 Y82.105 E.02597
G1 X163.111 Y82.742 E.0261
G1 X163.13 Y83.14 E.01613
G1 X163.13 Y103.082 E.80713
G1 X163.082 Y103.731 E.02632
G1 X162.94 Y104.357 E.02597
G1 X162.708 Y104.955 E.02597
G1 X162.391 Y105.513 E.02597
G1 X161.994 Y106.017 E.02597
G1 X161.528 Y106.458 E.02597
G1 X161.002 Y106.825 E.02597
G1 X160.427 Y107.111 E.02597
G1 X159.816 Y107.309 E.02597
G1 X159.18 Y107.415 E.0261
G1 X158.782 Y107.433 E.01613
G1 X153.38 Y107.433 E.21864
G1 X153.239 Y107.481 E.00603
G1 X153.152 Y107.661 E.0081
G1 X153.152 Y113.06 E.21851
G1 X153.104 Y113.709 E.02632
G1 X152.962 Y114.335 E.02597
G1 X152.73 Y114.933 E.02597
G1 X152.413 Y115.491 E.02597
G1 X152.016 Y115.995 E.02597
G1 X151.55 Y116.436 E.02597
G1 X151.024 Y116.803 E.02597
G1 X150.449 Y117.089 E.02597
G1 X149.838 Y117.287 E.02597
G1 X149.202 Y117.393 E.0261
G1 X148.804 Y117.411 E.01613
G1 X128.862 Y117.411 E.80713
G1 X128.213 Y117.363 E.02632
G1 X127.587 Y117.222 E.02597
G1 X126.989 Y116.99 E.02597
G1 X126.431 Y116.672 E.02597
G1 X125.927 Y116.276 E.02597
G1 X125.486 Y115.809 E.02597
G1 X125.119 Y115.283 E.02597
G1 X124.833 Y114.708 E.02597
G1 X124.635 Y114.098 E.02597
G1 X124.529 Y113.461 E.0261
G1 X124.511 Y113.063 E.01612
G1 X124.511 Y107.661 E.21864
G1 X124.462 Y107.52 E.00603
G1 X124.282 Y107.433 E.0081
G1 X118.884 Y107.433 E.21851
G1 X118.235 Y107.385 E.02632
G1 X117.609 Y107.244 E.02597
G1 X117.011 Y107.012 E.02597
G1 X116.453 Y106.694 E.02597
G1 X115.949 Y106.298 E.02597
G1 X115.508 Y105.831 E.02597
G1 X115.141 Y105.305 E.02597
G1 X114.855 Y104.73 E.02597
G1 X114.657 Y104.12 E.02597
G1 X114.551 Y103.483 E.0261
G1 X114.544 Y103.319 E.00665
G1 X116.787 Y103.319 E.09081
G1 X116.928 Y103.27 E.00603
G1 X117.016 Y103.091 E.0081
G1 X117.016 Y83.134 E.80768
G1 X116.967 Y82.994 E.00603
G1 X116.787 Y82.906 E.0081
G1 X114.551 Y82.906 E.09053
G1 X114.581 Y82.495 E.0167
G1 X114.722 Y81.868 E.02597
G1 X114.954 Y81.27 E.02597
G1 X115.252 Y80.747 E.02435
G1 X115.65 Y80.975 F15000
G1 F1800
G1 X115.659 Y80.96 E.0007
G1 X116.001 Y80.525 E.02241
G1 X116.432 Y80.117 E.02405
G1 X116.886 Y79.8 E.02241
G1 X117.4 Y79.543 E.02323
G1 X117.965 Y79.36 E.02405
G1 X118.523 Y79.267 E.02288
G1 X118.894 Y79.249 E.01505
G1 X128.031 Y79.249 E.36978
G1 X128.134 Y79.297 E.00463
G1 X128.168 Y79.386 E.00386
G1 X128.168 Y81.057 E.06762
G1 X128.196 Y81.229 E.00703
G1 X128.237 Y81.345 E.005
G1 X128.34 Y81.518 E.00814
G1 X128.485 Y81.626 E.00733
G1 X128.639 Y81.701 E.00695
G1 X128.869 Y81.754 E.00954
G1 X148.798 Y81.754 E.80659
M73 P0 R51
G1 X149.086 Y81.685 E.01199
G1 X149.259 Y81.582 E.00814
G1 X149.367 Y81.437 E.00733
G1 X149.442 Y81.283 E.00695
G1 X149.495 Y81.053 E.00954
G1 X149.495 Y79.386 E.06745
G1 X149.543 Y79.282 E.00463
G1 X149.632 Y79.249 E.00386
G1 X158.757 Y79.249 E.36931
G1 X159.37 Y79.296 E.02487
G1 X159.929 Y79.424 E.02323
G1 X160.445 Y79.624 E.02241
G1 X160.962 Y79.918 E.02404
G1 X161.397 Y80.26 E.02241
G1 X161.792 Y80.676 E.02323
G1 X162.122 Y81.146 E.02323
G1 X162.379 Y81.659 E.02323
G1 X162.557 Y82.204 E.02323
G1 X162.655 Y82.782 E.0237
G1 X162.673 Y83.153 E.01505
G1 X162.673 Y103.06 E.80569
G1 X162.629 Y103.653 E.02405
G1 X162.498 Y104.232 E.02404
G1 X162.289 Y104.767 E.02323
G1 X162.004 Y105.265 E.02323
G1 X161.662 Y105.7 E.02241
G1 X161.246 Y106.096 E.02323
G1 X160.759 Y106.435 E.02404
G1 X160.244 Y106.689 E.02323
G1 X159.717 Y106.86 E.02241
G1 X159.14 Y106.958 E.0237
G1 X158.769 Y106.976 E.01505
G1 X153.392 Y106.976 E.21763
G1 X153.103 Y107.045 E.01199
G1 X152.931 Y107.148 E.00814
G1 X152.823 Y107.293 E.00733
G1 X152.747 Y107.447 E.00695
G1 X152.695 Y107.677 E.00954
G1 X152.695 Y113.038 E.21698
G1 X152.651 Y113.631 E.02405
G1 X152.526 Y114.191 E.02323
G1 X152.32 Y114.727 E.02323
G1 X152.026 Y115.243 E.02404
G1 X151.684 Y115.678 E.02241
G1 X151.268 Y116.074 E.02323
G1 X150.798 Y116.403 E.02323
G1 X150.285 Y116.66 E.02323
G1 X149.739 Y116.838 E.02323
G1 X149.162 Y116.936 E.0237
G1 X148.791 Y116.954 E.01505
G1 X128.884 Y116.954 E.80569
G1 X128.291 Y116.91 E.02405
G1 X127.711 Y116.779 E.02404
G1 X127.177 Y116.571 E.02323
G1 X126.679 Y116.285 E.02323
G1 X126.244 Y115.943 E.02241
G1 X125.848 Y115.527 E.02323
G1 X125.508 Y115.04 E.02404
G1 X125.254 Y114.525 E.02323
G1 X125.084 Y113.999 E.02241
G1 X124.986 Y113.421 E.0237
G1 X124.968 Y113.05 E.01505
G1 X124.968 Y107.673 E.21763
G1 X124.899 Y107.385 E.01199
G1 X124.796 Y107.212 E.00814
G1 X124.651 Y107.104 E.00733
G1 X124.497 Y107.029 E.00695
G1 X124.267 Y106.976 E.00954
G1 X118.906 Y106.976 E.21698
G1 X118.313 Y106.932 E.02405
G1 X117.753 Y106.807 E.02323
G1 X117.217 Y106.601 E.02323
G1 X116.701 Y106.307 E.02404
G1 X116.266 Y105.965 E.02241
G1 X115.87 Y105.549 E.02323
G1 X115.541 Y105.079 E.02323
G1 X115.276 Y104.545 E.02413
G1 X115.094 Y103.954 E.02505
G1 X115.109 Y103.84 E.00463
G1 X115.225 Y103.776 E.00536
G1 X116.776 Y103.776 E.06276
G1 X116.947 Y103.747 E.00703
G1 X117.064 Y103.707 E.005
G1 X117.237 Y103.604 E.00814
G1 X117.345 Y103.459 E.00733
G1 X117.42 Y103.305 E.00695
G1 X117.473 Y103.075 E.00954
G1 X117.473 Y83.146 E.80659
G1 X117.404 Y82.858 E.01199
G1 X117.301 Y82.685 E.00814
G1 X117.156 Y82.577 E.00733
G1 X117.002 Y82.502 E.00695
G1 X116.772 Y82.449 E.00954
G1 X115.231 Y82.449 E.06235
G1 X115.127 Y82.401 E.00463
G1 X115.098 Y82.282 E.00499
G1 X115.158 Y82.012 E.01118
G1 X115.373 Y81.458 E.02404
G1 X115.63 Y81.01 E.0209
G1 X116.027 Y81.236 F15000
G1 F1800
G1 X116.034 Y81.225 E.00052
G1 X116.346 Y80.827 E.0205
G1 X116.714 Y80.479 E.02048
G1 X117.112 Y80.2 E.01969
G1 X117.564 Y79.972 E.02047
G1 X118.084 Y79.804 E.0221
G1 X118.563 Y79.724 E.01969
G1 X118.908 Y79.706 E.01398
G1 X127.573 Y79.706 E.35071
G1 X127.677 Y79.754 E.00463
G1 X127.711 Y79.844 E.00386
G1 X127.711 Y81.048 E.04874
G1 X127.745 Y81.297 E.01019
G1 X127.802 Y81.484 E.00789
G1 X127.977 Y81.786 E.01413
G1 X127.988 Y81.9 E.00463
G1 X127.858 Y81.992 E.00644
G1 X118.904 Y81.992 E.36243
G1 X118.568 Y82.055 E.01383
G1 X118.313 Y82.163 E.0112
G1 X118.099 Y82.311 E.01053
G1 X117.936 Y82.503 E.01021
G1 X117.832 Y82.551 E.00463
G1 X117.727 Y82.503 E.00467
G1 X117.562 Y82.309 E.01031
G1 X117.437 Y82.217 E.00628
G1 X117.099 Y82.056 E.01515
G1 X116.759 Y81.992 E.01401
G1 X115.857 Y81.992 E.03652
G1 X115.753 Y81.944 E.00463
G1 X115.729 Y81.805 E.00571
G1 X115.783 Y81.665 E.00607
G1 X116.008 Y81.271 E.01836
G1 X116.519 Y81.371 F15000
G1 F1800
G1 X116.679 Y81.144 E.01123
G1 X116.997 Y80.841 E.01777
G1 X117.357 Y80.588 E.0178
G1 X117.748 Y80.393 E.01771
G1 X118.183 Y80.252 E.01847
G1 X118.605 Y80.18 E.01734
G1 X118.923 Y80.163 E.0129
G1 X127.116 Y80.163 E.3316
G1 X127.22 Y80.211 E.00463
G1 X127.253 Y80.301 E.00386
G1 X127.253 Y81.039 E.0299
G1 X127.296 Y81.38 E.01392
G1 X127.262 Y81.49 E.00463
G1 X127.16 Y81.535 E.0045
G1 X118.915 Y81.535 E.33372
G1 X118.381 Y81.637 E.02199
G1 X118.144 Y81.739 E.01045
G1 X117.908 Y81.888 E.01129
G1 X117.76 Y81.887 E.00597
G1 X117.626 Y81.8 E.00648
G1 X117.304 Y81.647 E.01443
G1 X117.175 Y81.605 E.00549
G1 X116.853 Y81.544 E.01327
G1 X116.647 Y81.535 E.00833
G1 X116.546 Y81.482 E.00463
G1 X116.528 Y81.41 E.00301
G1 X117.48 Y81.171 F15000
G1 F1800
G1 X117.498 Y81.058 E.00463
G1 X117.548 Y81.014 E.0027
G1 X117.91 Y80.823 E.01657
G1 X118.282 Y80.7 E.01587
G1 X118.663 Y80.635 E.01564
G1 X118.939 Y80.621 E.01116
G1 X126.659 Y80.621 E.31247
G1 X126.763 Y80.668 E.00463
G1 X126.796 Y80.758 E.00386
G1 X126.796 Y80.941 E.0074
G1 X126.749 Y81.044 E.00463
G1 X126.659 Y81.078 E.00386
G1 X118.927 Y81.078 E.31296
G1 X118.308 Y81.186 E.02544
G1 X117.878 Y81.364 E.01882
G1 X117.766 Y81.361 E.00451
G1 X117.553 Y81.259 E.00958
G1 X117.505 Y81.202 E.00301
G1 E-.5
G1 X117.821 Y103.661 F15000
G1 E.5 F1800
G1 X117.942 Y103.717 E.00541
G1 X118.052 Y103.867 E.00752
G1 X118.203 Y104.004 E.00827
G1 X118.356 Y104.094 E.00717
G1 X118.5 Y104.153 E.0063
G1 X118.9 Y104.233 E.01653
G1 X127.573 Y104.233 E.35103
G1 X127.677 Y104.281 E.00463
G1 X127.711 Y104.37 E.00386
G1 X127.711 Y113.04 E.3509
G1 X127.774 Y113.381 E.01401
G1 X127.935 Y113.718 E.01515
G1 X128.029 Y113.845 E.00636
G1 X128.181 Y113.982 E.00829
G1 X128.334 Y114.072 E.00717
G1 X128.478 Y114.131 E.0063
G1 X128.878 Y114.211 E.01653
G1 X148.781 Y114.211 E.80552
G1 X149.117 Y114.148 E.01383
G1 X149.371 Y114.04 E.0112
G1 X149.587 Y113.891 E.0106
G1 X149.722 Y113.741 E.00819
G1 X149.813 Y113.588 E.00717
G1 X149.872 Y113.444 E.0063
G1 X149.952 Y113.044 E.01653
G1 X149.952 Y104.37 E.35103
G1 X150 Y104.266 E.00463
G1 X150.089 Y104.233 E.00386
G1 X158.764 Y104.233 E.3511
G1 X158.879 Y104.22 E.00469
G1 X159.211 Y104.129 E.01391
G1 X159.437 Y104.008 E.01039
G1 X159.563 Y103.915 E.00636
G1 X159.701 Y103.762 E.00829
G1 X159.791 Y103.61 E.00717
G1 X159.85 Y103.466 E.0063
G1 X159.93 Y103.066 E.01653
G1 X159.93 Y83.158 E.80572
G1 X159.917 Y83.043 E.00469
G1 X159.826 Y82.711 E.01391
G1 X159.705 Y82.485 E.01039
G1 X159.611 Y82.359 E.00636
G1 X159.459 Y82.221 E.00829
G1 X159.307 Y82.131 E.00717
G1 X159.163 Y82.072 E.0063
G1 X158.762 Y81.992 E.01653
G1 X149.797 Y81.992 E.36287
G1 X149.693 Y81.944 E.00463
G1 X149.678 Y81.786 E.00642
G1 X149.849 Y81.49 E.01385
G1 X149.939 Y81.16 E.01382
G1 X149.952 Y79.844 E.0533
G1 X150 Y79.74 E.00463
G1 X150.089 Y79.706 E.00386
G1 X158.745 Y79.707 E.35032
G1 X159.291 Y79.748 E.02217
G1 X159.804 Y79.865 E.02131
G1 X160.257 Y80.043 E.01969
G1 X160.697 Y80.293 E.02048
G1 X161.081 Y80.593 E.01969
G1 X161.443 Y80.974 E.02132
G1 X161.733 Y81.39 E.02048
G1 X161.958 Y81.843 E.02048
G1 X162.109 Y82.305 E.01966
G1 X162.198 Y82.823 E.02129
G1 X162.216 Y83.168 E.01396
G1 X162.216 Y103.038 E.80423
G1 X162.173 Y103.595 E.02261
G1 X162.062 Y104.088 E.02044
G1 X161.88 Y104.56 E.02046
G1 X161.629 Y105 E.02051
G1 X161.329 Y105.384 E.01971
G1 X160.948 Y105.746 E.0213
G1 X160.516 Y106.045 E.02125
G1 X160.062 Y106.268 E.02047
G1 X159.598 Y106.417 E.01971
G1 X159.099 Y106.501 E.0205
G1 X158.761 Y106.519 E.0137
G1 X153.405 Y106.519 E.21676
G1 X153.005 Y106.599 E.01653
G1 X152.86 Y106.658 E.0063
