; generated by SuperSlicer 2.4 on 2023-11-24 at 19:25:23 UTC


;
;

;
;
; 

; external perimeters extrusion width = 0.42mm
; perimeters extrusion width = 0.44mm
; infill extrusion width = 0.44mm
; solid infill extrusion width = 0.44mm
; top infill extrusion width = 0.42mm
; first layer extrusion width = 0.56mm

; external perimeters extrusion width = 0.42mm
; perimeters extrusion width = 0.44mm
; infill extrusion width = 0.44mm
; solid infill extrusion width = 0.44mm
; top infill extrusion width = 0.42mm
; first layer extrusion width = 0.56mm

; external perimeters extrusion width = 0.42mm
; perimeters extrusion width = 0.44mm
; infill extrusion width = 0.44mm
; solid infill extrusion width = 0.44mm
; top infill extrusion width = 0.42mm
; first layer extrusion width = 0.56mm

; external perimeters extrusion width = 0.42mm
; perimeters extrusion width = 0.44mm
; infill extrusion width = 0.44mm
; solid infill extrusion width = 0.44mm
; top infill extrusion width = 0.42mm
; first layer extrusion width = 0.56mm

; object:{"name":"handle_a_x2","id":"handle_a_x2.stl id:0 copy 0","object_center":[154.025801,48.219834,0.000000],"boundingbox_center":[154.025801,48.219834,3.500000],"boundingbox_size":[27.000000,40.000000,7.000000]}
; object:{"name":"handle_b_x2","id":"handle_b_x2.stl id:1 copy 0","object_center":[34.913512,47.646799,0.000000],"boundingbox_center":[34.913512,47.646799,3.500000],"boundingbox_size":[27.000000,40.000000,7.000000]}
; object:{"name":"handle_a_x2","id":"handle_a_x2.stl id:2 copy 0","object_center":[113.825062,51.570153,0.000000],"boundingbox_center":[113.825062,51.570153,3.500000],"boundingbox_size":[27.000000,40.000000,7.000000]}
; object:{"name":"handle_b_x2","id":"handle_b_x2.stl id:3 copy 0","object_center":[73.940045,51.694058,0.000000],"boundingbox_center":[73.940045,51.694058,3.500000],"boundingbox_size":[27.000000,40.000000,7.000000]}
; plater:{"center":[94.469657,49.670428,0.000000],"boundingbox_center":[94.469657,49.670428,3.500000],"boundingbox_size":[146.112289,44.047258,7.000000]}

M73 P0 R79


; Pre-Processed for Cancel-Object support by preprocess_cancellation v0.2.0
; 4 known objects
EXCLUDE_OBJECT_DEFINE NAME=handle_a_x2_stl_id_0_copy_0 CENTER=153.756,51.660 POLYGON=[[140.493,28.079],[140.493,68.37],[167.559,68.37],[167.559,28.079]]
EXCLUDE_OBJECT_DEFINE NAME=handle_a_x2_stl_id_2_copy_0 CENTER=113.584,54.985 POLYGON=[[100.292,31.429],[100.292,71.721],[127.358,71.721],[127.358,31.429]]
EXCLUDE_OBJECT_DEFINE NAME=handle_b_x2_stl_id_3_copy_0 CENTER=74.306,54.778 POLYGON=[[60.407,31.544],[60.407,71.844],[87.473,71.844],[87.473,31.544]]
EXCLUDE_OBJECT_DEFINE NAME=handle_b_x2_stl_id_1_copy_0 CENTER=35.295,50.745 POLYGON=[[21.38,27.496],[21.38,67.797],[48.447,67.797],[48.447,27.496]]
;TYPE:Custom
; custom gcode: start_gcode
M104 S0 ; Stops SuperSlicer from sending temp waits separately
M140 S0
print_start EXTRUDER=220 BED=105 CHAMBER=40
; custom gcode end: start_gcode
M107
G21 ; set units to millimeters
G90 ; use absolute coordinates
M83 ; use relative distances for extrusion
; custom gcode: start_filament_gcode
; Filament gcode
; Macro syntax: https://help.prusa3d.com/article/macros_1775

; Set pressure advance per-filament
;SET_PRESSURE_ADVANCE ADVANCE=0.0372

; Set pressure advance per-filament for different nozzle sizes
;SET_PRESSURE_ADVANCE ADVANCE=0.0x
;

; custom gcode end: start_filament_gcode
;_TOOLCHANGE 0
;LAYER_CHANGE
;Z:0.3
;HEIGHT:0.3
G1 Z0.3 F7800
G92 E0
G10 ; retract
G1 Z0.6
G1 X12.734 Y15.935
G1 Z0.3
G11 ; unretract
;TYPE:Skirt
;WIDTH:0.52
G1 F1800
G1 X11.087 Y17.415 E0.1165
G1 X9.399 Y19.391 E0.13674
G1 X8.889 Y20.116 E0.04665
G1 X7.585 Y22.412 E0.13893
G1 X6.852 Y24.181 E0.1008
G1 X6.56 Y25.069 E0.04916
G1 X5.989 Y27.659 E0.13956
G1 X5.808 Y29.866 E0.11655
G1 X5.808 Y65.468 E1.87344
G1 X6.04 Y68.038 E0.13578
G1 X6.282 Y69.226 E0.06382
G1 X6.968 Y71.463 E0.12312
G1 X7.419 Y72.552 E0.062
G1 X8.893 Y75.187 E0.1589
G1 X10.279 Y76.997 E0.11998
G1 X11.91 Y78.662 E0.12265
G1 X13.999 Y80.289 E0.1393
G1 X16.295 Y81.592 E0.13894
G1 X18.065 Y82.325 E0.10082
G1 X18.953 Y82.617 E0.04918
G1 X21.464 Y83.176 E0.13535
G1 X62.713 Y87.415 E2.18208
G1 X124.823 Y87.293 E3.26835
M73 P0 R78
G1 X126.386 Y87.212 E0.08237
G1 X166.744 Y83.85 E2.13108
G1 X169.171 Y83.408 E0.12978
G1 X171.432 Y82.685 E0.12497
G1 X173.461 Y81.749 E0.11756
G1 X174.209 Y81.321 E0.04535
G1 X176.356 Y79.815 E0.13801
G1 X177.997 Y78.298 E0.11756
G1 X179.531 Y76.486 E0.12498
G1 X180.938 Y74.272 E0.13804
G1 X181.873 Y72.244 E0.11752
G1 X182.597 Y69.982 E0.12497
G1 X182.941 Y68.253 E0.09275
G1 X183.132 Y65.812 E0.12883
G1 X183.122 Y29.754 E1.89744
G1 X183.01 Y28.583 E0.06192
G1 X182.605 Y26.47 E0.11321
G1 X181.718 Y23.794 E0.14838
G1 X180.3 Y21.053 E0.16239
G1 X179.639 Y20.078 E0.062
G1 X178.14 Y18.264 E0.12382
G1 X177.267 Y17.398 E0.06467
G1 X175.392 Y15.874 E0.12718
G1 X174.381 Y15.204 E0.06383
G1 X172.313 Y14.108 E0.12312
G1 X171.225 Y13.658 E0.062
G1 X169.015 Y12.979 E0.12164
G1 X167.861 Y12.741 E0.06201
G1 X165.312 Y12.498 E0.13476
G1 X29.649 Y11.925 E7.13891
G1 X23.938 Y11.924 E0.30053
G1 X21.497 Y12.114 E0.12884
G1 X19.769 Y12.458 E0.09275
G1 X17.332 Y13.243 E0.13472
G1 X16.462 Y13.622 E0.04996
G1 X13.991 Y15.009 E0.14911
G1 X12.734 Y15.935 E0.08215
G10 ; retract
G1 Z0.6 F7800
G1 X16.849 Y21.061
G1 Z0.3
G11 ; unretract
;WIDTH:0.56
G1 F1800
G1 X18.099 Y20.193 E0.08714
G1 X19.458 Y19.488 E0.08762
G1 X21.071 Y18.914 E0.09802
G1 X22.491 Y18.616 E0.08303
G1 X23.758 Y18.499 E0.07283
G1 X29.576 Y18.5 E0.33303
G1 X31.633 Y18.768 E0.11875
G1 X33.641 Y19.404 E0.12062
G1 X35.506 Y20.388 E0.12064
G1 X37.16 Y21.681 E0.12021
G1 X51.4 Y35.912 E1.15239
G1 X51.403 Y34.042 E0.10705
G1 X51.642 Y31.986 E0.11849
G1 X52.03 Y30.57 E0.08405
G1 X52.603 Y29.178 E0.0862
G1 X53.589 Y27.522 E0.11032
G1 X54.642 Y26.241 E0.09491
G1 X55.851 Y25.127 E0.0941
G1 X57.131 Y24.237 E0.08921
G1 X58.52 Y23.52 E0.08952
G1 X60.13 Y22.952 E0.09772
G1 X61.405 Y22.68 E0.0746
G1 X62.711 Y22.549 E0.07513
G1 X68.703 Y22.554 E0.343
G1 X70.708 Y22.826 E0.11582
G1 X72.672 Y23.453 E0.11801
G1 X74.572 Y24.461 E0.1231
G1 X76.273 Y25.806 E0.12417
G1 X92.555 Y42.089 E1.31809
G1 X93.402 Y43.047 E0.07322
G1 X93.835 Y43.645 E0.04223
G1 X94 Y43.39 E0.01738
G1 X95.224 Y41.948 E0.1083
G1 X111.422 Y25.749 E1.3113
G1 X112.784 Y24.617 E0.10138
G1 X114.057 Y23.825 E0.08583
G1 X115.39 Y23.21 E0.08404
G1 X116.816 Y22.761 E0.08553
G1 X118.401 Y22.477 E0.09222
G1 X125.473 Y22.453 E0.40479
G1 X127.536 Y22.801 E0.11974
G1 X129.415 Y23.47 E0.11418
G1 X131.149 Y24.441 E0.1138
G1 X132.733 Y25.721 E0.11654
G1 X134.113 Y27.308 E0.12038
G1 X135.176 Y29.087 E0.11864
G1 X135.9 Y30.969 E0.11539
G1 X136.304 Y33.035 E0.12053
G1 X136.317 Y37.706 E0.26736
G1 X151.623 Y22.399 E1.23907
G1 X152.9 Y21.328 E0.09544
G1 X154.144 Y20.537 E0.08437
G1 X155.557 Y19.873 E0.08938
G1 X156.977 Y19.42 E0.08531
G1 X158.504 Y19.136 E0.08892
G1 X165.586 Y19.096 E0.40539
G1 X167.733 Y19.45 E0.12456
G1 X169.615 Y20.12 E0.11436
G1 X171.353 Y21.093 E0.11402
G1 X172.902 Y22.341 E0.11385
G1 X174.231 Y23.846 E0.11493
G1 X175.373 Y25.729 E0.12608
G1 X176.085 Y27.566 E0.11275
G1 X176.484 Y29.479 E0.11191
G1 X176.568 Y65.684 E2.07242
G1 X176.463 Y67.095 E0.08099
G1 X176.216 Y68.39 E0.07549
G1 X175.832 Y69.638 E0.07472
G1 X175.219 Y71.021 E0.08663
G1 X174.261 Y72.551 E0.10333
G1 X173.274 Y73.728 E0.08792
G1 X172.099 Y74.798 E0.09094
G1 X170.83 Y75.679 E0.08847
G1 X169.493 Y76.374 E0.08623
G1 X168.053 Y76.9 E0.08775
G1 X166.546 Y77.236 E0.08841
G1 X165.186 Y77.368 E0.07817
G1 X143.103 Y77.377 E1.26407
G1 X141.725 Y77.269 E0.07915
G1 X140.223 Y76.967 E0.08768
G1 X137.743 Y75.975 E0.15293
G1 X136.352 Y75.101 E0.09405
G1 X135.202 Y74.158 E0.08508
G1 X135.146 Y74.097 E0.00478
G1 X135.036 Y74.337 E0.01512
G1 X134.084 Y75.868 E0.1032
G1 X133.078 Y77.073 E0.08984
G1 X131.931 Y78.122 E0.08899
G1 X130.663 Y79.009 E0.08859
G1 X129.298 Y79.722 E0.08814
G1 X127.858 Y80.248 E0.08776
G1 X126.379 Y80.58 E0.08675
G1 X124.939 Y80.721 E0.08281
G1 X102.923 Y80.728 E1.26028
G1 X101.497 Y80.615 E0.08189
G1 X100.022 Y80.317 E0.08613
G1 X97.499 Y79.303 E0.1556
G1 X96.173 Y78.467 E0.08973
G1 X94.963 Y77.47 E0.08977
G1 X93.968 Y76.258 E0.08977
G1 X93.483 Y76.88 E0.04518
G1 X91.962 Y78.316 E0.11969
M73 P1 R78
G1 X90.604 Y79.236 E0.09389
G1 X88.847 Y80.077 E0.11151
G1 X86.883 Y80.638 E0.11695
G1 X84.882 Y80.854 E0.11522
G1 X62.636 Y80.835 E1.27335
G1 X61.062 Y80.65 E0.09075
G1 X59.488 Y80.24 E0.09307
G1 X57.971 Y79.613 E0.09399
G1 X56.549 Y78.778 E0.0944
G1 X55.264 Y77.757 E0.09396
G1 X54.145 Y76.589 E0.09259
G1 X53.2 Y75.284 E0.09218
G1 X52.746 Y74.404 E0.0567
G1 X51.548 Y75.206 E0.08249
G1 X49.904 Y75.997 E0.10444
G1 X47.996 Y76.563 E0.11391
G1 X45.999 Y76.799 E0.11514
G1 X23.666 Y76.791 E1.27838
G1 X22.033 Y76.602 E0.09411
G1 X20.462 Y76.193 E0.09292
G1 X18.977 Y75.581 E0.09192
G1 X17.583 Y74.772 E0.09226
G1 X16.318 Y73.782 E0.09196
G1 X15.191 Y72.628 E0.09234
G1 X14.113 Y71.138 E0.10527
G1 X13.265 Y69.469 E0.10714
G1 X12.585 Y67.202 E0.13547
G1 X12.372 Y65.24 E0.11299
G1 X12.371 Y30.083 E2.01243
G1 X12.607 Y27.983 E0.12096
G1 X13.002 Y26.528 E0.08633
G1 X13.542 Y25.199 E0.08212
G1 X14.611 Y23.406 E0.11948
G1 X15.713 Y22.092 E0.09816
G1 X16.849 Y21.061 E0.0878
G1 X17.145 Y21.459 F7800
G1 F1800
G1 X18.342 Y20.625 E0.08351
G1 X19.64 Y19.949 E0.08376
G1 X21.222 Y19.387 E0.09608
G1 X22.551 Y19.108 E0.07775
G1 X23.769 Y18.994 E0.07004
G1 X29.559 Y18.996 E0.33144
G1 X31.546 Y19.256 E0.11472
G1 X33.47 Y19.87 E0.11557
G1 X35.254 Y20.815 E0.11559
G1 X36.842 Y22.062 E0.11557
G1 X51.894 Y37.108 E1.21825
G1 X51.897 Y34.085 E0.17301
G1 X52.132 Y32.062 E0.11658
G1 X52.504 Y30.717 E0.07991
G1 X53.054 Y29.384 E0.08256
G1 X54.005 Y27.792 E0.10613
G1 X55.014 Y26.57 E0.09072
G1 X56.174 Y25.504 E0.09021
G1 X57.373 Y24.67 E0.08359
G1 X58.701 Y23.981 E0.08563
G1 X60.28 Y23.425 E0.0958
G1 X61.494 Y23.168 E0.07106
G1 X62.747 Y23.044 E0.07209
G1 X68.653 Y23.047 E0.33804
G1 X70.62 Y23.314 E0.11362
G1 X72.499 Y23.918 E0.113
G1 X74.319 Y24.888 E0.11803
G1 X75.933 Y26.167 E0.11788
G1 X92.199 Y42.434 E1.31683
G1 X93.023 Y43.366 E0.0712
G1 X93.86 Y44.528 E0.08197
G1 X94.388 Y43.698 E0.05633
G1 X95.582 Y42.291 E0.10559
G1 X111.765 Y26.108 E1.31007
G1 X113.061 Y25.029 E0.09654
G1 X114.279 Y24.268 E0.08221
G1 X115.555 Y23.678 E0.08047
G1 X116.92 Y23.246 E0.08193
G1 X118.425 Y22.972 E0.08757
G1 X125.453 Y22.949 E0.40233
G1 X127.39 Y23.275 E0.11244
G1 X129.192 Y23.913 E0.10938
G1 X130.855 Y24.841 E0.10901
G1 X132.373 Y26.063 E0.11157
G1 X133.724 Y27.617 E0.11786
G1 X134.721 Y29.285 E0.11128
G1 X135.418 Y31.085 E0.11046
G1 X135.814 Y33.107 E0.11792
G1 X135.823 Y38.9 E0.33163
G1 X151.966 Y22.758 E1.30678
G1 X153.206 Y21.719 E0.09263
G1 X154.396 Y20.964 E0.08067
G1 X155.724 Y20.34 E0.08396
G1 X157.084 Y19.904 E0.08177
G1 X158.529 Y19.631 E0.0842
G1 X165.568 Y19.592 E0.4029
G1 X167.588 Y19.924 E0.11721
G1 X169.391 Y20.563 E0.10948
G1 X171.093 Y21.515 E0.11161
G1 X172.574 Y22.713 E0.10905
G1 X173.845 Y24.157 E0.11009
G1 X174.919 Y25.929 E0.11864
G1 X175.604 Y27.687 E0.10799
G1 X175.994 Y29.556 E0.10929
G1 X176.073 Y65.675 E2.06756
G1 X175.974 Y67.016 E0.07696
G1 X175.738 Y68.258 E0.07232
G1 X175.363 Y69.478 E0.07309
G1 X174.789 Y70.773 E0.08107
G1 X173.85 Y72.273 E0.10133
G1 X172.905 Y73.396 E0.084
G1 X171.778 Y74.42 E0.08716
G1 X170.56 Y75.263 E0.08476
G1 X169.279 Y75.927 E0.08261
G1 X167.899 Y76.428 E0.08406
G1 X166.453 Y76.749 E0.08478
G1 X165.174 Y76.873 E0.07355
G1 X143.113 Y76.882 E1.26282
G1 X141.779 Y76.776 E0.07662
G1 X140.386 Y76.498 E0.08127
G1 X137.948 Y75.523 E0.15033
G1 X136.654 Y74.708 E0.08754
G1 X135.535 Y73.79 E0.08286
G1 X135.016 Y73.167 E0.04637
G1 X134.606 Y74.09 E0.05779
G1 X133.672 Y75.591 E0.10122
G1 X132.709 Y76.742 E0.08589
G1 X131.609 Y77.745 E0.08522
G1 X130.392 Y78.593 E0.08489
G1 X129.083 Y79.275 E0.08448
G1 X127.704 Y79.777 E0.08405
G1 X126.286 Y80.093 E0.08313
G1 X124.927 Y80.225 E0.07815
G1 X102.932 Y80.233 E1.25904
G1 X101.579 Y80.126 E0.0777
G1 X100.185 Y79.848 E0.08139
G1 X97.744 Y78.872 E0.15047
G1 X96.476 Y78.075 E0.08572
G1 X95.297 Y77.103 E0.08746
G1 X93.958 Y75.461 E0.1213
G1 X93.129 Y76.533 E0.07757
G1 X91.637 Y77.941 E0.11743
G1 X90.342 Y78.815 E0.08938
G1 X88.69 Y79.606 E0.10485
G1 X86.808 Y80.148 E0.11211
G1 X84.868 Y80.358 E0.11169
G1 X62.68 Y80.341 E1.27014
G1 X61.17 Y80.166 E0.08702
G1 X59.662 Y79.776 E0.08914
G1 X58.177 Y79.161 E0.09201
G1 X56.816 Y78.359 E0.09043
G1 X55.586 Y77.379 E0.09002
G1 X54.515 Y76.259 E0.08874
G1 X53.613 Y75.01 E0.08818
G1 X52.901 Y73.622 E0.08928
G1 X52.577 Y73.92 E0.02523
G1 X51.316 Y74.767 E0.08693
G1 X49.743 Y75.528 E0.10003
G1 X47.917 Y76.073 E0.10913
G1 X45.984 Y76.303 E0.1114
G1 X23.68 Y76.296 E1.27673
G1 X22.14 Y76.118 E0.08874
G1 X20.635 Y75.728 E0.08902
G1 X19.182 Y75.129 E0.08997
G1 X17.848 Y74.352 E0.08838
G1 X16.637 Y73.402 E0.08809
G1 X15.558 Y72.295 E0.08847
G1 X14.546 Y70.896 E0.09885
G1 X13.717 Y69.265 E0.10476
G1 X13.076 Y67.126 E0.1278
G1 X12.868 Y65.226 E0.10939
G1 X12.867 Y30.097 E2.01086
G1 X13.097 Y28.058 E0.11747
G1 X13.476 Y26.673 E0.0822
G1 X13.994 Y25.403 E0.07849
G1 X15.026 Y23.678 E0.11513
G1 X16.059 Y22.447 E0.09193
G1 X17.145 Y21.459 E0.08407
G1 X17.442 Y21.856 F7800
G1 F1800
G1 X18.586 Y21.057 E0.07988
G1 X19.822 Y20.41 E0.07987
G1 X21.372 Y19.86 E0.09412
G1 X22.611 Y19.6 E0.07249
G1 X23.781 Y19.49 E0.06723
G1 X29.543 Y19.491 E0.32984
G1 X31.459 Y19.745 E0.11065
G1 X33.297 Y20.335 E0.11049
G1 X35.002 Y21.242 E0.11054
G1 X36.524 Y22.442 E0.11095
G1 X52.389 Y38.303 E1.28416
G1 X52.392 Y34.1 E0.2406
G1 X52.622 Y32.139 E0.11301
G1 X52.977 Y30.864 E0.07576
G1 X53.505 Y29.59 E0.07894
G1 X54.421 Y28.063 E0.10193
G1 X55.384 Y26.899 E0.08653
G1 X56.497 Y25.881 E0.08631
G1 X57.643 Y25.086 E0.07982
G1 X58.882 Y24.443 E0.07995
G1 X60.429 Y23.898 E0.09387
G1 X61.583 Y23.656 E0.06748
G1 X62.784 Y23.538 E0.06906
G1 X68.603 Y23.541 E0.33314
G1 X70.489 Y23.793 E0.10889
G1 X72.326 Y24.383 E0.11047
G1 X74.029 Y25.29 E0.11042
G1 X75.593 Y26.527 E0.11413
G1 X91.843 Y42.779 E1.31557
G1 X92.629 Y43.668 E0.06791
G1 X93.401 Y44.725 E0.07492
G1 X93.844 Y45.479 E0.05007
G1 X94.778 Y44.005 E0.09986
G1 X95.939 Y42.634 E0.10286
G1 X112.108 Y26.466 E1.30885
G1 X113.338 Y25.44 E0.09173
G1 X114.502 Y24.711 E0.0786
G1 X115.72 Y24.146 E0.0769
G1 X117.025 Y23.73 E0.07835
G1 X118.449 Y23.468 E0.08288
G1 X125.434 Y23.445 E0.39986
G1 X127.246 Y23.75 E0.10518
G1 X128.969 Y24.357 E0.10459
G1 X130.561 Y25.24 E0.10422
G1 X132.014 Y26.405 E0.10657
G1 X133.336 Y27.925 E0.11532
G1 X134.285 Y29.521 E0.10627
G1 X134.947 Y31.243 E0.10563
G1 X135.318 Y33.131 E0.11016
G1 X135.33 Y40.235 E0.40663
G1 X136.14 Y39.284 E0.07154
G1 X152.308 Y23.116 E1.30884
G1 X153.511 Y22.109 E0.0898
G1 X154.648 Y21.391 E0.07695
G1 X155.891 Y20.807 E0.0786
G1 X157.192 Y20.388 E0.07828
G1 X158.555 Y20.127 E0.07942
G1 X165.55 Y20.088 E0.4004
G1 X167.444 Y20.399 E0.10991
G1 X169.168 Y21.006 E0.10462
G1 X170.798 Y21.914 E0.10676
G1 X172.246 Y23.085 E0.10663
G1 X173.458 Y24.467 E0.10522
G1 X174.465 Y26.129 E0.11124
G1 X175.135 Y27.847 E0.10557
G1 X175.504 Y29.632 E0.10429
G1 X175.577 Y65.667 E2.06274
G1 X175.484 Y66.938 E0.07293
G1 X175.254 Y68.152 E0.07072
G1 X174.894 Y69.318 E0.06988
G1 X174.36 Y70.525 E0.07555
G1 X173.439 Y71.995 E0.09931
G1 X172.537 Y73.064 E0.08004
G1 X171.457 Y74.042 E0.08339
G1 X170.292 Y74.846 E0.08105
G1 X169.066 Y75.479 E0.07899
G1 X167.746 Y75.957 E0.08037
G1 X166.361 Y76.261 E0.08115
G1 X165.162 Y76.377 E0.06895
G1 X143.123 Y76.386 E1.26157
G1 X141.832 Y76.283 E0.0741
G1 X140.548 Y76.029 E0.07492
G1 X138.192 Y75.091 E0.14517
G1 X136.956 Y74.315 E0.08356
G1 X135.868 Y73.422 E0.08058
G1 X134.845 Y72.179 E0.09214
G1 X134.683 Y72.695 E0.03097
G1 X134.176 Y73.843 E0.07183
G1 X133.281 Y75.287 E0.09724
G1 X132.362 Y76.387 E0.08205
G1 X131.312 Y77.348 E0.08149
G1 X130.149 Y78.161 E0.08124
G1 X128.898 Y78.815 E0.08077
G1 X127.58 Y79.297 E0.08034
G1 X126.193 Y79.606 E0.08133
G1 X124.915 Y79.73 E0.07349
G1 X102.942 Y79.737 E1.2578
G1 X101.66 Y79.637 E0.07358
G1 X100.347 Y79.379 E0.07663
G1 X97.989 Y78.44 E0.14529
