; generated by SuperSlicer 2.4 on 2023-11-04 at 15:25:41 UTC


;
;

;
;
; 

; external perimeters extrusion width = 0.42mm
; perimeters extrusion width = 0.44mm
; infill extrusion width = 0.44mm
; solid infill extrusion width = 0.44mm
; top infill extrusion width = 0.42mm
; first layer extrusion width = 0.56mm

; external perimeters extrusion width = 0.42mm
; perimeters extrusion width = 0.44mm
; infill extrusion width = 0.44mm
; solid infill extrusion width = 0.44mm
; top infill extrusion width = 0.42mm
; first layer extrusion width = 0.56mm

; object:{"name":"kabelclip","id":"kabelclip.stl id:0 copy 0","object_center":[93.634725,37.666559,0.000000],"boundingbox_center":[93.634725,37.666559,8.250000],"boundingbox_size":[24.894252,24.894252,16.500000]}
; object:{"name":"kabelclip","id":"kabelclip.stl id:0 copy 1","object_center":[128.841048,35.580808,0.000000],"boundingbox_center":[128.841048,35.580808,8.250000],"boundingbox_size":[24.894252,24.894252,16.500000]}
; object:{"name":"kabelclip","id":"kabelclip.stl id:0 copy 2","object_center":[169.932009,36.827440,0.000000],"boundingbox_center":[169.932009,36.827440,8.250000],"boundingbox_size":[24.894252,24.894252,16.500000]}
; object:{"name":"NeoPixel_Mount","id":"NeoPixel_Mount.stl id:1 copy 0","object_center":[217.814139,42.084047,0.000000],"boundingbox_center":[217.814139,42.084047,4.467964],"boundingbox_size":[31.263332,31.296812,8.935928]}
; plater:{"center":[157.316702,40.433068,0.000000],"boundingbox_center":[157.316702,40.433068,8.250000],"boundingbox_size":[152.258206,34.598771,16.500000]}

M73 P0 R61


; Pre-Processed for Cancel-Object support by preprocess_cancellation v0.2.0
; 4 known objects
EXCLUDE_OBJECT_DEFINE NAME=kabelclip_stl_id_0_copy_0 CENTER=92.462,38.796 POLYGON=[[81.241,25.292],[81.241,50.06],[106.009,50.06],[106.009,25.292]]
EXCLUDE_OBJECT_DEFINE NAME=kabelclip_stl_id_0_copy_1 CENTER=127.669,36.713 POLYGON=[[116.448,23.206],[116.448,47.974],[141.215,47.974],[141.215,23.206]]
EXCLUDE_OBJECT_DEFINE NAME=kabelclip_stl_id_0_copy_2 CENTER=168.760,37.959 POLYGON=[[157.539,24.453],[157.539,49.221],[182.306,49.221],[182.306,24.453]]
EXCLUDE_OBJECT_DEFINE NAME=NeoPixel_Mount_stl_id_1_copy_0 CENTER=217.787,42.090 POLYGON=[[202.207,26.472],[202.207,57.707],[233.41,57.707],[233.41,26.472]]
;TYPE:Custom
; custom gcode: start_gcode
M104 S0 ; Stops SuperSlicer from sending temp waits separately
M140 S0
print_start EXTRUDER=230 BED=105 CHAMBER=40
; custom gcode end: start_gcode
M107
G21 ; set units to millimeters
G90 ; use absolute coordinates
M83 ; use relative distances for extrusion
; custom gcode: start_filament_gcode
; Filament gcode
; Macro syntax: https://help.prusa3d.com/article/macros_1775

; Set pressure advance per-filament
;SET_PRESSURE_ADVANCE ADVANCE=0.0372

; Set pressure advance per-filament for different nozzle sizes
;SET_PRESSURE_ADVANCE ADVANCE=0.0x
;

; custom gcode end: start_filament_gcode
;_TOOLCHANGE 0
;LAYER_CHANGE
;Z:0.3
;HEIGHT:0.3
G1 Z0.3 F7800
G92 E0
G1 E-0.6 F1800
G1 Z0.6 F7800
G1 X61.683 Y32.237
G1 Z0.3
G1 E0.6 F1800
;TYPE:Skirt
;WIDTH:0.52
G1 X61.435 Y34.446 E0.11699
G1 X61.979 Y36.601 E0.11699
G1 X63.245 Y38.429 E0.11699
G1 X92.873 Y68.056 E2.20483
G1 X94.693 Y69.319 E0.11657
G1 X96.847 Y69.865 E0.11699
G1 X225.308 Y78.731 E6.77594
M73 P0 R60
G1 X226.441 Y78.706 E0.05964
G1 X228.569 Y78.064 E0.11699
G1 X230.337 Y76.716 E0.11699
G1 X251.343 Y53.696 E1.63987
G1 X252.705 Y51.295 E0.14529
G1 X252.957 Y49.086 E0.11699
G1 X252.416 Y46.93 E0.11699
G1 X251.152 Y45.101 E0.11699
G1 X214.889 Y8.738 E2.70241
G1 X212.957 Y7.422 E0.123
G1 X210.792 Y6.915 E0.11699
G1 X166.408 Y4.681 E2.33855
G1 X124.76 Y3.442 E2.19258
G1 X89.553 Y5.528 E1.85588
G1 X87.344 Y6.076 E0.11976
G1 X85.517 Y7.342 E0.11699
G1 X63.245 Y29.622 E1.65779
G1 X61.683 Y32.237 E0.16024
G1 E-0.6
G1 Z0.6 F7800
G1 X194.237 Y36.564
G1 Z0.3
G1 E0.6 F1800
;WIDTH:0.56
G1 X194.463 Y34.467 E0.12074
M73 P1 R60
G1 X195.113 Y32.447 E0.12147
G1 X196.601 Y30.131 E0.1576
G1 X198.135 Y28.731 E0.11885
G1 X199.046 Y28.208 E0.06015
G1 X199.063 Y27.816 E0.02246
G1 X199.404 Y26.211 E0.09391
G1 X199.932 Y24.864 E0.08282
G1 X200.626 Y23.63 E0.08106
G1 X204.83 Y19.396 E0.34154
G1 X205.147 Y19.159 E0.02265
G1 X206.551 Y18.409 E0.09112
G1 X208.084 Y17.878 E0.09287
G1 X209.702 Y17.626 E0.09373
G1 X211.307 Y17.63 E0.09189
G1 X213.878 Y18.199 E0.15072
G1 X215.475 Y18.984 E0.10184
G1 X216.877 Y20.026 E0.1
G1 X239.87 Y43.082 E1.86391
G1 X240.983 Y44.613 E0.10835
G1 X241.753 Y46.281 E0.10516
G1 X242.241 Y48.558 E0.13331
G1 X242.19 Y50.865 E0.13208
G1 X241.839 Y52.414 E0.09093
G1 X241.254 Y53.86 E0.0893
G1 X240.011 Y55.708 E0.12745
G1 X237.051 Y58.668 E0.23961
G1 X235.418 Y59.795 E0.11358
G1 X233.603 Y60.547 E0.11249
G1 X232.029 Y60.875 E0.09201
G1 X231.608 Y60.89 E0.02412
G1 X230.848 Y62.134 E0.08346
G1 X229.22 Y63.707 E0.12959
G1 X226.871 Y65.023 E0.15412
G1 X225.013 Y65.504 E0.10986
G1 X222.456 Y65.643 E0.14659
G1 X221.051 Y65.399 E0.08159
G1 X219.703 Y64.974 E0.08092
G1 X217.164 Y63.428 E0.17014
G1 X196.531 Y42.76 E1.67172
G1 X194.903 Y40.082 E0.17942
G1 X194.415 Y38.385 E0.10104
G1 X194.237 Y36.564 E0.10473
G1 X194.733 Y36.592 F7800
G1 F1800
G1 X194.953 Y34.546 E0.1178
G1 X195.575 Y32.631 E0.11525
G1 X196.959 Y30.475 E0.14665
G1 X198.449 Y29.116 E0.11541
G1 X199.533 Y28.502 E0.07133
G1 X199.552 Y27.897 E0.03467
G1 X199.873 Y26.372 E0.08915
G1 X200.373 Y25.092 E0.07867
G1 X201.042 Y23.902 E0.07814
G1 X205.168 Y19.758 E0.33476
G1 X205.398 Y19.587 E0.01639
G1 X206.733 Y18.87 E0.08674
G1 X208.183 Y18.364 E0.08794
G1 X209.721 Y18.122 E0.08909
G1 X211.28 Y18.125 E0.08924
G1 X213.687 Y18.658 E0.14114
G1 X215.198 Y19.395 E0.09626
G1 X216.539 Y20.389 E0.09553
G1 X239.506 Y43.419 E1.86176
G1 X240.544 Y44.844 E0.10094
G1 X241.275 Y46.413 E0.09908
G1 X241.745 Y48.577 E0.12677
G1 X241.701 Y50.781 E0.12616
G1 X241.372 Y52.247 E0.08602
G1 X240.804 Y53.65 E0.08665
G1 X239.614 Y55.411 E0.12164
G1 X236.75 Y58.273 E0.23177
G1 X235.204 Y59.347 E0.10778
G1 X233.435 Y60.08 E0.10961
G1 X231.951 Y60.385 E0.08673
G1 X231.323 Y60.402 E0.03592
G1 X230.48 Y61.8 E0.09345
G1 X228.898 Y63.328 E0.12591
G1 X226.715 Y64.552 E0.14327
G1 X224.96 Y65.011 E0.10382
G1 X222.512 Y65.149 E0.14036
G1 X221.184 Y64.921 E0.07712
G1 X219.88 Y64.511 E0.07823
G1 X217.448 Y63.021 E0.16327
G1 X196.903 Y42.431 E1.66501
G1 X195.37 Y39.912 E0.16878
G1 X194.906 Y38.313 E0.09529
G1 X194.733 Y36.592 E0.09904
G1 X195.229 Y36.618 F7800
G1 F1800
G1 X195.432 Y34.674 E0.11188
G1 X196.036 Y32.814 E0.11194
G1 X197.317 Y30.819 E0.1357
G1 X198.762 Y29.501 E0.11193
G1 X200.021 Y28.797 E0.08262
G1 X200.042 Y27.976 E0.04701
G1 X200.342 Y26.533 E0.08436
G1 X200.813 Y25.32 E0.07448
G1 X201.457 Y24.175 E0.07519
G1 X205.506 Y20.121 E0.32795
G1 X205.649 Y20.015 E0.01021
G1 X206.916 Y19.331 E0.08239
G1 X208.283 Y18.85 E0.083
G1 X209.741 Y18.618 E0.08448
G1 X211.2 Y18.615 E0.08354
G1 X213.497 Y19.116 E0.13458
G1 X214.922 Y19.808 E0.09066
G1 X216.201 Y20.752 E0.09102
G1 X239.141 Y43.755 E1.8596
G1 X240.106 Y45.076 E0.09362
G1 X240.796 Y46.547 E0.09301
G1 X241.249 Y48.598 E0.12021
G1 X241.211 Y50.697 E0.1202
G1 X240.893 Y52.119 E0.0834
G1 X240.355 Y53.439 E0.08162
G1 X239.217 Y55.113 E0.11583
G1 X236.416 Y57.906 E0.22647
G1 X234.944 Y58.925 E0.10246
G1 X233.312 Y59.6 E0.10106
G1 X231.873 Y59.895 E0.08409
G1 X231.038 Y59.913 E0.0478
G1 X230.112 Y61.467 E0.10355
G1 X228.577 Y62.95 E0.1222
G1 X226.558 Y64.081 E0.13247
G1 X224.906 Y64.518 E0.09779
G1 X222.568 Y64.656 E0.13407
G1 X221.285 Y64.435 E0.07453
G1 X220.059 Y64.047 E0.07359
G1 X217.733 Y62.614 E0.15639
G1 X197.275 Y42.101 E1.65836
G1 X195.836 Y39.742 E0.1582
G1 X195.397 Y38.24 E0.08958
G1 X195.229 Y36.618 E0.09335
G1 X195.724 Y36.642 F7800
G1 F1800
G1 X195.912 Y34.802 E0.10589
G1 X196.498 Y32.997 E0.1086
G1 X197.675 Y31.164 E0.12474
G1 X199.074 Y29.887 E0.10842
G1 X200.511 Y29.092 E0.09399
G1 X200.532 Y28.053 E0.05948
G1 X200.812 Y26.692 E0.07955
G1 X201.254 Y25.547 E0.07025
G1 X201.872 Y24.447 E0.07223
G1 X205.843 Y20.485 E0.32112
G1 X205.9 Y20.443 E0.00406
G1 X207.134 Y19.777 E0.08023
G1 X208.426 Y19.325 E0.07834
G1 X209.798 Y19.11 E0.07953
G1 X211.173 Y19.111 E0.07871
G1 X213.307 Y19.575 E0.12501
G1 X214.685 Y20.243 E0.08766
G1 X215.863 Y21.115 E0.0839
G1 X238.777 Y44.092 E1.85746
G1 X239.668 Y45.31 E0.08637
G1 X240.319 Y46.682 E0.08696
G1 X240.753 Y48.619 E0.11363
G1 X240.722 Y50.614 E0.11422
G1 X240.426 Y51.951 E0.07837
G1 X239.906 Y53.228 E0.07891
G1 X238.821 Y54.814 E0.10998
G1 X236.082 Y57.539 E0.2212
G1 X234.684 Y58.501 E0.09714
G1 X233.19 Y59.119 E0.09256
G1 X231.796 Y59.404 E0.08143
G1 X230.752 Y59.422 E0.05976
G1 X229.744 Y61.133 E0.11373
G1 X228.256 Y62.571 E0.11844
G1 X226.4 Y63.61 E0.12174
G1 X224.851 Y64.024 E0.09179
G1 X222.623 Y64.163 E0.12776
G1 X221.418 Y63.958 E0.06996
G1 X220.238 Y63.584 E0.07087
G1 X218.063 Y62.244 E0.14621
G1 X197.646 Y41.772 E1.65502
G1 X196.302 Y39.57 E0.14767
G1 X195.887 Y38.165 E0.08389
G1 X195.724 Y36.642 E0.08765
G1 X196.22 Y36.666 F7800
G1 F1800
G1 X196.402 Y34.879 E0.10285
G1 X196.959 Y33.182 E0.10223
G1 X198.033 Y31.508 E0.11385
G1 X199.387 Y30.273 E0.10487
G1 X201.002 Y29.388 E0.10544
G1 X201.022 Y28.13 E0.07202
G1 X201.293 Y26.812 E0.07702
G1 X201.709 Y25.744 E0.06566
G1 X202.287 Y24.721 E0.06724
G1 X206.168 Y20.861 E0.31329
G1 X207.316 Y20.238 E0.07479
G1 X208.568 Y19.8 E0.07589
G1 X209.854 Y19.603 E0.07452
G1 X211.146 Y19.607 E0.07392
G1 X213.119 Y20.034 E0.11555
G1 X214.41 Y20.656 E0.08203
G1 X215.526 Y21.479 E0.07935
G1 X238.413 Y44.429 E1.85531
G1 X239.231 Y45.544 E0.07921
G1 X239.842 Y46.819 E0.08091
G1 X240.257 Y48.642 E0.10703
G1 X240.233 Y50.532 E0.10819
G1 X239.947 Y51.823 E0.0757
G1 X239.457 Y53.015 E0.07375
G1 X238.426 Y54.514 E0.10414
G1 X235.749 Y57.172 E0.21596
G1 X234.426 Y58.078 E0.0918
G1 X233.067 Y58.638 E0.08411
G1 X231.72 Y58.914 E0.07874
G1 X230.465 Y58.929 E0.0718
G1 X229.375 Y60.801 E0.12398
G1 X227.934 Y62.192 E0.11466
G1 X226.241 Y63.139 E0.11107
G1 X224.794 Y63.531 E0.08582
G1 X222.678 Y63.669 E0.12139
G1 X221.518 Y63.472 E0.06731
G1 X220.417 Y63.121 E0.06617
G1 X218.394 Y61.873 E0.13607
G1 X198.018 Y41.443 E1.65168
G1 X196.768 Y39.398 E0.13719
G1 X196.377 Y38.088 E0.07824
G1 X196.22 Y36.666 E0.08188
G1 X196.716 Y36.689 F7800
G1 F1800
G1 X196.882 Y35.008 E0.0967
G1 X197.42 Y33.366 E0.09888
G1 X198.391 Y31.852 E0.10296
G1 X199.698 Y30.659 E0.1013
G1 X201.369 Y29.753 E0.10879
G1 X201.494 Y29.707 E0.00762
G1 X201.512 Y28.207 E0.08589
G1 X201.774 Y26.933 E0.07445
G1 X202.164 Y25.941 E0.061
G1 X202.702 Y24.995 E0.0623
G1 X206.436 Y21.279 E0.30154
G1 X207.5 Y20.699 E0.06938
G1 X208.667 Y20.287 E0.07083
G1 X209.873 Y20.099 E0.06987
G1 X211.118 Y20.102 E0.07131
G1 X212.931 Y20.494 E0.10615
G1 X214.135 Y21.069 E0.07641
G1 X215.188 Y21.842 E0.07476
G1 X238.048 Y44.765 E1.85313
G1 X238.817 Y45.818 E0.07462
G1 X239.382 Y47.007 E0.07536
G1 X239.767 Y48.722 E0.10063
G1 X239.743 Y50.451 E0.09894
G1 X239.48 Y51.655 E0.07056
G1 X239.009 Y52.802 E0.07098
G1 X238.032 Y54.213 E0.09824
G1 X235.416 Y56.804 E0.21075
G1 X234.168 Y57.654 E0.08644
G1 X232.945 Y58.157 E0.07571
G1 X231.644 Y58.424 E0.07603
G1 X230.129 Y58.437 E0.08672
G1 X230.04 Y58.674 E0.01451
G1 X229.005 Y60.47 E0.11865
G1 X227.663 Y61.777 E0.10722
G1 X226.08 Y62.669 E0.10402
G1 X224.735 Y63.039 E0.07983
G1 X222.731 Y63.176 E0.11499
G1 X221.652 Y62.994 E0.06263
G1 X220.596 Y62.658 E0.06342
G1 X218.724 Y61.503 E0.12593
G1 X198.389 Y41.114 E1.64835
G1 X197.234 Y39.224 E0.12678
G1 X196.867 Y38.01 E0.07262
G1 X196.716 Y36.689 E0.0761
G1 X197.212 Y36.711 F7800
G1 F1800
G1 X197.372 Y35.084 E0.09358
G1 X197.881 Y33.552 E0.09235
G1 X198.79 Y32.149 E0.09572
G1 X200.009 Y31.047 E0.09405
G1 X201.585 Y30.2 E0.10247
G1 X202.045 Y30.045 E0.02779
G1 X201.989 Y29.676 E0.02138
G1 X202.008 Y28.238 E0.08232
G1 X202.255 Y27.055 E0.06914
G1 X202.618 Y26.14 E0.05636
G1 X203.115 Y25.27 E0.0574
G1 X206.705 Y21.697 E0.2899
G1 X207.685 Y21.159 E0.064
G1 X208.767 Y20.773 E0.06575
G1 X209.893 Y20.594 E0.06525
G1 X211.041 Y20.592 E0.06573
G1 X212.745 Y20.954 E0.09971
G1 X213.862 Y21.483 E0.07075
G1 X214.851 Y22.206 E0.07011
G1 X237.684 Y45.101 E1.85091
G1 X238.402 Y46.09 E0.06998
G1 X238.922 Y47.194 E0.06982
G1 X239.271 Y48.746 E0.09106
G1 X239.254 Y50.37 E0.09296
G1 X239.001 Y51.528 E0.06785
G1 X238.561 Y52.588 E0.06568
G1 X237.667 Y53.877 E0.08981
G1 X235.083 Y56.436 E0.20815
G1 X233.954 Y57.206 E0.07823
G1 X232.822 Y57.676 E0.07019
G1 X231.568 Y57.934 E0.07329
G1 X230.194 Y57.945 E0.07865
G1 X229.8 Y57.882 E0.02285
G1 X229.599 Y58.448 E0.03437
G1 X228.633 Y60.14 E0.11155
G1 X227.39 Y61.362 E0.09978
G1 X225.918 Y62.2 E0.09696
G1 X224.675 Y62.546 E0.07385
G1 X222.784 Y62.682 E0.10852
G1 X221.752 Y62.509 E0.05991
G1 X220.776 Y62.195 E0.05864
G1 X219.055 Y61.132 E0.11583
G1 X198.761 Y40.784 E1.64503
G1 X197.698 Y39.05 E0.11643
G1 X197.357 Y37.929 E0.06705
G1 X197.212 Y36.711 E0.07024
G1 X197.708 Y36.732 F7800
G1 F1800
G1 X197.863 Y35.16 E0.0904
G1 X198.34 Y33.74 E0.08574
G1 X199.187 Y32.448 E0.08846
G1 X200.317 Y31.437 E0.0868
G1 X201.799 Y30.647 E0.09615
G1 X202.603 Y30.383 E0.04843
G1 X202.484 Y29.66 E0.04193
G1 X202.503 Y28.269 E0.07967
G1 X202.735 Y27.18 E0.06374
G1 X203.072 Y26.341 E0.05173
G1 X203.529 Y25.545 E0.05254
G1 X206.974 Y22.115 E0.2783
G1 X207.906 Y21.603 E0.06086
G1 X208.91 Y21.247 E0.06099
G1 X209.949 Y21.087 E0.06018
G1 X211.015 Y21.088 E0.06098
G1 X212.56 Y21.415 E0.09042
G1 X213.59 Y21.898 E0.0651
G1 X214.514 Y22.57 E0.06539
G1 X237.319 Y45.438 E1.84869
G1 X237.964 Y46.323 E0.06268
G1 X238.462 Y47.38 E0.06689
G1 X238.781 Y48.825 E0.0847
G1 X238.764 Y50.29 E0.08386
G1 X238.534 Y51.359 E0.06258
G1 X238.114 Y52.373 E0.06287
G1 X237.302 Y53.54 E0.08138
G1 X234.751 Y56.068 E0.20557
G1 X233.739 Y56.759 E0.0701
G1 X232.699 Y57.196 E0.06461
G1 X231.492 Y57.443 E0.0705
G1 X230.213 Y57.449 E0.07322
G1 X229.469 Y57.322 E0.0432
G1 X229.156 Y58.223 E0.05459
G1 X228.259 Y59.812 E0.10444
G1 X227.114 Y60.948 E0.09233
G1 X225.754 Y61.732 E0.08988
G1 X224.613 Y62.054 E0.06785
G1 X222.836 Y62.188 E0.10202
G1 X221.886 Y62.031 E0.05509
G1 X220.957 Y61.733 E0.05587
G1 X219.385 Y60.762 E0.10574
G1 X199.132 Y40.455 E1.64171
G1 X198.163 Y38.874 E0.10615
G1 X197.846 Y37.846 E0.06154
G1 X197.708 Y36.732 E0.06429
G1 X198.204 Y36.752 F7800
G1 F1800
G1 X198.353 Y35.237 E0.08715
G1 X198.799 Y33.931 E0.07903
G1 X199.582 Y32.748 E0.08117
G1 X200.623 Y31.827 E0.07956
G1 X202.012 Y31.095 E0.08985
G1 X202.794 Y30.842 E0.04707
G1 X203.215 Y30.774 E0.02441
G1 X203.132 Y30.538 E0.01433
G1 X202.98 Y29.643 E0.05195
G1 X202.993 Y28.346 E0.07422
G1 X203.203 Y27.344 E0.05863
G1 X203.525 Y26.542 E0.04948
G1 X203.942 Y25.821 E0.04764
G1 X207.244 Y22.532 E0.26683
G1 X208.092 Y22.063 E0.05546
G1 X209.011 Y21.733 E0.05585
G1 X209.969 Y21.583 E0.05551
G1 X210.989 Y21.583 E0.0584
G1 X212.376 Y21.876 E0.08112
G1 X213.358 Y22.337 E0.06211
G1 X214.177 Y22.933 E0.05801
G1 X236.955 Y45.774 E1.84646
M73 P2 R60
G1 X237.549 Y46.594 E0.05799
G1 X238.002 Y47.565 E0.0613
G1 X238.285 Y48.849 E0.07526
G1 X238.274 Y50.21 E0.07794
G1 X238.054 Y51.232 E0.05983
G1 X237.667 Y52.158 E0.05744
G1 X236.937 Y53.204 E0.07303
G1 X234.418 Y55.7 E0.203
G1 X233.523 Y56.312 E0.06207
G1 X232.575 Y56.715 E0.05896
G1 X231.417 Y56.953 E0.06766
G1 X230.234 Y56.954 E0.06771
G1 X229.284 Y56.787 E0.05523
G1 X229.075 Y56.713 E0.01266
G1 X228.985 Y57.214 E0.02916
G1 X228.713 Y58.001 E0.04768
G1 X227.884 Y59.486 E0.09736
G1 X226.837 Y60.536 E0.08487
G1 X225.587 Y61.264 E0.08279
G1 X224.549 Y61.562 E0.06185
G1 X222.887 Y61.694 E0.09544
G1 X221.985 Y61.545 E0.0523
G1 X221.138 Y61.27 E0.05099
G1 X219.716 Y60.391 E0.09571
G1 X199.504 Y40.125 E1.6384
G1 X198.627 Y38.697 E0.09594
G1 X198.335 Y37.761 E0.0561
G1 X198.204 Y36.752 E0.05824
G1 X198.7 Y36.772 F7800
G1 F1800
G1 X198.843 Y35.315 E0.08381
G1 X199.257 Y34.123 E0.07221
G1 X199.975 Y33.051 E0.07387
G1 X200.927 Y32.22 E0.07233
G1 X202.184 Y31.561 E0.08126
G1 X202.928 Y31.32 E0.04474
G1 X203.52 Y31.228 E0.03433
G1 X203.806 Y30.945 E0.02306
G1 X203.617 Y30.432 E0.03127
G1 X203.472 Y29.582 E0.04938
G1 X203.483 Y28.423 E0.06634
