; generated by SuperSlicer 2.4 on 2023-11-18 at 20:25:03 UTC


;
;

;
;
; 

; external perimeters extrusion width = 0.42mm
; perimeters extrusion width = 0.44mm
; infill extrusion width = 0.44mm
; solid infill extrusion width = 0.44mm
; top infill extrusion width = 0.42mm
; first layer extrusion width = 0.56mm

; object:{"name":"back_left_skirt_corner (1)","id":"back_left_skirt_corner (1).stl id:0 copy 0","object_center":[92.102405,58.334277,0.000000],"boundingbox_center":[92.102405,58.334277,17.481121],"boundingbox_size":[73.351913,49.000008,34.962242]}
; plater:{"center":[92.102405,58.334277,0.000000],"boundingbox_center":[92.102405,58.334277,17.481121],"boundingbox_size":[73.351913,49.000008,34.962242]}

M73 P0 R102


; Pre-Processed for Cancel-Object support by preprocess_cancellation v0.2.0
; 1 known objects
EXCLUDE_OBJECT_DEFINE NAME=back_left_skirt_corner_1_stl_id_0_copy_0 CENTER=82.919,56.561 POLYGON=[[54.965,33.603],[54.965,83.066],[129.22,83.066],[129.22,33.603]]
;TYPE:Custom
; custom gcode: start_gcode
M104 S0 ; Stops SuperSlicer from sending temp waits separately
M140 S0
print_start EXTRUDER=220 BED=105 CHAMBER=40
; custom gcode end: start_gcode
M107
G21 ; set units to millimeters
G90 ; use absolute coordinates
M83 ; use relative distances for extrusion
; custom gcode: start_filament_gcode
; Filament gcode
; Macro syntax: https://help.prusa3d.com/article/macros_1775

; Set pressure advance per-filament
;SET_PRESSURE_ADVANCE ADVANCE=0.0372

; Set pressure advance per-filament for different nozzle sizes
;SET_PRESSURE_ADVANCE ADVANCE=0.0x
;

; custom gcode end: start_filament_gcode
;_TOOLCHANGE 0
;LAYER_CHANGE
;Z:0.3
;HEIGHT:0.3
G1 Z0.3 F7800
G92 E0
G10 ; retract
G1 Z0.6
G1 X39.189 Y22.478
G1 Z0.3
G11 ; unretract
;TYPE:Skirt
;WIDTH:0.52
G1 F1800
G1 X38.792 Y24.665 E0.11699
G1 X38.792 Y93.021 E3.59703
G1 X39.537 Y95.975 E0.16029
G1 X40.924 Y97.712 E0.11699
G1 X42.833 Y98.852 E0.11699
G1 X45.02 Y99.249 E0.11699
G1 X97.062 Y99.249 E2.73856
G1 X98.969 Y99.167 E0.10045
G1 X101.38 Y98.856 E0.12789
G1 X103.751 Y98.323 E0.12789
G1 X106.113 Y97.547 E0.13087
G1 X154.503 Y78.681 E2.73304
G1 X157.121 Y76.747 E0.17125
G1 X158.169 Y74.787 E0.11699
G1 X158.461 Y72.583 E0.11699
G1 X157.961 Y70.417 E0.11699
G1 X137.218 Y22.204 E2.76193
G1 X135.593 Y19.974 E0.14518
G1 X133.684 Y18.834 E0.11699
G1 X131.497 Y18.438 E0.11699
G1 X45.02 Y18.438 E4.55059
G1 X42.066 Y19.182 E0.16029
G1 X40.329 Y20.569 E0.11699
G1 X39.189 Y22.478 E0.11699
G10 ; retract
G1 Z0.6 F7800
G1 X47.457 Y28.621
G1 Z0.3
G11 ; unretract
;WIDTH:0.56
G1 F1800
G1 X48.834 Y27.216 E0.11258
G1 X50.177 Y26.27 E0.09405
G1 X51.695 Y25.552 E0.09613
G1 X54.351 Y25.001 E0.15526
G1 X122.171 Y25.006 E3.88214
G1 X123.893 Y25.273 E0.09977
G1 X125.567 Y25.863 E0.10161
G1 X127.493 Y27.061 E0.12984
G1 X128.644 Y28.141 E0.09032
G1 X129.617 Y29.361 E0.08934
G1 X130.707 Y31.642 E0.14468
G1 X131.135 Y33.715 E0.12119
G1 X131.155 Y43.514 E0.56095
G1 X130.766 Y45.994 E0.14366
G1 X129.725 Y48.493 E0.15496
G1 X128.493 Y50.232 E0.12202
G1 X127.32 Y51.396 E0.09457
G1 X126.891 Y51.717 E0.0307
G1 X128.323 Y53.005 E0.11024
G1 X129.757 Y54.992 E0.14029
G1 X130.667 Y57.105 E0.13169
G1 X131.096 Y59.224 E0.12374
G1 X131.13 Y61.088 E0.10672
G1 X135.036 Y63.373 E0.259
G1 X136.176 Y64.353 E0.08606
G1 X137.15 Y65.514 E0.08676
G1 X138.132 Y67.261 E0.11471
G1 X138.686 Y68.977 E0.10321
G1 X138.889 Y70.57 E0.09194
G1 X138.777 Y72.641 E0.11871
G1 X138.457 Y74.089 E0.08488
G1 X137.396 Y76.387 E0.14487
G1 X136.455 Y77.611 E0.08839
G1 X135.307 Y78.699 E0.09051
G1 X133.49 Y79.818 E0.1222
G1 X103.834 Y91.391 E1.82221
G1 X101.978 Y91.997 E0.11176
G1 X100.36 Y92.365 E0.095
G1 X98.714 Y92.595 E0.09512
G1 X96.942 Y92.686 E0.10158
G1 X54.391 Y92.686 E2.43572
G1 X52.472 Y92.374 E0.11128
G1 X50.614 Y91.658 E0.11399
G1 X48.976 Y90.584 E0.11213
G1 X47.571 Y89.208 E0.11258
G1 X46.624 Y87.865 E0.09405
G1 X45.907 Y86.346 E0.09613
G1 X45.356 Y83.691 E0.15524
G1 X45.356 Y34.036 E2.84234
G1 X45.668 Y32.117 E0.11128
G1 X46.383 Y30.259 E0.11399
G1 X47.457 Y28.621 E0.11213
G1 X47.858 Y28.914 F7800
G1 F1800
G1 X49.171 Y27.58 E0.10717
G1 X50.444 Y26.688 E0.08897
G1 X51.879 Y26.013 E0.09081
G1 X54.376 Y25.496 E0.14594
G1 X122.151 Y25.501 E3.87959
G1 X123.793 Y25.759 E0.09515
G1 X125.376 Y26.321 E0.09615
G1 X127.172 Y27.439 E0.12109
G1 X128.292 Y28.49 E0.08788
G1 X129.211 Y29.648 E0.08464
G1 X130.228 Y31.772 E0.13482
G1 X130.64 Y33.741 E0.11515
G1 X130.659 Y43.496 E0.55837
G1 X130.281 Y45.887 E0.13859
G1 X129.304 Y48.229 E0.14526
G1 X128.128 Y49.896 E0.11676
G1 X126.983 Y51.032 E0.09231
G1 X126.044 Y51.728 E0.06693
G1 X126.415 Y51.957 E0.02495
G1 X127.938 Y53.317 E0.11686
G1 X129.313 Y55.214 E0.13413
G1 X130.186 Y57.229 E0.1257
G1 X130.606 Y59.3 E0.12095
M73 P0 R101
G1 X130.639 Y61.375 E0.11878
G1 X134.766 Y63.79 E0.27368
G1 X135.81 Y64.688 E0.07882
G1 X136.729 Y65.778 E0.08162
G1 X137.687 Y67.482 E0.11193
G1 X138.207 Y69.106 E0.09762
G1 X138.393 Y70.566 E0.08422
G1 X138.283 Y72.594 E0.11628
G1 X137.995 Y73.906 E0.07689
G1 X136.986 Y76.107 E0.13858
G1 X136.074 Y77.294 E0.08567
G1 X134.986 Y78.321 E0.08567
G1 X133.289 Y79.365 E0.11404
G1 X103.661 Y90.927 E1.82054
G1 X101.857 Y91.517 E0.10859
G1 X100.261 Y91.879 E0.09374
G1 X98.657 Y92.103 E0.09269
G1 X96.936 Y92.19 E0.09863
G1 X54.411 Y92.19 E2.4342
G1 X52.578 Y91.889 E0.10635
G1 X50.818 Y91.206 E0.10808
G1 X49.269 Y90.184 E0.10623
G1 X47.934 Y88.87 E0.10717
G1 X47.042 Y87.598 E0.08897
G1 X46.367 Y86.162 E0.09081
G1 X45.851 Y83.666 E0.14591
G1 X45.851 Y34.056 E2.83974
G1 X46.152 Y32.223 E0.10635
G1 X46.836 Y30.463 E0.10808
G1 X47.858 Y28.914 E0.10623
G1 X48.257 Y29.208 F7800
G1 F1800
G1 X49.507 Y27.944 E0.10176
G1 X50.71 Y27.106 E0.08388
G1 X52.063 Y26.474 E0.08551
G1 X54.401 Y25.992 E0.13666
G1 X122.132 Y25.997 E3.87703
G1 X123.693 Y26.245 E0.09048
G1 X125.184 Y26.779 E0.09069
G1 X126.851 Y27.817 E0.11239
G1 X127.939 Y28.839 E0.08544
G1 X128.805 Y29.933 E0.07991
G1 X129.749 Y31.904 E0.12506
G1 X130.144 Y33.768 E0.10907
G1 X130.164 Y43.477 E0.55577
G1 X129.796 Y45.779 E0.13348
G1 X128.858 Y48.012 E0.13862
G1 X127.736 Y49.591 E0.11086
G1 X126.648 Y50.667 E0.08759
G1 X125.563 Y51.467 E0.07714
G1 X125.101 Y51.738 E0.03067
G1 X126.102 Y52.342 E0.06693
G1 X127.588 Y53.669 E0.11403
G1 X128.87 Y55.437 E0.125
G1 X129.705 Y57.353 E0.11968
G1 X130.115 Y59.376 E0.11813
G1 X130.148 Y61.661 E0.13084
G1 X134.496 Y64.206 E0.28838
G1 X135.471 Y65.05 E0.07381
G1 X136.309 Y66.042 E0.07434
G1 X137.223 Y67.657 E0.10626
G1 X137.728 Y69.236 E0.09485
G1 X137.898 Y70.605 E0.079
G1 X137.79 Y72.547 E0.11131
G1 X137.517 Y73.773 E0.07193
G1 X136.575 Y75.827 E0.12933
G1 X135.693 Y76.976 E0.08292
G1 X134.665 Y77.943 E0.08079
G1 X133.088 Y78.911 E0.10592
G1 X103.487 Y90.463 E1.81888
G1 X101.736 Y91.036 E0.10544
G1 X100.182 Y91.39 E0.09126
G1 X98.599 Y91.61 E0.09146
G1 X96.93 Y91.695 E0.09569
G1 X54.432 Y91.695 E2.43267
G1 X52.685 Y91.404 E0.10137
G1 X51.023 Y90.754 E0.10214
G1 X49.563 Y89.784 E0.10033
G1 X48.299 Y88.534 E0.10176
G1 X47.461 Y87.332 E0.08388
G1 X46.829 Y85.978 E0.08551
G1 X46.347 Y83.641 E0.13664
G1 X46.347 Y34.077 E2.83713
M73 P1 R101
G1 X46.637 Y32.33 E0.10137
G1 X47.288 Y30.668 E0.10214
G1 X48.257 Y29.208 E0.10033
G1 X48.656 Y29.504 F7800
G1 F1800
G1 X49.843 Y28.31 E0.09637
G1 X50.974 Y27.526 E0.07879
G1 X52.246 Y26.936 E0.08023
G1 X54.426 Y26.488 E0.12744
G1 X122.112 Y26.492 E3.87445
G1 X123.591 Y26.731 E0.08576
G1 X124.992 Y27.236 E0.08523
G1 X126.529 Y28.196 E0.10375
G1 X127.587 Y29.187 E0.08298
G1 X128.399 Y30.219 E0.07515
G1 X129.271 Y32.037 E0.1154
G1 X129.649 Y33.795 E0.10295
G1 X129.668 Y43.458 E0.55313
G1 X129.311 Y45.671 E0.12833
G1 X128.412 Y47.793 E0.13195
G1 X127.345 Y49.286 E0.10499
G1 X126.339 Y50.278 E0.08091
G1 X125.28 Y51.06 E0.07536
G1 X124.126 Y51.732 E0.07641
G1 X125.789 Y52.727 E0.11095
G1 X127.238 Y54.021 E0.11116
G1 X128.427 Y55.66 E0.11592
G1 X129.225 Y57.478 E0.11367
G1 X129.62 Y59.406 E0.11264
G1 X129.656 Y61.948 E0.14553
G1 X134.189 Y64.596 E0.30047
G1 X135.132 Y65.412 E0.07138
G1 X135.915 Y66.343 E0.06967
G1 X136.759 Y67.833 E0.09799
G1 X137.249 Y69.364 E0.09204
G1 X137.403 Y70.643 E0.07372
G1 X137.296 Y72.498 E0.10636
G1 X137.039 Y73.639 E0.06698
G1 X136.165 Y75.548 E0.12018
G1 X135.339 Y76.629 E0.07786
G1 X134.344 Y77.564 E0.07818
G1 X132.887 Y78.457 E0.0978
G1 X103.313 Y89.999 E1.81722
G1 X101.615 Y90.555 E0.10229
G1 X100.082 Y90.904 E0.08999
G1 X98.542 Y91.118 E0.08901
G1 X96.923 Y91.199 E0.09276
G1 X54.452 Y91.199 E2.43114
G1 X52.792 Y90.92 E0.09634
G1 X51.23 Y90.303 E0.09618
G1 X49.858 Y89.385 E0.09444
G1 X48.665 Y88.198 E0.09637
G1 X47.881 Y87.067 E0.07879
G1 X47.29 Y85.796 E0.08023
G1 X46.842 Y83.615 E0.12742
G1 X46.842 Y34.097 E2.83451
G1 X47.122 Y32.438 E0.09634
G1 X47.739 Y30.875 E0.09618
G1 X48.656 Y29.504 E0.09444
G1 X49.054 Y29.8 F7800
G1 F1800
G1 X50.177 Y28.676 E0.09099
G1 X51.238 Y27.946 E0.0737
G1 X52.427 Y27.398 E0.07497
G1 X54.451 Y26.983 E0.11827
G1 X122.092 Y26.988 E3.87187
G1 X123.488 Y27.216 E0.08099
G1 X124.798 Y27.693 E0.07978
G1 X126.208 Y28.574 E0.09517
G1 X127.234 Y29.536 E0.08051
G1 X127.992 Y30.503 E0.07037
G1 X128.793 Y32.17 E0.10586
G1 X129.153 Y33.822 E0.09678
G1 X129.172 Y43.439 E0.55046
G1 X128.827 Y45.562 E0.12314
G1 X127.967 Y47.574 E0.12525
G1 X126.955 Y48.979 E0.09913
G1 X126.031 Y49.89 E0.07429
G1 X124.997 Y50.653 E0.07357
G1 X123.149 Y51.726 E0.12232
G1 X125.477 Y53.113 E0.15512
G1 X126.888 Y54.373 E0.10827
G1 X127.984 Y55.885 E0.1069
G1 X128.745 Y57.604 E0.10762
G1 X129.13 Y59.483 E0.10977
G1 X129.164 Y62.235 E0.15757
G1 X133.883 Y64.986 E0.31266
G1 X134.765 Y65.746 E0.06666
G1 X135.521 Y66.645 E0.06722
G1 X136.294 Y68.008 E0.08972
G1 X136.769 Y69.493 E0.08921
G1 X136.909 Y70.679 E0.06837
G1 X136.803 Y72.448 E0.10144
G1 X136.562 Y73.504 E0.06204
G1 X135.754 Y75.269 E0.11109
G1 X134.958 Y76.311 E0.07509
G1 X134.024 Y77.185 E0.07321
G1 X132.687 Y78.004 E0.08974
G1 X103.139 Y89.534 E1.81557
G1 X101.494 Y90.075 E0.09915
G1 X100.003 Y90.415 E0.08749
G1 X98.485 Y90.625 E0.08777
G1 X96.917 Y90.703 E0.08983
G1 X54.473 Y90.703 E2.42961
G1 X52.95 Y90.449 E0.08836
G1 X51.437 Y89.851 E0.09315
G1 X50.155 Y88.988 E0.08847
G1 X49.031 Y87.864 E0.09099
G1 X48.301 Y86.803 E0.0737
G1 X47.752 Y85.614 E0.07497
G1 X47.338 Y83.59 E0.11825
G1 X47.338 Y34.118 E2.8319
G1 X47.592 Y32.595 E0.08835
G1 X48.19 Y31.082 E0.09314
G1 X49.054 Y29.8 E0.08847
G1 X49.45 Y30.098 F7800
G1 F1800
G1 X50.511 Y29.044 E0.08563
G1 X51.5 Y28.367 E0.06861
G1 X52.608 Y27.86 E0.06973
G1 X54.476 Y27.479 E0.10915
G1 X122.071 Y27.484 E3.86927
G1 X123.384 Y27.701 E0.07616
G1 X124.602 Y28.149 E0.0743
G1 X125.924 Y28.98 E0.08934
G1 X126.88 Y29.883 E0.07529
G1 X127.585 Y30.787 E0.06563
G1 X128.315 Y32.306 E0.09643
G1 X128.657 Y33.85 E0.09056
G1 X128.677 Y43.419 E0.54775
G1 X128.343 Y45.451 E0.1179
G1 X127.522 Y47.352 E0.11851
G1 X126.593 Y48.641 E0.09094
G1 X125.696 Y49.524 E0.07208
G1 X124.714 Y50.246 E0.06974
G1 X122.575 Y51.486 E0.14152
G1 X122.575 Y51.962 E0.02726
G1 X125.166 Y53.499 E0.17242
G1 X126.503 Y54.686 E0.10237
G1 X127.541 Y56.11 E0.10085
G1 X128.281 Y57.78 E0.10456
G1 X128.639 Y59.558 E0.10381
G1 X128.672 Y62.522 E0.16968
G1 X133.577 Y65.377 E0.32487
G1 X134.427 Y66.108 E0.06419
G1 X135.127 Y66.946 E0.06247
G1 X135.83 Y68.184 E0.08152
G1 X136.29 Y69.62 E0.08635
G1 X136.414 Y70.713 E0.06295
G1 X136.309 Y72.397 E0.09655
G1 X136.084 Y73.368 E0.0571
G1 X135.343 Y74.991 E0.10212
G1 X134.604 Y75.964 E0.06993
G1 X133.703 Y76.806 E0.07057
G1 X132.486 Y77.55 E0.08168
G1 X102.965 Y89.07 E1.81393
G1 X101.372 Y89.594 E0.09601
G1 X99.904 Y89.929 E0.08621
G1 X98.428 Y90.133 E0.08529
G1 X96.911 Y90.208 E0.08691
G1 X54.493 Y90.208 E2.42807
G1 X53.059 Y89.965 E0.08329
G1 X51.645 Y89.401 E0.08711
G1 X50.453 Y88.591 E0.0825
G1 X49.398 Y87.531 E0.08562
G1 X48.722 Y86.541 E0.06861
G1 X48.215 Y85.433 E0.06973
G1 X47.834 Y83.565 E0.10914
G1 X47.834 Y34.139 E2.82928
G1 X48.076 Y32.704 E0.08329
G1 X48.64 Y31.291 E0.08711
G1 X49.45 Y30.098 E0.08251
G1 X49.846 Y30.398 F7800
G1 F1800
G1 X50.843 Y29.412 E0.08028
G1 X51.761 Y28.789 E0.0635
G1 X52.787 Y28.323 E0.06453
G1 X54.501 Y27.974 E0.1001
G1 X122.051 Y27.979 E3.86669
G1 X123.236 Y28.175 E0.06878
G1 X124.361 Y28.583 E0.06847
G1 X125.639 Y29.387 E0.08641
G1 X126.525 Y30.23 E0.07004
G1 X127.15 Y31.026 E0.05794
G1 X127.856 Y32.494 E0.09325
G1 X128.162 Y33.878 E0.0811
G1 X128.181 Y43.4 E0.54507
G1 X127.876 Y45.283 E0.10921
G1 X127.078 Y47.131 E0.11521
G1 X126.23 Y48.302 E0.08276
G1 X125.361 Y49.159 E0.06986
G1 X124.432 Y49.838 E0.06587
G1 X122.079 Y51.2 E0.15561
G1 X122.079 Y52.245 E0.0598
G1 X124.855 Y53.886 E0.1846
G1 X126.119 Y55.001 E0.09648
G1 X127.099 Y56.335 E0.09473
G1 X127.817 Y57.955 E0.10145
G1 X128.149 Y59.631 E0.0978
G1 X128.179 Y62.809 E0.18188
G1 X133.271 Y65.767 E0.3371
G1 X134.088 Y66.47 E0.0617
G1 X134.731 Y67.245 E0.05765
G1 X135.386 Y68.405 E0.07624
G1 X135.81 Y69.746 E0.08053
G1 X135.919 Y70.746 E0.05753
G1 X135.816 Y72.344 E0.0917
G1 X135.607 Y73.231 E0.05216
G1 X134.932 Y74.713 E0.09323
G1 X134.222 Y75.647 E0.06713
G1 X133.384 Y76.426 E0.06549
G1 X132.286 Y77.096 E0.07368
G1 X102.791 Y88.606 E1.8123
G1 X101.25 Y89.113 E0.09287
G1 X99.804 Y89.444 E0.08493
G1 X98.371 Y89.641 E0.0828
G1 X96.905 Y89.712 E0.084
G1 X54.515 Y89.712 E2.42652
G1 X53.169 Y89.481 E0.07816
G1 X51.856 Y88.951 E0.08104
G1 X50.753 Y88.196 E0.07654
G1 X49.767 Y87.198 E0.08028
G1 X49.144 Y86.28 E0.0635
G1 X48.678 Y85.254 E0.06453
G1 X48.329 Y83.54 E0.10009
G1 X48.329 Y34.16 E2.82665
G1 X48.56 Y32.814 E0.07816
G1 X49.09 Y31.501 E0.08104
G1 X49.846 Y30.398 E0.07654
G1 X50.24 Y30.699 F7800
G1 F1800
G1 X51.174 Y29.782 E0.07496
G1 X52.02 Y29.212 E0.05839
G1 X52.966 Y28.786 E0.05935
G1 X54.526 Y28.47 E0.09112
G1 X122.031 Y28.475 E3.86411
G1 X123.089 Y28.649 E0.06139
G1 X124.167 Y29.04 E0.06561
G1 X125.352 Y29.792 E0.08039
G1 X126.169 Y30.575 E0.06479
G1 X126.743 Y31.31 E0.05334
G1 X127.396 Y32.682 E0.087
G1 X127.666 Y33.905 E0.07171
G1 X127.685 Y43.381 E0.5424
G1 X127.408 Y45.116 E0.10059
G1 X126.661 Y46.863 E0.10874
G1 X125.841 Y47.995 E0.08
G1 X125.053 Y48.77 E0.06324
G1 X124.172 Y49.416 E0.06255
G1 X121.584 Y50.914 E0.1712
G1 X121.584 Y52.528 E0.09236
G1 X124.546 Y54.274 E0.19685
G1 X125.736 Y55.317 E0.09054
G1 X126.684 Y56.606 E0.09162
G1 X127.352 Y58.129 E0.0952
G1 X127.658 Y59.704 E0.0918
G1 X127.685 Y63.095 E0.19416
G1 X132.965 Y66.158 E0.34936
G1 X133.748 Y66.832 E0.05917
G1 X134.335 Y67.543 E0.05276
G1 X134.941 Y68.625 E0.07096
G1 X135.329 Y69.87 E0.0747
G1 X135.424 Y70.776 E0.05211
G1 X135.323 Y72.29 E0.08689
G1 X135.131 Y73.093 E0.04723
G1 X134.52 Y74.436 E0.08448
G1 X133.869 Y75.299 E0.06185
G1 X133.065 Y76.046 E0.06281
G1 X132.085 Y76.642 E0.06568
G1 X102.617 Y88.142 E1.81068
G1 X101.129 Y88.633 E0.08973
G1 X99.704 Y88.958 E0.08363
G1 X98.314 Y89.148 E0.0803
G1 X96.899 Y89.216 E0.08111
G1 X54.536 Y89.216 E2.42495
M73 P1 R100
G1 X53.28 Y88.997 E0.07297
G1 X52.068 Y88.503 E0.07494
G1 X51.054 Y87.801 E0.07057
G1 X50.136 Y86.867 E0.07496
G1 X49.567 Y86.021 E0.05839
G1 X49.141 Y85.076 E0.05935
G1 X48.825 Y83.516 E0.0911
G1 X48.825 Y34.181 E2.824
G1 X49.044 Y32.925 E0.07297
G1 X49.539 Y31.713 E0.07494
G1 X50.24 Y30.699 E0.07057
G1 X50.633 Y31.002 F7800
G1 F1800
G1 X51.504 Y30.152 E0.06966
G1 X52.278 Y29.636 E0.05327
G1 X53.143 Y29.25 E0.05421
G1 X54.551 Y28.966 E0.0822
G1 X122.01 Y28.971 E3.86152
G1 X122.984 Y29.134 E0.05655
G1 X123.97 Y29.496 E0.06013
G1 X125.064 Y30.196 E0.07435
G1 X125.812 Y30.919 E0.05955
G1 X126.335 Y31.592 E0.04877
G1 X126.936 Y32.868 E0.08075
G1 X127.171 Y33.933 E0.06241
G1 X127.19 Y43.362 E0.53975
G1 X126.94 Y44.951 E0.09204
G1 X126.243 Y46.595 E0.10222
G1 X125.452 Y47.687 E0.07721
G1 X124.746 Y48.381 E0.05665
G1 X123.912 Y48.994 E0.05922
G1 X121.088 Y50.629 E0.18679
G1 X121.088 Y52.811 E0.12495
G1 X124.238 Y54.663 E0.20917
G1 X125.353 Y55.632 E0.08453
G1 X126.268 Y56.877 E0.08845
G1 X126.886 Y58.302 E0.08888
G1 X127.167 Y59.774 E0.08581
G1 X127.192 Y63.382 E0.20653
G1 X132.659 Y66.549 E0.36164
G1 X133.409 Y67.194 E0.05662
G1 X133.937 Y67.84 E0.04779
G1 X134.495 Y68.843 E0.0657
G1 X134.848 Y69.992 E0.06883
