; generated by SuperSlicer 2.4 on 2023-11-04 at 13:54:50 UTC


;
;

;
;
; 

; external perimeters extrusion width = 0.42mm
; perimeters extrusion width = 0.44mm
; infill extrusion width = 0.44mm
; solid infill extrusion width = 0.44mm
; top infill extrusion width = 0.42mm
; first layer extrusion width = 0.56mm

; external perimeters extrusion width = 0.42mm
; perimeters extrusion width = 0.44mm
; infill extrusion width = 0.44mm
; solid infill extrusion width = 0.44mm
; top infill extrusion width = 0.42mm
; first layer extrusion width = 0.56mm

; object:{"name":"NeoPixel_Mount","id":"NeoPixel_Mount.stl id:0 copy 0","object_center":[125.066249,64.826366,0.000000],"boundingbox_center":[125.066249,64.826366,4.467964],"boundingbox_size":[31.263332,31.296812,8.935928]}
; object:{"name":"NeoPixel_Soldering_Jig","id":"NeoPixel_Soldering_Jig.stl id:1 copy 0","object_center":[143.223117,46.669497,0.000000],"boundingbox_center":[143.223117,46.669497,3.092157],"boundingbox_size":[45.184801,45.184801,6.184314]}
; plater:{"center":[137.625050,52.275934,0.000000],"boundingbox_center":[137.625050,52.275934,4.467964],"boundingbox_size":[56.380934,56.397676,8.935928]}

M73 P0 R24


; Pre-Processed for Cancel-Object support by preprocess_cancellation v0.2.0
; 2 known objects
EXCLUDE_OBJECT_DEFINE NAME=NeoPixel_Mount_stl_id_0_copy_0 CENTER=125.102,64.811 POLYGON=[[109.459,49.214],[109.459,80.45],[140.662,80.45],[140.662,49.214]]
EXCLUDE_OBJECT_DEFINE NAME=NeoPixel_Soldering_Jig_stl_id_1_copy_0 CENTER=143.277,46.596 POLYGON=[[120.435,23.882],[120.435,69.458],[166.011,69.458],[166.011,23.882]]
;TYPE:Custom
; custom gcode: start_gcode
M104 S0 ; Stops SuperSlicer from sending temp waits separately
M140 S0
print_start EXTRUDER=220 BED=105 CHAMBER=40
; custom gcode end: start_gcode
M107
G21 ; set units to millimeters
G90 ; use absolute coordinates
M83 ; use relative distances for extrusion
; custom gcode: start_filament_gcode
; Filament gcode
; Macro syntax: https://help.prusa3d.com/article/macros_1775

; Set pressure advance per-filament
;SET_PRESSURE_ADVANCE ADVANCE=0.0372

; Set pressure advance per-filament for different nozzle sizes
;SET_PRESSURE_ADVANCE ADVANCE=0.0x
;

; custom gcode end: start_filament_gcode
;_TOOLCHANGE 0
;LAYER_CHANGE
;Z:0.3
;HEIGHT:0.3
G1 Z0.3 F7800
G92 E0
M73 P1 R24
G1 E-0.6 F1800
G1 Z0.6 F7800
G1 X105.84 Y56.028
G1 Z0.3
G1 E0.6 F1800
;TYPE:Skirt
;WIDTH:0.52
G1 X105.682 Y56.325 E0.01771
G1 X105.223 Y57.442 E0.06356
G1 X104.972 Y59.651 E0.11699
G1 X105.513 Y61.808 E0.11699
G1 X106.777 Y63.637 E0.11699
G1 X126.199 Y83.111 E1.44732
G1 X127.141 Y83.886 E0.06419
G1 X129.179 Y84.774 E0.11699
G1 X131.399 Y84.89 E0.11699
G1 X133.518 Y84.219 E0.11699
G1 X151.303 Y74.822 E1.05846
G1 X152.309 Y74.163 E0.06331
G1 X152.965 Y73.592 E0.04578
G1 X170.141 Y56.397 E1.2789
G1 X170.824 Y55.591 E0.05558
G1 X171.656 Y54.102 E0.08977
G1 X172.148 Y52.071 E0.10996
G1 X172.116 Y50.526 E0.0813
G1 X171.735 Y49.031 E0.08121
G1 X170.821 Y47.337 E0.10129
G1 X170.138 Y46.532 E0.05552
G1 X143.36 Y19.755 E1.99277
G1 X142.396 Y18.961 E0.06574
G1 X140.889 Y18.166 E0.08966
G1 X139.366 Y17.777 E0.08269
G1 X138.178 Y17.72 E0.0626
G1 X136.652 Y17.946 E0.08117
G1 X135.213 Y18.501 E0.08117
G1 X133.992 Y19.305 E0.07691
G1 X116.301 Y36.927 E1.31402
G1 X115.73 Y37.584 E0.0458
G1 X115.073 Y38.586 E0.06305
G1 X105.84 Y56.028 E1.03848
M104 S220 ; set temperature
G1 E-0.6
G1 Z0.6 F7800
; printing object NeoPixel_Mount.stl id:0 copy 0
EXCLUDE_OBJECT_START NAME=NeoPixel_Mount_stl_id_0_copy_0
M73 P1 R23
G1 X125.425 Y70.115
G1 Z0.3
G1 E0.6 F1800
;TYPE:Internal perimeter
;WIDTH:0.56
G1 X130.258 Y74.962 E0.39182
G1 X135.105 Y70.128 E0.39182
G1 X130.272 Y65.281 E0.39182
G1 X127.851 Y67.695 E0.19568
G1 X125.425 Y70.115 E0.19614
G1 X126.126 Y70.116 F7800
;TYPE:External perimeter
G1 F1800
G1 X130.259 Y74.261 E0.33508
G1 X134.404 Y70.127 E0.33508
M73 P2 R23
G1 X130.271 Y65.982 E0.33508
G1 X128.201 Y68.046 E0.16731
G1 X126.126 Y70.116 E0.16777
;WIPE_START
G1 X125.843 Y70.398 F7800
;WIPE_END
G1 E-0.6 F1800
G1 Z0.6 F7800
G1 X119.77 Y65.147
G1 Z0.3
G1 E0.6 F1800
;TYPE:Internal perimeter
G1 X125.402 Y59.531 E0.45524
G1 X130.355 Y64.498 E0.40154
G1 X127.501 Y67.344 E0.23072
G1 X124.724 Y70.114 E0.22451
G1 X130.259 Y75.665 E0.44873
G1 X130.11 Y75.868 E0.01445
G1 X129.915 Y76.217 E0.0229
G1 X113.681 Y59.94 E1.31597
G1 X114.039 Y59.741 E0.02343
G1 X114.234 Y59.595 E0.01394
G1 X119.77 Y65.147 E0.44882
G1 E-0.6
G1 Z0.6 F7800
G1 X134.364 Y71.567
G1 Z0.3
G1 E0.6 F1800
G1 X135.888 Y70.047 E0.1232
G1 X137.338 Y71.5 E0.11751
G1 X137.186 Y71.764 E0.01739
G1 X136.56 Y71.597 E0.0371
G1 X135.875 Y71.552 E0.03929
G1 X135.17 Y71.64 E0.04067
G1 X134.699 Y71.774 E0.02805
G1 X134.545 Y71.837 E0.00951
G1 X134.364 Y71.567 E0.01863
G1 E-0.6
G1 Z0.6 F7800
G1 X118.083 Y55.341
G1 Z0.3
G1 E0.6 F1800
G1 X118.273 Y54.703 E0.03808
G1 X118.364 Y53.985 E0.04145
G1 X118.309 Y53.248 E0.04233
G1 X118.16 Y52.685 E0.0333
G1 X118.423 Y52.534 E0.01742
G1 X119.868 Y53.983 E0.11712
G1 X118.348 Y55.499 E0.12293
G1 X118.083 Y55.341 E0.01765
G1 E-0.6
G1 Z0.6 F7800
G1 X119.771 Y64.446
G1 Z0.3
G1 E0.6 F1800
G1 X124.618 Y59.613 E0.39182
G1 X119.785 Y54.766 E0.39182
G1 X114.938 Y59.599 E0.39182
G1 X119.771 Y64.446 E0.39182
G1 X119.772 Y63.745 F7800
;TYPE:External perimeter
G1 F1800
G1 X123.917 Y59.612 E0.33508
G1 X119.784 Y55.467 E0.33508
G1 X115.639 Y59.6 E0.33508
G1 X119.772 Y63.745 E0.33508
;WIPE_START
G1 X120.055 Y64.028 F7800
;WIPE_END
G1 E-0.6 F1800
G1 Z0.6 F7800
G1 X112.816 Y59.774
G1 Z0.3
G1 E0.6 F1800
;TYPE:Internal perimeter
G1 X113.225 Y59.626 E0.02489
G1 X113.769 Y59.324 E0.03561
G1 X114.124 Y59.058 E0.0254
G1 X114.497 Y58.709 E0.02923
G1 X116.725 Y56.486 E0.18018
G1 X117.147 Y55.997 E0.037
G1 X117.479 Y55.455 E0.03635
G1 X117.648 Y55.065 E0.02432
G1 X117.786 Y54.601 E0.02774
G1 X117.866 Y53.972 E0.03628
G1 X117.819 Y53.33 E0.03682
G1 X117.692 Y52.855 E0.02817
G1 X117.409 Y52.28 E0.03665
G1 X117.024 Y51.801 E0.03521
G1 X117.71 Y51.117 E0.0555
G1 X138.756 Y72.22 E1.70603
G1 X138.071 Y72.903 E0.05538
G1 X137.573 Y72.503 E0.03657
G1 X137.047 Y72.239 E0.03364
G1 X136.479 Y72.088 E0.03366
G1 X135.89 Y72.05 E0.03382
G1 X135.269 Y72.127 E0.0358
G1 X134.862 Y72.243 E0.02425
G1 X134.482 Y72.4 E0.02353
G1 X134.01 Y72.665 E0.031
G1 X133.676 Y72.912 E0.02374
G1 X133.332 Y73.228 E0.02674
G1 X131.011 Y75.544 E0.18772
G1 X130.731 Y75.86 E0.02418
G1 X130.528 Y76.136 E0.0196
G1 X130.227 Y76.676 E0.03534
G1 X130.078 Y77.082 E0.0248
G1 X112.816 Y59.774 E1.39926
G1 X111.786 Y59.444 F7800
;TYPE:External perimeter
G1 F1800
G1 X112.066 Y59.431 E0.016
G1 X112.577 Y59.334 E0.02979
G1 X113.019 Y59.173 E0.02691
G1 X113.499 Y58.907 E0.03143
G1 X113.805 Y58.678 E0.02191
G1 X114.152 Y58.353 E0.02722
G1 X116.362 Y56.148 E0.17867
G1 X116.746 Y55.704 E0.03363
G1 X117.038 Y55.226 E0.03204
G1 X117.181 Y54.895 E0.02063
G1 X117.3 Y54.498 E0.02374
G1 X117.368 Y53.959 E0.03111
G1 X117.328 Y53.413 E0.03131
G1 X117.226 Y53.03 E0.02272
G1 X116.989 Y52.548 E0.0307
G1 X116.705 Y52.196 E0.02591
G1 X116.317 Y51.806 E0.03149
G1 X117.711 Y50.416 E0.11274
G1 X139.457 Y72.221 E1.76277
G1 X138.063 Y73.611 E0.1127
G1 X137.667 Y73.215 E0.03205
G1 X137.303 Y72.922 E0.02672
G1 X136.871 Y72.705 E0.02771
G1 X136.398 Y72.579 E0.02797
G1 X135.904 Y72.547 E0.02835
G1 X135.368 Y72.614 E0.03093
G1 X135.025 Y72.712 E0.02044
G1 X134.699 Y72.847 E0.02019
G1 X134.279 Y73.082 E0.02752
G1 X133.992 Y73.295 E0.02047
G1 X133.675 Y73.586 E0.02465
G1 X131.371 Y75.884 E0.18625
G1 X131.117 Y76.172 E0.02199
G1 X130.946 Y76.405 E0.01654
G1 X130.679 Y76.883 E0.03134
G1 X130.517 Y77.324 E0.02689
G1 X130.419 Y77.835 E0.02981
G1 X130.405 Y78.113 E0.01589
G1 X111.786 Y59.444 E1.50927
;WIPE_START
G1 X112.176 Y59.536 F7800
;WIPE_END
G1 E-0.6 F1800
G1 Z0.6 F7800
G1 X114.411 Y59.45
G1 Z0.3
G1 E0.6 F1800
;TYPE:Gap fill
;WIDTH:0.552191
G1 X114.588 Y59.276 E0.014
G1 X114.705 Y59.163 E0.00914
G1 X114.827 Y59.045 E0.00958
G1 X115.945 Y57.929 E0.08901
G1 X117.064 Y56.814 E0.08901
G1 X117.076 Y56.801 E0.00102
G1 X117.306 Y56.554 E0.01899
;WIDTH:0.609395
G1 X117.536 Y56.307 E0.02121
G1 X117.564 Y56.274 E0.00279
G1 X117.643 Y56.173 E0.00803
;WIDTH:0.649731
G1 X117.722 Y56.073 E0.00862
;WIDTH:0.690067
G1 X117.801 Y55.973 E0.00922
;WIDTH:0.738607
G1 X117.88 Y55.873 E0.00993
G1 X117.929 Y55.808 E0.00634
G1 X117.978 Y55.743 E0.00634
G1 X118.034 Y55.664 E0.00749
;WIDTH:0.804513
G1 X118.077 Y55.602 E0.00643
G1 E-0.6
G1 Z0.6 F7800
G1 X119.988 Y54.185
G1 Z0.3
G1 E0.6 F1800
;WIDTH:0.717063
G1 X120.218 Y54.416 E0.0246
G1 X122.594 Y56.798 E0.25359
G1 X124.969 Y59.18 E0.25359
G1 X125.084 Y59.296 E0.0123
G1 X125.2 Y59.411 E0.0123
G1 X125.243 Y59.899 F7800
;TYPE:Solid infill
;WIDTH:0.640074
G1 F1800
G1 X129.843 Y64.498 E0.42556
G1 X129.492 Y64.848 E0.03243
G1 X125.043 Y60.4 E0.41162
G1 X124.692 Y60.75 E0.03243
G1 X129.141 Y65.198 E0.41162
G1 X128.79 Y65.548 E0.03243
G1 X124.341 Y61.099 E0.41162
G1 X123.99 Y61.449 E0.03243
G1 X128.439 Y65.898 E0.41162
G1 X128.088 Y66.248 E0.03243
G1 X123.639 Y61.799 E0.41162
G1 X123.288 Y62.149 E0.03243
G1 X127.737 Y66.598 E0.41162
G1 X127.386 Y66.948 E0.03243
G1 X122.938 Y62.499 E0.41162
G1 X122.587 Y62.849 E0.03243
G1 X127.035 Y67.298 E0.41162
G1 X126.684 Y67.648 E0.03243
M73 P3 R23
G1 X122.236 Y63.199 E0.41162
G1 X121.885 Y63.549 E0.03243
G1 X126.333 Y67.998 E0.41162
G1 X125.982 Y68.348 E0.03243
G1 X121.534 Y63.899 E0.41162
G1 X121.183 Y64.249 E0.03243
G1 X125.631 Y68.698 E0.41162
G1 X125.281 Y69.048 E0.03243
G1 X120.832 Y64.599 E0.41162
G1 X120.481 Y64.949 E0.03243
G1 X124.93 Y69.398 E0.41162
G1 X124.579 Y69.748 E0.03243
G1 X119.979 Y65.149 E0.42556
G1 E-0.6
G1 Z0.6 F7800
G1 X130.474 Y64.701
G1 Z0.3
G1 E0.6 F1800
;TYPE:Gap fill
;WIDTH:0.716871
G1 X130.705 Y64.932 E0.02459
G1 X133.08 Y67.314 E0.25353
G1 X135.456 Y69.696 E0.25353
G1 X135.686 Y69.927 E0.02458
G1 X136.831 Y71.515 F7800
;TYPE:Solid infill
;WIDTH:0.532651
G1 F1800
G1 X135.881 Y70.565 E0.07312
G1 X135.53 Y70.915 E0.02698
G1 X135.81 Y71.195 E0.02158
G1 X135.187 Y71.273 E0.03419
G1 X135.028 Y71.115 E0.01222
G1 X134.263 Y71.825 F7800
;TYPE:Gap fill
;WIDTH:0.793143
G1 F1800
G1 X134.181 Y71.885 E0.00851
G1 X134.089 Y71.956 E0.00985
;WIDTH:0.733504
G1 X133.996 Y72.028 E0.00905
G1 X133.869 Y72.124 E0.01229
;WIDTH:0.647359
G1 X133.743 Y72.22 E0.0107
G1 X133.714 Y72.243 E0.00244
G1 X133.547 Y72.387 E0.01488
;WIDTH:0.574806
G1 X133.379 Y72.531 E0.01303
G1 X133.36 Y72.549 E0.00158
G1 X133.185 Y72.716 E0.01427
G1 X133.01 Y72.884 E0.01427
G1 X133.002 Y72.891 E0.00061
G1 X130.672 Y75.215 E0.19403
G1 X130.662 Y75.226 E0.00089
G1 X130.58 Y75.312 E0.00701
G1 X130.493 Y75.401 E0.00731
G1 X130.407 Y75.49 E0.00731
G1 E-0.6
G1 Z0.6 F7800
G1 X137.439 Y71.781
G1 Z0.3
G1 E0.6 F1800
;WIDTH:0.834322
G1 X137.507 Y71.825 E0.00722
;WIDTH:0.793865
G1 X137.576 Y71.868 E0.00684
;WIDTH:0.753409
G1 X137.644 Y71.912 E0.00646
;WIDTH:0.712953
G1 X137.712 Y71.956 E0.00608
G1 X137.772 Y71.999 E0.00549
;WIDTH:0.665982
G1 X137.831 Y72.042 E0.00509
G1 X137.881 Y72.081 E0.0044
G1 X137.957 Y72.15 E0.00716
;WIDTH:0.62969
G1 X138.034 Y72.219 E0.00673
G1 X138.143 Y72.31 E0.00926
;WIDTH:0.566909
G1 X138.251 Y72.402 E0.00823
G1 E-0.6
G1 Z0.6 F7800
G1 X118.41 Y53.046
G1 Z0.3
G1 E0.6 F1800
;TYPE:Solid infill
;WIDTH:0.532888
G1 X119.351 Y53.988 E0.0725
G1 X119 Y54.337 E0.027
G1 X118.72 Y54.057 E0.02159
G1 X118.64 Y54.679 E0.03414
G1 X118.8 Y54.838 E0.01227
G1 E-0.6
G1 Z0.6 F7800
G1 X118.141 Y52.434
G1 Z0.3
G1 E0.6 F1800
;TYPE:Gap fill
;WIDTH:0.840612
G1 X118.097 Y52.365 E0.00732
;WIDTH:0.799313
G1 X118.054 Y52.296 E0.00693
;WIDTH:0.758014
G1 X118.01 Y52.227 E0.00654
;WIDTH:0.716716
G1 X117.966 Y52.158 E0.00615
G1 X117.919 Y52.091 E0.00614
;WIDTH:0.663643
G1 X117.871 Y52.025 E0.00564
G1 X117.83 Y51.974 E0.00455
G1 X117.77 Y51.906 E0.00628
;WIDTH:0.630156
G1 X117.709 Y51.839 E0.00593
G1 X117.618 Y51.73 E0.00928
;WIDTH:0.569364
G1 X117.526 Y51.621 E0.00828
G1 E-0.6
G1 Z0.6 F7800
; stop printing object NeoPixel_Mount.stl id:0 copy 0
EXCLUDE_OBJECT_END NAME=NeoPixel_Mount_stl_id_0_copy_0
; printing object NeoPixel_Soldering_Jig.stl id:1 copy 0
EXCLUDE_OBJECT_START NAME=NeoPixel_Soldering_Jig_stl_id_1_copy_0
G1 X142.779 Y51.859
G1 Z0.3
G1 E0.6 F1800
;TYPE:Internal perimeter
;WIDTH:0.56
G1 X148.543 Y57.623 E0.46661
G1 X154.313 Y51.859 E0.46687
G1 X148.543 Y46.089 E0.46713
G1 X142.779 Y51.859 E0.46687
G1 X143.479 Y51.859 F7800
G1 F1800
G1 X148.543 Y56.922 E0.4099
G1 X153.612 Y51.859 E0.41013
G1 X148.543 Y46.79 E0.41036
G1 X143.479 Y51.859 E0.41013
G1 X144.18 Y51.859 F7800
;TYPE:External perimeter
G1 F1800
G1 X148.543 Y56.222 E0.35319
G1 X152.911 Y51.859 E0.35339
G1 X148.543 Y47.491 E0.35359
G1 X144.18 Y51.859 E0.35339
;WIPE_START
G1 X143.897 Y52.142 F7800
;WIPE_END
G1 E-0.6 F1800
G1 Z0.6 F7800
G1 X138.033 Y47.113
G1 Z0.3
G1 E0.6 F1800
;TYPE:Internal perimeter
G1 X143.803 Y41.349 E0.46687
G1 X138.033 Y35.579 E0.46713
G1 X132.269 Y41.349 E0.46687
G1 X138.033 Y47.113 E0.46661
G1 X138.033 Y46.413 F7800
G1 F1800
G1 X143.102 Y41.349 E0.41013
G1 X138.033 Y36.28 E0.41036
G1 X132.97 Y41.349 E0.41013
G1 X138.033 Y46.413 E0.4099
G1 X138.037 Y45.708 F7800
;TYPE:External perimeter
G1 F1800
G1 X142.401 Y41.349 E0.35311
G1 X138.033 Y36.981 E0.35359
G1 X133.67 Y41.349 E0.35339
G1 X138.033 Y45.712 E0.35319
G1 X138.037 Y45.708 E0.00028
;WIPE_START
G1 X138.423 Y45.812 F7800
;WIPE_END
G1 E-0.6 F1800
G1 Z0.6 F7800
G1 X131.916 Y51.829
G1 Z0.3
G1 E0.6 F1800
;TYPE:Internal perimeter
G1 X121.96 Y41.874 E0.80594
G1 X138.426 Y25.426 E1.33223
G1 X164.467 Y51.466 E2.10802
G1 X148.019 Y67.933 E1.33223
G1 X131.916 Y51.829 E1.30359
G1 X131.565 Y52.18 F7800
G1 F1800
G1 X121.259 Y41.874 E0.83432
M73 P4 R23
G1 X138.427 Y24.725 E1.38897
G1 X165.167 Y51.466 E2.16473
G1 X148.019 Y68.634 E1.38897
G1 X131.565 Y52.18 E1.33197
G1 X131.215 Y52.53 F7800
;TYPE:External perimeter
G1 F1800
G1 X120.914 Y42.229 E0.83391
G1 X120.824 Y42.109 E0.00857
G1 X120.774 Y41.981 E0.00789
G1 X120.77 Y41.776 E0.01174
G1 X120.824 Y41.637 E0.00852
G1 X120.914 Y41.518 E0.00857
G1 X138.086 Y24.365 E1.38936
G1 X138.258 Y24.253 E0.01171
G1 X138.361 Y24.227 E0.00612
G1 X138.536 Y24.235 E0.01002
G1 X138.631 Y24.27 E0.00581
G1 X138.775 Y24.373 E0.01009
G1 X165.523 Y51.121 E2.16531
G1 X165.608 Y51.233 E0.00811
G1 X165.663 Y51.373 E0.00857
G1 X165.659 Y51.568 E0.0112
G1 X165.608 Y51.698 E0.00799
G1 X165.523 Y51.811 E0.00811
G1 X148.375 Y68.979 E1.38896
G1 X148.255 Y69.069 E0.00857
G1 X148.117 Y69.123 E0.00852
G1 X147.912 Y69.119 E0.01174
G1 X147.783 Y69.069 E0.00789
G1 X147.664 Y68.979 E0.00857
G1 X131.215 Y52.53 E1.33156
;WIPE_START
G1 X131.318 Y52.144 F7800
;WIPE_END
G1 E-0.6 F1800
G1 Z0.6 F7800
G1 X138.268 Y25.794
G1 Z0.3
G1 E0.6 F1800
;TYPE:Solid infill
;WIDTH:0.556604
G1 X163.948 Y51.473 E2.06622
G1 X163.598 Y51.824 E0.0282
G1 X138.068 Y26.295 E2.05413
G1 X137.718 Y26.645 E0.0282
G1 X163.248 Y52.175 E2.05416
G1 X162.897 Y52.525 E0.0282
G1 X137.367 Y26.995 E2.05419
G1 X137.017 Y27.346 E0.0282
G1 X162.547 Y52.876 E2.05422
G1 X162.197 Y53.227 E0.0282
G1 X136.666 Y27.696 E2.05425
M73 P5 R23
G1 X136.315 Y28.046 E0.0282
G1 X161.846 Y53.577 E2.05429
G1 X161.496 Y53.928 E0.0282
G1 X135.965 Y28.396 E2.05432
G1 X135.614 Y28.747 E0.0282
G1 X161.146 Y54.279 E2.05435
G1 X160.796 Y54.629 E0.0282
G1 X135.263 Y29.097 E2.05438
G1 X134.913 Y29.447 E0.0282
G1 X160.445 Y54.98 E2.05441
G1 X160.095 Y55.331 E0.0282
G1 X134.562 Y29.797 E2.05445
G1 X134.211 Y30.148 E0.0282
G1 X159.745 Y55.681 E2.05448
G1 X159.395 Y56.032 E0.0282
G1 X133.861 Y30.498 E2.05451
G1 X133.51 Y30.848 E0.0282
G1 X137.881 Y35.219 E0.35169
G1 X138.033 Y35.067 E0.01222
G1 X144.315 Y41.35 E0.50549
G1 X144.163 Y41.501 E0.01222
G1 X148.391 Y45.729 E0.34015
G1 X148.543 Y45.577 E0.01222
G1 X154.825 Y51.859 E0.50549
G1 X154.673 Y52.011 E0.01222
G1 X159.044 Y56.383 E0.35174
G1 X158.694 Y56.733 E0.0282
G1 X154.322 Y52.361 E0.35177
G1 X153.972 Y52.712 E0.0282
G1 X158.344 Y57.084 E0.3518
G1 X157.994 Y57.435 E0.0282
G1 X153.621 Y53.062 E0.35183
G1 X153.27 Y53.412 E0.0282
G1 X157.643 Y57.785 E0.35187
G1 X157.293 Y58.136 E0.0282
G1 X152.92 Y53.762 E0.3519
G1 X152.569 Y54.113 E0.0282
