; generated by SuperSlicer 2.4 on 2023-10-31 at 21:15:30 UTC


;
;

;
;
; 

; external perimeters extrusion width = 0.42mm
; perimeters extrusion width = 0.44mm
; infill extrusion width = 0.44mm
; solid infill extrusion width = 0.44mm
; top infill extrusion width = 0.42mm
; first layer extrusion width = 0.56mm

; object:{"name":"Orbiter2_Mount (2)","id":"Orbiter2_Mount (2).stl id:0 copy 0","object_center":[91.390351,46.211781,0.000000],"boundingbox_center":[91.390351,46.211781,3.450001],"boundingbox_size":[50.420805,50.637045,6.900002]}
; plater:{"center":[91.390351,46.211781,0.000000],"boundingbox_center":[91.390351,46.211781,3.450001],"boundingbox_size":[50.420805,50.637045,6.900002]}

M73 P0 R23


; Pre-Processed for Cancel-Object support by preprocess_cancellation v0.2.0
; 1 known objects
EXCLUDE_OBJECT_DEFINE NAME=Orbiter2_Mount_2_stl_id_0_copy_0 CENTER=90.129,46.468 POLYGON=[[65.976,20.684],[65.976,71.726],[116.808,71.726],[116.808,20.684]]
;TYPE:Custom
; custom gcode: start_gcode
M104 S0 ; Stops SuperSlicer from sending temp waits separately
M140 S0
print_start EXTRUDER=250 BED=105 CHAMBER=40
; custom gcode end: start_gcode
M107
G21 ; set units to millimeters
G90 ; use absolute coordinates
M83 ; use relative distances for extrusion
; custom gcode: start_filament_gcode
; Filament gcode
; Macro syntax: https://help.prusa3d.com/article/macros_1775

; Set pressure advance per-filament
;SET_PRESSURE_ADVANCE ADVANCE=0.0372

; Set pressure advance per-filament for different nozzle sizes
;SET_PRESSURE_ADVANCE ADVANCE=0.0x
;

; custom gcode end: start_filament_gcode
;_TOOLCHANGE 0
;LAYER_CHANGE
;Z:0.3
;HEIGHT:0.3
G1 Z0.3 F7800
G92 E0
M73 P1 R22
G1 E-0.6 F1800
G1 Z0.6 F7800
G1 X60.042 Y32.766
G1 Z0.3
G1 E0.6 F1800
;TYPE:Skirt
;WIDTH:0.52
G1 X59.489 Y34.919 E0.11699
G1 X59.726 Y37.129 E0.11699
G1 X60.726 Y39.115 E0.11699
G1 X74.267 Y57.093 E1.18436
G1 X74.837 Y57.75 E0.04579
G1 X79.685 Y62.597 E0.36072
G1 X80.339 Y63.166 E0.04563
G1 X98.374 Y76.764 E1.18862
G1 X100.335 Y77.757 E0.11566
G1 X102.545 Y78.005 E0.11699
G1 X104.7 Y77.462 E0.11699
G1 X106.527 Y76.195 E0.11699
G1 X121.277 Y61.446 E1.09764
G1 X122.839 Y58.831 E0.16029
G1 X123.087 Y56.622 E0.11699
G1 X122.543 Y54.466 E0.11699
G1 X121.277 Y52.639 E0.11699
G1 X84.853 Y16.215 E2.71061
G1 X82.238 Y14.653 E0.16029
G1 X80.029 Y14.405 E0.11699
G1 X77.873 Y14.949 E0.11699
G1 X76.046 Y16.215 E0.11699
G1 X61.296 Y30.964 E1.09764
G1 X60.042 Y32.766 E0.1155
M104 S250 ; set temperature
G1 E-0.6
G1 Z0.6 F7800
; printing object Orbiter2_Mount (2).stl id:0 copy 0
EXCLUDE_OBJECT_START NAME=Orbiter2_Mount_2_stl_id_0_copy_0
G1 X83.054 Y52.549
G1 Z0.3
G1 E0.6 F1800
;TYPE:Internal perimeter
;WIDTH:0.56
G1 X84.91 Y54.405 E0.15024
G1 X88.027 Y51.289 E0.25228
G1 X86.171 Y49.433 E0.15024
G1 X83.054 Y52.549 E0.25228
G1 X83.755 Y52.549 F7800
;TYPE:External perimeter
M73 P2 R22
G1 F1800
G1 X84.91 Y53.705 E0.0935
G1 X87.326 Y51.289 E0.19554
G1 X86.171 Y50.134 E0.0935
G1 X83.755 Y52.549 E0.19554
;WIPE_START
G1 X83.472 Y52.832 F7800
;WIPE_END
G1 X83.054 Y53.25
;TYPE:Internal perimeter
G1 F1800
G1 X85.144 Y55.34 E0.16913
G1 X84.088 Y56.395 E0.08544
G1 X81.039 Y53.346 E0.24685
G1 X82.094 Y52.29 E0.08544
G1 X83.054 Y53.25 E0.07771
G1 E-0.6
G1 Z0.6 F7800
G1 X89.04 Y48.161
G1 Z0.3
G1 E0.6 F1800
G1 X89.091 Y48.225 E0.00472
G1 X89.565 Y48.648 E0.03632
G1 X90.101 Y48.986 E0.03632
G1 X90.668 Y49.224 E0.03518
G1 X91.098 Y49.339 E0.02544
G1 X91.707 Y49.416 E0.03518
G1 X92.341 Y49.392 E0.03632
G1 X92.963 Y49.263 E0.03632
G1 X93.546 Y49.036 E0.03585
G1 X93.772 Y48.905 E0.01493
G1 X94.103 Y48.705 E0.02213
G1 X94.584 Y48.298 E0.03607
G1 X94.994 Y47.814 E0.03633
G1 X95.319 Y47.268 E0.03633
G1 X95.548 Y46.677 E0.03633
G1 X95.678 Y46.055 E0.03632
G1 X95.702 Y45.438 E0.03536
G1 X95.657 Y44.996 E0.02544
G1 X95.517 Y44.401 E0.035
G1 X95.282 Y43.839 E0.03489
G1 X95.147 Y43.605 E0.01544
G1 X94.924 Y43.269 E0.02307
G1 X94.511 Y42.805 E0.03554
G1 X94.016 Y42.408 E0.03633
G1 X93.463 Y42.098 E0.03633
G1 X92.865 Y41.883 E0.03633
G1 X92.241 Y41.77 E0.03633
G1 X91.614 Y41.762 E0.03589
G1 X91.225 Y41.817 E0.02245
G1 X90.966 Y41.863 E0.0151
G1 X90.376 Y42.058 E0.03553
G1 X89.815 Y42.353 E0.03632
G1 X89.31 Y42.738 E0.03632
G1 X88.891 Y43.183 E0.035
G1 X88.631 Y43.544 E0.02544
G1 X88.344 Y44.09 E0.03536
G1 X88.145 Y44.693 E0.03632
G1 X88.048 Y45.32 E0.03633
G1 X88.056 Y45.955 E0.03633
G1 X88.169 Y46.579 E0.03633
G1 X88.382 Y47.172 E0.03607
G1 X88.569 Y47.511 E0.02213
G1 X88.699 Y47.737 E0.01493
G1 X89.04 Y48.161 E0.03114
G1 X89.426 Y47.851 F7800
G1 F1800
G1 X89.452 Y47.883 E0.00236
G1 X89.864 Y48.25 E0.03161
G1 X90.331 Y48.545 E0.0316
G1 X90.829 Y48.753 E0.03091
G1 X91.194 Y48.851 E0.02161
G1 X91.729 Y48.92 E0.03091
G1 X92.281 Y48.898 E0.0316
G1 X92.821 Y48.786 E0.03161
G1 X93.331 Y48.588 E0.03132
G1 X93.52 Y48.479 E0.01247
G1 X93.813 Y48.302 E0.01959
G1 X94.232 Y47.947 E0.03145
G1 X94.589 Y47.525 E0.03161
G1 X94.872 Y47.05 E0.03161
G1 X95.072 Y46.536 E0.03161
G1 X95.184 Y45.995 E0.03161
G1 X95.205 Y45.454 E0.03102
G1 X95.167 Y45.078 E0.02161
G1 X95.044 Y44.554 E0.03079
G1 X94.837 Y44.059 E0.03073
G1 X94.725 Y43.866 E0.01278
G1 X94.531 Y43.572 E0.02016
G1 X94.169 Y43.166 E0.03113
G1 X93.738 Y42.82 E0.03161
G1 X93.256 Y42.55 E0.03161
G1 X92.736 Y42.364 E0.03161
G1 X92.193 Y42.265 E0.03161
G1 X91.645 Y42.258 E0.03135
G1 X91.303 Y42.307 E0.01978
G1 X91.087 Y42.345 E0.01257
G1 X90.571 Y42.515 E0.03112
G1 X90.082 Y42.773 E0.0316
G1 X89.643 Y43.107 E0.0316
G1 X89.274 Y43.499 E0.03079
G1 X89.054 Y43.805 E0.02161
G1 X88.801 Y44.285 E0.03102
G1 X88.628 Y44.809 E0.03161
G1 X88.544 Y45.355 E0.03161
G1 X88.551 Y45.907 E0.03161
G1 X88.65 Y46.451 E0.03161
G1 X88.835 Y46.968 E0.03145
G1 X89 Y47.268 E0.01959
G1 X89.109 Y47.456 E0.01247
G1 X89.426 Y47.851 E0.02896
G1 X89.813 Y47.54 F7800
;TYPE:External perimeter
G1 F1800
G1 X90.163 Y47.853 E0.02689
G1 X90.56 Y48.104 E0.02689
G1 X90.99 Y48.283 E0.02663
G1 X91.29 Y48.364 E0.01778
G1 X91.751 Y48.423 E0.02663
G1 X92.22 Y48.404 E0.02689
G1 X92.68 Y48.309 E0.02689
G1 X93.117 Y48.139 E0.02679
G1 X93.268 Y48.052 E0.01001
G1 X93.523 Y47.898 E0.01705
G1 X93.881 Y47.595 E0.02684
G1 X94.184 Y47.236 E0.0269
G1 X94.424 Y46.832 E0.0269
G1 X94.595 Y46.394 E0.02689
G1 X94.69 Y45.935 E0.02689
G1 X94.708 Y45.469 E0.02667
G1 X94.677 Y45.16 E0.01778
G1 X94.571 Y44.708 E0.02659
G1 X94.392 Y44.28 E0.02657
G1 X94.303 Y44.126 E0.01012
G1 X94.137 Y43.875 E0.01726
G1 X93.826 Y43.527 E0.02672
G1 X93.46 Y43.233 E0.02689
G1 X93.05 Y43.003 E0.0269
G1 X92.608 Y42.844 E0.0269
G1 X92.145 Y42.761 E0.0269
G1 X91.677 Y42.754 E0.0268
G1 X91.381 Y42.796 E0.01712
G1 X91.208 Y42.827 E0.01005
G1 X90.765 Y42.973 E0.02672
G1 X90.349 Y43.192 E0.02689
G1 X89.976 Y43.476 E0.02688
G1 X89.658 Y43.815 E0.02659
G1 X89.476 Y44.067 E0.01778
G1 X89.259 Y44.479 E0.02668
G1 X89.112 Y44.925 E0.02689
G1 X89.04 Y45.39 E0.02689
G1 X89.046 Y45.86 E0.0269
G1 X89.13 Y46.322 E0.0269
G1 X89.288 Y46.763 E0.02684
G1 X89.432 Y47.024 E0.01705
G1 X89.52 Y47.176 E0.01001
G1 X89.813 Y47.54 E0.02679
;WIPE_START
G1 X89.71 Y47.927 F7800
;WIPE_END
G1 E-0.6 F1800
G1 Z0.6 F7800
G1 X101.743 Y56.183
G1 Z0.3
G1 E0.6 F1800
;TYPE:Internal perimeter
G1 X101.685 Y56.253 E0.00519
G1 X101.381 Y56.794 E0.03555
G1 X101.18 Y57.382 E0.03555
G1 X101.092 Y57.974 E0.03426
G1 X101.092 Y58.412 E0.02505
G1 X101.18 Y59.004 E0.03426
G1 X101.381 Y59.591 E0.03555
G1 X101.685 Y60.133 E0.03555
G1 X102.083 Y60.61 E0.03556
G1 X102.56 Y61.007 E0.03556
G1 X103.101 Y61.312 E0.03555
G1 X103.689 Y61.513 E0.03555
G1 X104.281 Y61.6 E0.03426
G1 X104.719 Y61.6 E0.02505
G1 X105.311 Y61.513 E0.03426
G1 X105.898 Y61.312 E0.03555
G1 X106.44 Y61.007 E0.03555
G1 X106.917 Y60.61 E0.03556
G1 X107.314 Y60.133 E0.03556
G1 X107.619 Y59.591 E0.03555
G1 X107.82 Y59.004 E0.03555
G1 X107.908 Y58.412 E0.03426
G1 X107.908 Y57.974 E0.02505
G1 X107.82 Y57.382 E0.03426
G1 X107.619 Y56.794 E0.03555
G1 X107.314 Y56.253 E0.03555
G1 X106.917 Y55.775 E0.03556
G1 X106.44 Y55.378 E0.03556
G1 X105.898 Y55.074 E0.03555
G1 X105.311 Y54.873 E0.03555
G1 X104.719 Y54.785 E0.03426
G1 X104.281 Y54.785 E0.02505
G1 X103.689 Y54.873 E0.03426
G1 X103.101 Y55.074 E0.03555
G1 X102.56 Y55.378 E0.03555
G1 X102.083 Y55.775 E0.03555
G1 X101.743 Y56.183 E0.03037
G1 X102.073 Y56.575 F7800
G1 F1800
G1 X101.835 Y56.998 E0.02777
G1 X101.663 Y57.499 E0.03036
G1 X101.588 Y58.01 E0.02957
G1 X101.588 Y58.375 E0.02086
G1 X101.663 Y58.886 E0.02957
G1 X101.835 Y59.388 E0.03036
G1 X102.095 Y59.85 E0.03037
G1 X102.434 Y60.258 E0.03037
G1 X102.842 Y60.597 E0.03037
G1 X103.305 Y60.857 E0.03037
G1 X103.807 Y61.029 E0.03036
G1 X104.318 Y61.105 E0.02957
G1 X104.682 Y61.105 E0.02086
G1 X105.193 Y61.029 E0.02957
G1 X105.695 Y60.857 E0.03036
G1 X106.157 Y60.597 E0.03037
G1 X106.565 Y60.258 E0.03037
G1 X106.905 Y59.85 E0.03037
G1 X107.164 Y59.388 E0.03037
G1 X107.336 Y58.886 E0.03036
G1 X107.412 Y58.375 E0.02957
G1 X107.412 Y58.01 E0.02086
G1 X107.336 Y57.499 E0.02957
G1 X107.164 Y56.998 E0.03036
G1 X106.905 Y56.535 E0.03037
G1 X106.565 Y56.127 E0.03037
G1 X106.157 Y55.788 E0.03037
G1 X105.695 Y55.528 E0.03037
G1 X105.193 Y55.356 E0.03036
G1 X104.682 Y55.281 E0.02957
G1 X104.318 Y55.281 E0.02086
G1 X103.807 Y55.356 E0.02957
G1 X103.305 Y55.528 E0.03036
G1 X102.842 Y55.788 E0.03037
G1 X102.434 Y56.127 E0.03037
G1 X102.095 Y56.535 E0.03037
G1 X102.073 Y56.575 E0.00259
G1 X102.505 Y56.817 F7800
;TYPE:External perimeter
G1 F1800
G1 X102.289 Y57.201 E0.02518
G1 X102.147 Y57.617 E0.02517
G1 X102.083 Y58.047 E0.02489
G1 X102.083 Y58.338 E0.01668
G1 X102.147 Y58.768 E0.02489
G1 X102.289 Y59.185 E0.02518
G1 X102.505 Y59.568 E0.02518
G1 X102.786 Y59.906 E0.02518
G1 X103.124 Y60.188 E0.02518
G1 X103.508 Y60.403 E0.02518
G1 X103.924 Y60.545 E0.02517
G1 X104.354 Y60.609 E0.02489
G1 X104.645 Y60.609 E0.01668
G1 X105.075 Y60.545 E0.02489
G1 X105.492 Y60.403 E0.02517
G1 X105.875 Y60.188 E0.02518
G1 X106.213 Y59.906 E0.02518
G1 X106.495 Y59.568 E0.02518
G1 X106.71 Y59.185 E0.02518
G1 X106.852 Y58.768 E0.02517
G1 X106.916 Y58.338 E0.02489
G1 X106.916 Y58.047 E0.01668
G1 X106.853 Y57.617 E0.02489
G1 X106.71 Y57.201 E0.02517
G1 X106.495 Y56.817 E0.02518
G1 X106.213 Y56.479 E0.02518
G1 X105.875 Y56.198 E0.02518
G1 X105.492 Y55.982 E0.02518
G1 X105.075 Y55.84 E0.02518
G1 X104.645 Y55.776 E0.02489
G1 X104.354 Y55.776 E0.01668
G1 X103.924 Y55.84 E0.02489
G1 X103.508 Y55.982 E0.02517
G1 X103.124 Y56.198 E0.02518
G1 X102.786 Y56.479 E0.02518
G1 X102.505 Y56.817 E0.02518
;WIPE_START
G1 X102.105 Y56.798 F7800
;WIPE_END
G1 E-0.6 F1800
G1 Z0.6 F7800
G1 X80.289 Y33.854
G1 Z0.3
G1 E0.6 F1800
;TYPE:Internal perimeter
G1 X80.628 Y33.447 E0.03037
G1 X80.933 Y32.905 E0.03555
G1 X81.134 Y32.318 E0.03555
G1 X81.222 Y31.726 E0.03426
G1 X81.222 Y31.288 E0.02505
G1 X81.134 Y30.696 E0.03426
G1 X80.933 Y30.108 E0.03555
G1 X80.628 Y29.567 E0.03555
G1 X80.231 Y29.089 E0.03556
G1 X79.754 Y28.692 E0.03556
G1 X79.212 Y28.388 E0.03555
G1 X78.625 Y28.187 E0.03555
G1 X78.033 Y28.099 E0.03426
G1 X77.595 Y28.099 E0.02505
G1 X77.003 Y28.187 E0.03426
G1 X76.415 Y28.388 E0.03555
G1 X75.874 Y28.692 E0.03555
G1 X75.397 Y29.089 E0.03556
G1 X74.999 Y29.567 E0.03556
G1 X74.695 Y30.108 E0.03555
G1 X74.494 Y30.696 E0.03555
G1 X74.406 Y31.288 E0.03426
G1 X74.406 Y31.726 E0.02505
G1 X74.494 Y32.318 E0.03426
G1 X74.695 Y32.905 E0.03555
G1 X74.999 Y33.447 E0.03555
G1 X75.397 Y33.924 E0.03556
G1 X75.874 Y34.321 E0.03556
G1 X76.415 Y34.626 E0.03555
G1 X77.003 Y34.827 E0.03555
G1 X77.595 Y34.914 E0.03426
G1 X78.033 Y34.914 E0.02505
G1 X78.625 Y34.827 E0.03426
G1 X79.212 Y34.626 E0.03555
G1 X79.754 Y34.321 E0.03555
G1 X80.231 Y33.924 E0.03556
G1 X80.289 Y33.854 E0.00519
G1 X79.844 Y33.601 F7800
G1 F1800
G1 X79.879 Y33.572 E0.00259
G1 X80.219 Y33.164 E0.03037
G1 X80.478 Y32.702 E0.03037
G1 X80.65 Y32.2 E0.03036
G1 X80.726 Y31.689 E0.02957
G1 X80.726 Y31.324 E0.02086
G1 X80.65 Y30.813 E0.02957
G1 X80.478 Y30.312 E0.03036
G1 X80.219 Y29.849 E0.03037
G1 X79.879 Y29.441 E0.03037
G1 X79.471 Y29.102 E0.03037
G1 X79.009 Y28.842 E0.03037
G1 X78.507 Y28.67 E0.03036
G1 X77.996 Y28.595 E0.02957
G1 X77.632 Y28.595 E0.02086
G1 X77.121 Y28.67 E0.02957
G1 X76.619 Y28.842 E0.03036
G1 X76.156 Y29.102 E0.03037
G1 X75.748 Y29.441 E0.03037
G1 X75.409 Y29.849 E0.03037
G1 X75.149 Y30.312 E0.03037
G1 X74.977 Y30.813 E0.03036
G1 X74.902 Y31.324 E0.02957
G1 X74.902 Y31.689 E0.02086
G1 X74.977 Y32.2 E0.02957
G1 X75.149 Y32.702 E0.03036
G1 X75.409 Y33.164 E0.03037
G1 X75.748 Y33.572 E0.03037
G1 X76.156 Y33.911 E0.03037
G1 X76.619 Y34.171 E0.03037
G1 X77.121 Y34.343 E0.03036
G1 X77.632 Y34.419 E0.02957
G1 X77.996 Y34.419 E0.02086
G1 X78.507 Y34.343 E0.02957
G1 X79.009 Y34.171 E0.03036
G1 X79.471 Y33.911 E0.03037
G1 X79.844 Y33.601 E0.02778
G1 X79.527 Y33.22 F7800
;TYPE:External perimeter
G1 F1800
G1 X79.809 Y32.882 E0.02518
G1 X80.024 Y32.499 E0.02518
G1 X80.167 Y32.082 E0.02517
G1 X80.23 Y31.652 E0.02489
G1 X80.23 Y31.361 E0.01668
G1 X80.167 Y30.931 E0.02489
G1 X80.024 Y30.515 E0.02518
G1 X79.809 Y30.131 E0.02518
G1 X79.527 Y29.793 E0.02518
G1 X79.189 Y29.512 E0.02518
G1 X78.806 Y29.296 E0.02518
G1 X78.389 Y29.154 E0.02517
G1 X77.959 Y29.09 E0.02489
G1 X77.668 Y29.09 E0.01668
G1 X77.238 Y29.154 E0.02489
G1 X76.822 Y29.296 E0.02517
G1 X76.438 Y29.512 E0.02518
G1 X76.1 Y29.793 E0.02518
G1 X75.819 Y30.131 E0.02518
G1 X75.603 Y30.515 E0.02518
G1 X75.461 Y30.931 E0.02517
G1 X75.397 Y31.361 E0.02489
G1 X75.397 Y31.652 E0.01668
G1 X75.461 Y32.082 E0.02489
G1 X75.603 Y32.499 E0.02517
G1 X75.819 Y32.882 E0.02518
G1 X76.1 Y33.22 E0.02518
G1 X76.438 Y33.502 E0.02518
G1 X76.822 Y33.717 E0.02518
G1 X77.238 Y33.859 E0.02518
G1 X77.668 Y33.923 E0.02489
G1 X77.959 Y33.923 E0.01668
G1 X78.389 Y33.859 E0.02489
G1 X78.806 Y33.717 E0.02517
G1 X79.189 Y33.502 E0.02518
G1 X79.527 Y33.22 E0.02518
;WIPE_START
G1 X79.917 Y33.312 F7800
;WIPE_END
G1 E-0.6 F1800
G1 Z0.6 F7800
G1 X82.556 Y50.427
G1 Z0.3
G1 E0.6 F1800
;TYPE:Internal perimeter
G1 X67.498 Y35.368 E1.21902
G1 X80.45 Y22.417 E1.04846
G1 X115.075 Y57.042 E2.80304
G1 X102.124 Y69.994 E1.04846
G1 X86.073 Y53.943 E1.29933
G1 X88.728 Y51.289 E0.21488
G1 X86.171 Y48.732 E0.20698
G1 X83.516 Y51.387 E0.21488
G1 X82.556 Y50.427 E0.07771
G1 X82.556 Y51.128 F7800
G1 F1800
G1 X66.797 Y35.368 E1.27576
G1 X80.45 Y21.716 E1.10521
M73 P3 R22
G1 X115.776 Y57.042 E2.85978
G1 X102.124 Y70.695 E1.1052
G1 X86.307 Y54.878 E1.28044
G1 X84.088 Y57.096 E0.17958
G1 X80.338 Y53.346 E0.30359
G1 X82.556 Y51.128 E0.17958
G1 X81.855 Y51.128 F7800
;TYPE:External perimeter
G1 F1800
G1 X66.096 Y35.368 E1.27576
G1 X80.45 Y21.015 E1.16195
G1 X116.477 Y57.042 E2.91652
G1 X102.124 Y71.396 E1.16195
G1 X86.307 Y55.579 E1.28044
G1 X84.088 Y57.797 E0.17958
G1 X79.637 Y53.346 E0.36033
G1 X81.855 Y51.128 E0.17958
;WIPE_START
G1 X82.138 Y50.845 F7800
;WIPE_END
G1 X83.226 Y51.418
;TYPE:Gap fill
;WIDTH:0.966722
G1 F1800
G1 X82.704 Y51.94 E0.07692
G1 X82.385 Y52.259 E0.04702
G1 X81.937 Y52.658 F7800
;TYPE:Solid infill
;WIDTH:0.674923
G1 F1800
G1 X84.625 Y55.347 E0.26229
G1 X84.275 Y55.697 E0.03419
G1 X81.586 Y53.009 E0.26229
G1 E-0.6
G1 Z0.6 F7800
G1 X85.188 Y55.062
G1 Z0.3
G1 E0.6 F1800
;TYPE:Gap fill
;WIDTH:0.930328
G1 X85.341 Y54.909 E0.02165
G1 X85.494 Y54.756 E0.02165
G1 X85.608 Y54.642 E0.01617
G1 X85.723 Y54.527 E0.01617
G1 X86.029 Y54.221 E0.0433
G1 E-0.6
G1 Z0.6 F7800
G1 X114.707 Y57.2
G1 Z0.3
G1 E0.6 F1800
;TYPE:Solid infill
;WIDTH:0.56223
G1 X80.442 Y22.935 E2.78487
G1 X80.092 Y23.286 E0.02848
G1 X114.206 Y57.4 E2.77262
G1 X113.856 Y57.75 E0.02848
G1 X79.742 Y23.636 E2.77262
M73 P4 R22
G1 X79.391 Y23.987 E0.02848
G1 X113.505 Y58.101 E2.77262
G1 X113.155 Y58.451 E0.02848
G1 X79.041 Y24.337 E2.77262
G1 X78.69 Y24.687 E0.02848
G1 X112.804 Y58.802 E2.77262
G1 X112.454 Y59.152 E0.02848
G1 X78.34 Y25.038 E2.77262
G1 X77.989 Y25.388 E0.02848
G1 X112.103 Y59.503 E2.77262
G1 X111.753 Y59.853 E0.02848
G1 X95.581 Y43.681 E1.31436
G1 X95.463 Y43.428 E0.01606
G1 X95.212 Y43.047 E0.02622
G1 X94.761 Y42.542 E0.03891
G1 X94.219 Y42.107 E0.03993
G1 X93.737 Y41.837 E0.03178
G1 X77.639 Y25.739 E1.30836
G1 X77.288 Y26.089 E0.02848
G1 X79.2 Y28.001 E0.15541
