; HEADER_BLOCK_START
; generated by OrcaSlicer 1.7.0 on 2023-12-05 at 19:02:42
; total layer number: 0
; HEADER_BLOCK_END

; THUMBNAIL_BLOCK_START
; THUMBNAIL_BLOCK_END

; external perimeters extrusion width = 0.40mm
; perimeters extrusion width = 0.40mm
; infill extrusion width = 0.45mm
; solid infill extrusion width = 0.40mm
; top infill extrusion width = 0.40mm
; first layer extrusion width = 0.50mm

; EXECUTABLE_BLOCK_START
EXCLUDE_OBJECT_DEFINE NAME=Orca-PA-Calibration-Test CENTER=0,0 POLYGON=[[5,5],[345,5],[345,345],[5,345],[5,5]]
M73 P0 R3
M106 S0
M106 P2 S0
;TYPE:Custom
SKEW_PROFILE LOAD=my_skew_profile
M190 S105
M109 S150
PRINT_START EXTRUDER=230 BED=105
; You can use following code instead if your PRINT_START macro support Chamber and print area bedmesh
; PRINT_START EXTRUDER=230 BED=105 Chamber=0 PRINT_MIN=5,5 PRINT_MAX=345,345
G90
G21
M83 ; use relative distances for extrusion
; Filament gcode
SET_VELOCITY_LIMIT ACCEL=1400 ACCEL_TO_DECEL=700
SET_VELOCITY_LIMIT SQUARE_CORNER_VELOCITY=5
G1 Z.2 F15000
G1 E-.5 F1800
G1 X123 Y248.5 F15000
G1 E.5 F1800
G1 F1200
G1 X123 Y98 E8.91686
SET_PRESSURE_ADVANCE ADVANCE=0; Override pressure advance value
M73 P3 R3
G1 E-.5 F1800
G1 X125 Y87.5 F15000
M73 P4 R3
G1 E.5 F1800
G1 F1200
G1 X145 Y87.5 E.92643
G1 F6000
G1 X185 Y87.5 E1.85285
G1 F1200
G1 X205 Y87.5 E.92643
SET_PRESSURE_ADVANCE ADVANCE=0.002; Override pressure advance value
M73 P5 R3
G1 E-.5 F1800
G1 X125 Y91 F15000
G1 E.5 F1800
G1 F1200
G1 X145 Y91 E.92643
G1 F6000
G1 X185 Y91 E1.85285
G1 F1200
G1 X205 Y91 E.92643
SET_PRESSURE_ADVANCE ADVANCE=0.004; Override pressure advance value
M73 P6 R3
G1 E-.5 F1800
G1 X125 Y94.5 F15000
G1 E.5 F1800
G1 F1200
G1 X145 Y94.5 E.92643
M73 P7 R3
G1 F6000
G1 X185 Y94.5 E1.85285
G1 F1200
G1 X205 Y94.5 E.92643
SET_PRESSURE_ADVANCE ADVANCE=0.006; Override pressure advance value
G1 E-.5 F1800
G1 X125 Y98 F15000
M73 P8 R3
G1 E.5 F1800
G1 F1200
G1 X145 Y98 E.92643
G1 F6000
G1 X185 Y98 E1.85285
G1 F1200
G1 X205 Y98 E.92643
SET_PRESSURE_ADVANCE ADVANCE=0.008; Override pressure advance value
M73 P9 R3
G1 E-.5 F1800
G1 X125 Y101.5 F15000
G1 E.5 F1800
G1 F1200
G1 X145 Y101.5 E.92643
G1 F6000
G1 X185 Y101.5 E1.85285
G1 F1200
G1 X205 Y101.5 E.92643
SET_PRESSURE_ADVANCE ADVANCE=0.01; Override pressure advance value
M73 P10 R3
G1 E-.5 F1800
G1 X125 Y105 F15000
G1 E.5 F1800
G1 F1200
G1 X145 Y105 E.92643
M73 P11 R3
G1 F6000
G1 X185 Y105 E1.85285
G1 F1200
G1 X205 Y105 E.92643
SET_PRESSURE_ADVANCE ADVANCE=0.012; Override pressure advance value
G1 E-.5 F1800
G1 X125 Y108.5 F15000
G1 E.5 F1800
M73 P12 R3
G1 F1200
G1 X145 Y108.5 E.92643
G1 F6000
G1 X185 Y108.5 E1.85285
G1 F1200
G1 X205 Y108.5 E.92643
SET_PRESSURE_ADVANCE ADVANCE=0.014; Override pressure advance value
M73 P13 R3
G1 E-.5 F1800
G1 X125 Y112 F15000
G1 E.5 F1800
G1 F1200
G1 X145 Y112 E.92643
G1 F6000
G1 X185 Y112 E1.85285
G1 F1200
G1 X205 Y112 E.92643
SET_PRESSURE_ADVANCE ADVANCE=0.016; Override pressure advance value
M73 P14 R3
G1 E-.5 F1800
G1 X125 Y115.5 F15000
G1 E.5 F1800
G1 F1200
G1 X145 Y115.5 E.92643
M73 P15 R3
G1 F6000
G1 X185 Y115.5 E1.85285
G1 F1200
G1 X205 Y115.5 E.92643
SET_PRESSURE_ADVANCE ADVANCE=0.018; Override pressure advance value
G1 E-.5 F1800
G1 X125 Y119 F15000
G1 E.5 F1800
M73 P16 R3
G1 F1200
G1 X145 Y119 E.92643
G1 F6000
G1 X185 Y119 E1.85285
G1 F1200
G1 X205 Y119 E.92643
SET_PRESSURE_ADVANCE ADVANCE=0.02; Override pressure advance value
M73 P17 R3
G1 E-.5 F1800
G1 X125 Y122.5 F15000
G1 E.5 F1800
G1 F1200
G1 X145 Y122.5 E.92643
G1 F6000
G1 X185 Y122.5 E1.85285
G1 F1200
G1 X205 Y122.5 E.92643
SET_PRESSURE_ADVANCE ADVANCE=0.022; Override pressure advance value
M73 P18 R3
G1 E-.5 F1800
G1 X125 Y126 F15000
G1 E.5 F1800
G1 F1200
G1 X145 Y126 E.92643
M73 P19 R3
G1 F6000
G1 X185 Y126 E1.85285
G1 F1200
G1 X205 Y126 E.92643
SET_PRESSURE_ADVANCE ADVANCE=0.024; Override pressure advance value
G1 E-.5 F1800
G1 X125 Y129.5 F15000
G1 E.5 F1800
G1 F1200
G1 X145 Y129.5 E.92643
M73 P20 R3
G1 F6000
G1 X185 Y129.5 E1.85285
G1 F1200
G1 X205 Y129.5 E.92643
SET_PRESSURE_ADVANCE ADVANCE=0.026; Override pressure advance value
M73 P21 R3
G1 E-.5 F1800
G1 X125 Y133 F15000
M73 P21 R2
G1 E.5 F1800
G1 F1200
G1 X145 Y133 E.92643
G1 F6000
G1 X185 Y133 E1.85285
G1 F1200
G1 X205 Y133 E.92643
SET_PRESSURE_ADVANCE ADVANCE=0.028; Override pressure advance value
M73 P22 R2
G1 E-.5 F1800
G1 X125 Y136.5 F15000
G1 E.5 F1800
G1 F1200
G1 X145 Y136.5 E.92643
M73 P23 R2
G1 F6000
G1 X185 Y136.5 E1.85285
G1 F1200
G1 X205 Y136.5 E.92643
SET_PRESSURE_ADVANCE ADVANCE=0.03; Override pressure advance value
G1 E-.5 F1800
G1 X125 Y140 F15000
G1 E.5 F1800
G1 F1200
G1 X145 Y140 E.92643
M73 P24 R2
G1 F6000
G1 X185 Y140 E1.85285
G1 F1200
G1 X205 Y140 E.92643
SET_PRESSURE_ADVANCE ADVANCE=0.032; Override pressure advance value
M73 P25 R2
G1 E-.5 F1800
G1 X125 Y143.5 F15000
G1 E.5 F1800
G1 F1200
G1 X145 Y143.5 E.92643
G1 F6000
G1 X185 Y143.5 E1.85285
G1 F1200
G1 X205 Y143.5 E.92643
SET_PRESSURE_ADVANCE ADVANCE=0.034; Override pressure advance value
M73 P26 R2
G1 E-.5 F1800
G1 X125 Y147 F15000
G1 E.5 F1800
G1 F1200
G1 X145 Y147 E.92643
M73 P27 R2
G1 F6000
G1 X185 Y147 E1.85285
G1 F1200
G1 X205 Y147 E.92643
SET_PRESSURE_ADVANCE ADVANCE=0.036; Override pressure advance value
G1 E-.5 F1800
G1 X125 Y150.5 F15000
G1 E.5 F1800
G1 F1200
G1 X145 Y150.5 E.92643
M73 P28 R2
G1 F6000
G1 X185 Y150.5 E1.85285
G1 F1200
G1 X205 Y150.5 E.92643
SET_PRESSURE_ADVANCE ADVANCE=0.038; Override pressure advance value
M73 P29 R2
G1 E-.5 F1800
G1 X125 Y154 F15000
G1 E.5 F1800
G1 F1200
G1 X145 Y154 E.92643
G1 F6000
G1 X185 Y154 E1.85285
G1 F1200
G1 X205 Y154 E.92643
SET_PRESSURE_ADVANCE ADVANCE=0.04; Override pressure advance value
M73 P30 R2
G1 E-.5 F1800
G1 X125 Y157.5 F15000
G1 E.5 F1800
G1 F1200
G1 X145 Y157.5 E.92643
M73 P31 R2
G1 F6000
G1 X185 Y157.5 E1.85285
G1 F1200
G1 X205 Y157.5 E.92643
SET_PRESSURE_ADVANCE ADVANCE=0.042; Override pressure advance value
G1 E-.5 F1800
G1 X125 Y161 F15000
G1 E.5 F1800
G1 F1200
G1 X145 Y161 E.92643
M73 P32 R2
G1 F6000
G1 X185 Y161 E1.85285
G1 F1200
G1 X205 Y161 E.92643
SET_PRESSURE_ADVANCE ADVANCE=0.044; Override pressure advance value
M73 P33 R2
G1 E-.5 F1800
G1 X125 Y164.5 F15000
G1 E.5 F1800
G1 F1200
G1 X145 Y164.5 E.92643
G1 F6000
G1 X185 Y164.5 E1.85285
G1 F1200
G1 X205 Y164.5 E.92643
SET_PRESSURE_ADVANCE ADVANCE=0.046; Override pressure advance value
M73 P34 R2
G1 E-.5 F1800
G1 X125 Y168 F15000
G1 E.5 F1800
G1 F1200
G1 X145 Y168 E.92643
M73 P35 R2
G1 F6000
G1 X185 Y168 E1.85285
G1 F1200
G1 X205 Y168 E.92643
SET_PRESSURE_ADVANCE ADVANCE=0.048; Override pressure advance value
G1 E-.5 F1800
G1 X125 Y171.5 F15000
G1 E.5 F1800
G1 F1200
G1 X145 Y171.5 E.92643
M73 P36 R2
G1 F6000
G1 X185 Y171.5 E1.85285
G1 F1200
G1 X205 Y171.5 E.92643
SET_PRESSURE_ADVANCE ADVANCE=0.05; Override pressure advance value
M73 P37 R2
G1 E-.5 F1800
G1 X125 Y175 F15000
G1 E.5 F1800
G1 F1200
G1 X145 Y175 E.92643
G1 F6000
G1 X185 Y175 E1.85285
G1 F1200
G1 X205 Y175 E.92643
SET_PRESSURE_ADVANCE ADVANCE=0.052; Override pressure advance value
M73 P38 R2
G1 E-.5 F1800
G1 X125 Y178.5 F15000
G1 E.5 F1800
G1 F1200
G1 X145 Y178.5 E.92643
M73 P39 R2
G1 F6000
G1 X185 Y178.5 E1.85285
G1 F1200
G1 X205 Y178.5 E.92643
SET_PRESSURE_ADVANCE ADVANCE=0.054; Override pressure advance value
G1 E-.5 F1800
G1 X125 Y182 F15000
G1 E.5 F1800
G1 F1200
G1 X145 Y182 E.92643
M73 P40 R2
G1 F6000
G1 X185 Y182 E1.85285
G1 F1200
G1 X205 Y182 E.92643
SET_PRESSURE_ADVANCE ADVANCE=0.056; Override pressure advance value
M73 P41 R2
G1 E-.5 F1800
G1 X125 Y185.5 F15000
G1 E.5 F1800
G1 F1200
G1 X145 Y185.5 E.92643
G1 F6000
G1 X185 Y185.5 E1.85285
G1 F1200
G1 X205 Y185.5 E.92643
SET_PRESSURE_ADVANCE ADVANCE=0.058; Override pressure advance value
M73 P42 R2
G1 E-.5 F1800
G1 X125 Y189 F15000
G1 E.5 F1800
G1 F1200
G1 X145 Y189 E.92643
M73 P43 R2
G1 F6000
G1 X185 Y189 E1.85285
G1 F1200
G1 X205 Y189 E.92643
SET_PRESSURE_ADVANCE ADVANCE=0.06; Override pressure advance value
G1 E-.5 F1800
G1 X125 Y192.5 F15000
G1 E.5 F1800
G1 F1200
G1 X145 Y192.5 E.92643
M73 P44 R2
G1 F6000
G1 X185 Y192.5 E1.85285
G1 F1200
G1 X205 Y192.5 E.92643
SET_PRESSURE_ADVANCE ADVANCE=0.062; Override pressure advance value
M73 P45 R2
G1 E-.5 F1800
G1 X125 Y196 F15000
G1 E.5 F1800
G1 F1200
G1 X145 Y196 E.92643
G1 F6000
G1 X185 Y196 E1.85285
G1 F1200
G1 X205 Y196 E.92643
SET_PRESSURE_ADVANCE ADVANCE=0.064; Override pressure advance value
M73 P46 R2
G1 E-.5 F1800
G1 X125 Y199.5 F15000
G1 E.5 F1800
G1 F1200
G1 X145 Y199.5 E.92643
M73 P47 R2
G1 F6000
G1 X185 Y199.5 E1.85285
G1 F1200
G1 X205 Y199.5 E.92643
SET_PRESSURE_ADVANCE ADVANCE=0.066; Override pressure advance value
M73 P47 R1
G1 E-.5 F1800
G1 X125 Y203 F15000
G1 E.5 F1800
G1 F1200
G1 X145 Y203 E.92643
M73 P48 R1
G1 F6000
G1 X185 Y203 E1.85285
G1 F1200
G1 X205 Y203 E.92643
SET_PRESSURE_ADVANCE ADVANCE=0.068; Override pressure advance value
M73 P49 R1
G1 E-.5 F1800
G1 X125 Y206.5 F15000
G1 E.5 F1800
G1 F1200
G1 X145 Y206.5 E.92643
G1 F6000
G1 X185 Y206.5 E1.85285
G1 F1200
G1 X205 Y206.5 E.92643
SET_PRESSURE_ADVANCE ADVANCE=0.07; Override pressure advance value
M73 P50 R1
G1 E-.5 F1800
G1 X125 Y210 F15000
G1 E.5 F1800
G1 F1200
G1 X145 Y210 E.92643
M73 P51 R1
G1 F6000
G1 X185 Y210 E1.85285
G1 F1200
G1 X205 Y210 E.92643
SET_PRESSURE_ADVANCE ADVANCE=0.072; Override pressure advance value
G1 E-.5 F1800
G1 X125 Y213.5 F15000
G1 E.5 F1800
G1 F1200
G1 X145 Y213.5 E.92643
M73 P52 R1
G1 F6000
G1 X185 Y213.5 E1.85285
G1 F1200
G1 X205 Y213.5 E.92643
SET_PRESSURE_ADVANCE ADVANCE=0.074; Override pressure advance value
M73 P53 R1
G1 E-.5 F1800
G1 X125 Y217 F15000
G1 E.5 F1800
G1 F1200
G1 X145 Y217 E.92643
G1 F6000
G1 X185 Y217 E1.85285
G1 F1200
G1 X205 Y217 E.92643
SET_PRESSURE_ADVANCE ADVANCE=0.076; Override pressure advance value
M73 P54 R1
G1 E-.5 F1800
G1 X125 Y220.5 F15000
G1 E.5 F1800
G1 F1200
G1 X145 Y220.5 E.92643
M73 P55 R1
G1 F6000
G1 X185 Y220.5 E1.85285
G1 F1200
G1 X205 Y220.5 E.92643
SET_PRESSURE_ADVANCE ADVANCE=0.078; Override pressure advance value
G1 E-.5 F1800
G1 X125 Y224 F15000
G1 E.5 F1800
G1 F1200
G1 X145 Y224 E.92643
M73 P56 R1
G1 F6000
G1 X185 Y224 E1.85285
G1 F1200
G1 X205 Y224 E.92643
SET_PRESSURE_ADVANCE ADVANCE=0.08; Override pressure advance value
M73 P57 R1
G1 E-.5 F1800
G1 X125 Y227.5 F15000
G1 E.5 F1800
G1 F1200
G1 X145 Y227.5 E.92643
G1 F6000
G1 X185 Y227.5 E1.85285
G1 F1200
G1 X205 Y227.5 E.92643
SET_PRESSURE_ADVANCE ADVANCE=0.082; Override pressure advance value
M73 P58 R1
G1 E-.5 F1800
G1 X125 Y231 F15000
G1 E.5 F1800
G1 F1200
G1 X145 Y231 E.92643
M73 P59 R1
G1 F6000
G1 X185 Y231 E1.85285
G1 F1200
G1 X205 Y231 E.92643
SET_PRESSURE_ADVANCE ADVANCE=0.084; Override pressure advance value
G1 E-.5 F1800
G1 X125 Y234.5 F15000
G1 E.5 F1800
G1 F1200
G1 X145 Y234.5 E.92643
M73 P60 R1
G1 F6000
G1 X185 Y234.5 E1.85285
G1 F1200
G1 X205 Y234.5 E.92643
SET_PRESSURE_ADVANCE ADVANCE=0.086; Override pressure advance value
M73 P61 R1
G1 E-.5 F1800
G1 X125 Y238 F15000
G1 E.5 F1800
G1 F1200
G1 X145 Y238 E.92643
G1 F6000
G1 X185 Y238 E1.85285
G1 F1200
G1 X205 Y238 E.92643
SET_PRESSURE_ADVANCE ADVANCE=0.088; Override pressure advance value
M73 P62 R1
G1 E-.5 F1800
G1 X125 Y241.5 F15000
G1 E.5 F1800
G1 F1200
G1 X145 Y241.5 E.92643
M73 P63 R1
G1 F6000
G1 X185 Y241.5 E1.85285
G1 F1200
G1 X205 Y241.5 E.92643
SET_PRESSURE_ADVANCE ADVANCE=0.09; Override pressure advance value
G1 E-.5 F1800
G1 X125 Y245 F15000
G1 E.5 F1800
G1 F1200
G1 X145 Y245 E.92643
M73 P64 R1
G1 F6000
G1 X185 Y245 E1.85285
G1 F1200
G1 X205 Y245 E.92643
SET_PRESSURE_ADVANCE ADVANCE=0.092; Override pressure advance value
M73 P65 R1
G1 E-.5 F1800
G1 X125 Y248.5 F15000
G1 E.5 F1800
G1 F1200
G1 X145 Y248.5 E.92643
G1 F6000
G1 X185 Y248.5 E1.85285
G1 F1200
G1 X205 Y248.5 E.92643
SET_PRESSURE_ADVANCE ADVANCE=0.094; Override pressure advance value
M73 P66 R1
G1 E-.5 F1800
G1 X125 Y252 F15000
G1 E.5 F1800
G1 F1200
G1 X145 Y252 E.92643
M73 P67 R1
G1 F6000
G1 X185 Y252 E1.85285
G1 F1200
G1 X205 Y252 E.92643
SET_PRESSURE_ADVANCE ADVANCE=0.096; Override pressure advance value
G1 E-.5 F1800
G1 X125 Y255.5 F15000
G1 E.5 F1800
G1 F1200
G1 X145 Y255.5 E.92643
M73 P68 R1
G1 F6000
G1 X185 Y255.5 E1.85285
G1 F1200
G1 X205 Y255.5 E.92643
SET_PRESSURE_ADVANCE ADVANCE=0.098; Override pressure advance value
M73 P69 R1
G1 E-.5 F1800
G1 X125 Y259 F15000
G1 E.5 F1800
G1 F1200
G1 X145 Y259 E.92643
G1 F6000
G1 X185 Y259 E1.85285
G1 F1200
G1 X205 Y259 E.92643
SET_PRESSURE_ADVANCE ADVANCE=0; Override pressure advance value
M73 P70 R1
G1 F6000
G1 E-.5 F1800
G1 X145 Y261 F15000
G1 E.5 F1800
G1 X145 Y266 E.23112
G1 E-.5 F1800
G1 X185 Y266 F15000
G1 E.5 F1800
G1 X185 Y261 E.23112
G1 F3600
G1 E-.5 F1800
G1 X208 Y89.25 F15000
M73 P71 R1
G1 E.5 F1800
G1 X210 Y89.25 E.07269
G1 X210 Y85.25 E.14537
G1 X208 Y85.25 E.07269
G1 X208 Y89.01 E.14537
G1 F3600
G1 E-.5 F1800
G1 X208 Y96.25 F15000
G1 E.5 F1800
G1 X210 Y96.25 E.07269
G1 X210 Y92.25 E.14537
G1 X208 Y92.25 E.07269
G1 X208 Y96.01 E.14537
G1 E-.5 F1800
G1 X212 Y92.25 F15000
G1 E.5 F1800
G1 X212 Y93.25 E.07269
G1 E-.5 F1800
G1 X214 Y96.25 F15000
G1 E.5 F1800
G1 X216 Y96.25 E.07269
G1 X216 Y92.25 E.14537
M73 P72 R1
G1 X214 Y92.25 E.07269
G1 X214 Y96.01 E.14537
G1 E-.5 F1800
G1 X217 Y96.25 F15000
G1 E.5 F1800
G1 X219 Y96.25 E.07269
G1 X219 Y92.25 E.14537
G1 X217 Y92.25 E.07269
G1 X217 Y96.01 E.14537
G1 E-.5 F1800
G1 X220 Y96.25 F15000
G1 E.5 F1800
G1 X220 Y94.25 E.07269
G1 X222 Y94.25 E.07269
G1 E-.5 F1800
G1 X222 Y96.25 F15000
G1 E.5 F1800
G1 X222 Y92.25 E.14537
G1 F3600
G1 E-.5 F1800
G1 X208 Y103.25 F15000
G1 E.5 F1800
G1 X210 Y103.25 E.07269
G1 X210 Y99.25 E.14537
G1 X208 Y99.25 E.07269
G1 X208 Y103.01 E.14537
M73 P73 R1
G1 E-.5 F1800
G1 X212 Y99.25 F15000
G1 E.5 F1800
G1 X212 Y100.25 E.07269
G1 E-.5 F1800
G1 X214 Y103.25 F15000
G1 E.5 F1800
G1 X216 Y103.25 E.07269
G1 X216 Y99.25 E.14537
G1 X214 Y99.25 E.07269
G1 X214 Y103.01 E.14537
G1 E-.5 F1800
G1 X217 Y103.25 F15000
G1 E.5 F1800
G1 X219 Y103.25 E.07269
G1 X219 Y99.25 E.14537
G1 X217 Y99.25 E.07269
G1 X217 Y103.01 E.14537
G1 E-.5 F1800
G1 X222 Y101.25 F15000
G1 E.5 F1800
G1 X220 Y101.25 E.07269
G1 X220 Y99.25 E.07269
G1 X222 Y99.25 E.07269
G1 X222 Y103.25 E.14537
M73 P73 R0
G1 X220 Y103.25 E.07269
G1 X220 Y101.25 E.07269
G1 F3600
G1 E-.5 F1800
G1 X208 Y110.25 F15000
M73 P74 R0
G1 E.5 F1800
G1 X210 Y110.25 E.07269
G1 X210 Y106.25 E.14537
G1 X208 Y106.25 E.07269
G1 X208 Y110.01 E.14537
G1 E-.5 F1800
G1 X212 Y106.25 F15000
G1 E.5 F1800
G1 X212 Y107.25 E.07269
G1 E-.5 F1800
G1 X214 Y110.25 F15000
G1 E.5 F1800
G1 X216 Y110.25 E.07269
G1 X216 Y106.25 E.14537
G1 X214 Y106.25 E.07269
G1 X214 Y110.01 E.14537
G1 E-.5 F1800
G1 X218 Y110.25 F15000
G1 E.5 F1800
G1 X218 Y106.25 E.14537
G1 E-.5 F1800
G1 X220 Y110.25 F15000
G1 E.5 F1800
G1 X222 Y110.25 E.07269
G1 X222 Y108.25 E.07269
G1 X220 Y108.25 E.07269
M73 P75 R0
G1 X220 Y106.25 E.07269
G1 X222 Y106.25 E.07269
G1 F3600
G1 E-.5 F1800
G1 X208 Y117.25 F15000
G1 E.5 F1800
G1 X210 Y117.25 E.07269
G1 X210 Y113.25 E.14537
G1 X208 Y113.25 E.07269
G1 X208 Y117.01 E.14537
G1 E-.5 F1800
G1 X212 Y113.25 F15000
G1 E.5 F1800
G1 X212 Y114.25 E.07269
G1 E-.5 F1800
G1 X214 Y117.25 F15000
G1 E.5 F1800
G1 X216 Y117.25 E.07269
G1 X216 Y113.25 E.14537
G1 X214 Y113.25 E.07269
G1 X214 Y117.01 E.14537
G1 E-.5 F1800
G1 X218 Y117.25 F15000
G1 E.5 F1800
G1 X218 Y113.25 E.14537
G1 E-.5 F1800
G1 X222 Y117.25 F15000
G1 E.5 F1800
G1 X220 Y117.25 E.07269
M73 P76 R0
G1 X220 Y113.25 E.14537
G1 X222 Y113.25 E.07269
G1 X222 Y115.25 E.07269
G1 X220 Y115.25 E.07269
G1 F3600
G1 E-.5 F1800
G1 X208 Y124.25 F15000
G1 E.5 F1800
G1 X210 Y124.25 E.07269
G1 X210 Y120.25 E.14537
G1 X208 Y120.25 E.07269
G1 X208 Y124.01 E.14537
G1 E-.5 F1800
G1 X212 Y120.25 F15000
G1 E.5 F1800
G1 X212 Y121.25 E.07269
G1 E-.5 F1800
G1 X214 Y124.25 F15000
G1 E.5 F1800
G1 X216 Y124.25 E.07269
G1 X216 Y120.25 E.14537
G1 X214 Y120.25 E.07269
G1 X214 Y124.01 E.14537
G1 E-.5 F1800
G1 X217 Y124.25 F15000
G1 E.5 F1800
G1 X219 Y124.25 E.07269
G1 X219 Y122.25 E.07269
M73 P77 R0
G1 X217 Y122.25 E.07269
G1 X217 Y120.25 E.07269
G1 X219 Y120.25 E.07269
G1 F3600
G1 E-.5 F1800
G1 X208 Y131.25 F15000
