; generated by SuperSlicer 2.4 on 2023-11-15 at 20:20:32 UTC


;
;

;
;
; 

; external perimeters extrusion width = 0.42mm
; perimeters extrusion width = 0.44mm
; infill extrusion width = 0.44mm
; solid infill extrusion width = 0.44mm
; top infill extrusion width = 0.42mm
; support material extrusion width = 0.42mm
; first layer extrusion width = 0.56mm

; object:{"name":"stringing_test","id":"stringing_test.stl id:0 copy 0","object_center":[90.922650,64.757412,0.000000],"boundingbox_center":[90.922650,64.757412,50.000000],"boundingbox_size":[70.710678,70.710678,100.000000]}
; plater:{"center":[90.922650,64.757412,0.000000],"boundingbox_center":[90.922650,64.757412,50.000000],"boundingbox_size":[70.710678,70.710678,100.000000]}

M73 P0 R143


; Pre-Processed for Cancel-Object support by preprocess_cancellation v0.2.0
; 1 known objects
EXCLUDE_OBJECT_DEFINE NAME=stringing_test_stl_id_0_copy_0 CENTER=90.864,64.633 POLYGON=[[55.227,29.062],[55.227,100.453],[126.618,100.453],[126.618,29.062]]
;TYPE:Custom
; custom gcode: start_gcode
M104 S0 ; Stops SuperSlicer from sending temp waits separately
M140 S0
print_start EXTRUDER=220 BED=105 CHAMBER=40
; custom gcode end: start_gcode
M107
G21 ; set units to millimeters
G90 ; use absolute coordinates
M83 ; use relative distances for extrusion
; custom gcode: start_filament_gcode
; Filament gcode
; Macro syntax: https://help.prusa3d.com/article/macros_1775

; Set pressure advance per-filament
;SET_PRESSURE_ADVANCE ADVANCE=0.0372

; Set pressure advance per-filament for different nozzle sizes
;SET_PRESSURE_ADVANCE ADVANCE=0.0x
;

; custom gcode end: start_filament_gcode
;_TOOLCHANGE 0
;LAYER_CHANGE
;Z:0.3
;HEIGHT:0.3
G1 Z0.3 F7800
G92 E0
G10 ; retract
M73 P0 R142
G1 Z0.6
G1 X37.571 Y37.571
G1 Z0.3
G11 ; unretract
;TYPE:Skirt
;WIDTH:0.52
G1 F1800
G1 X36.384 Y38.758 E0.08833
G1 X34.823 Y41.374 E0.16029
G1 X34.575 Y43.583 E0.11699
G1 X35.118 Y45.738 E0.11699
G1 X36.384 Y47.566 E0.11699
G1 X108.114 Y119.296 E5.33807
G1 X110.73 Y120.857 E0.16029
G1 X112.939 Y121.106 E0.11699
G1 X115.095 Y120.562 E0.11699
G1 X116.922 Y119.296 E0.11699
G1 X145.461 Y90.757 E2.12385
G1 X147.023 Y88.141 E0.16029
G1 X147.271 Y85.932 E0.11699
G1 X146.727 Y83.776 E0.11699
G1 X145.461 Y81.949 E0.11699
G1 X73.731 Y10.219 E5.33807
G1 X71.116 Y8.657 E0.16029
G1 X68.906 Y8.409 E0.11699
G1 X66.751 Y8.953 E0.11699
G1 X64.923 Y10.219 E0.11699
G1 X37.571 Y37.571 E2.03552
G10 ; retract
G1 Z0.6 F7800
G1 X45.86 Y39.738
G1 Z0.3
G11 ; unretract
;WIDTH:0.56
G1 F1800
G1 X45.865 Y39.719 E0.00114
G1 X46.582 Y38.237 E0.0942
G1 X47.57 Y36.871 E0.09653
G1 X63.225 Y21.246 E1.26611
G1 X64.761 Y20.214 E0.10589
G1 X66.516 Y19.486 E0.10875
G1 X68.39 Y19.129 E0.10926
G1 X70.303 Y19.13 E0.1095
G1 X71.868 Y19.411 E0.09101
G1 X73.386 Y19.954 E0.09227
G1 X75.685 Y21.455 E0.15717
G1 X134.186 Y79.956 E4.73578
G1 X135.534 Y81.902 E0.13551
G1 X136.058 Y83.135 E0.07668
G1 X136.421 Y84.413 E0.07606
G1 X136.549 Y87.334 E0.16739
G1 X136.018 Y89.703 E0.13892
G1 X135.412 Y91.017 E0.08287
G1 X134.615 Y92.234 E0.08327
G1 X118.92 Y108.016 E1.2741
G1 X116.967 Y109.369 E0.13595
G1 X115.733 Y109.894 E0.07679
G1 X114.436 Y110.262 E0.07718
G1 X111.053 Y110.332 E0.19368
G1 X109.071 Y109.814 E0.11726
G1 X107.508 Y109.047 E0.09962
G1 X106.11 Y108.009 E0.09971
G1 X47.659 Y49.559 E4.73169
G1 X46.311 Y47.611 E0.13561
G1 X45.786 Y46.377 E0.07678
G1 X45.418 Y45.08 E0.07718
G1 X45.348 Y41.697 E0.19367
G1 X45.86 Y39.738 E0.11589
G1 X46.322 Y39.913 F7800
G1 F1800
G1 X47.018 Y38.473 E0.09154
G1 X47.959 Y37.178 E0.09163
G1 X63.522 Y21.643 E1.25873
G1 X64.975 Y20.662 E0.10033
G1 X66.635 Y19.968 E0.10299
G1 X68.415 Y19.624 E0.10378
G1 X70.238 Y19.622 E0.10435
G1 X71.76 Y19.895 E0.08855
G1 X73.191 Y20.41 E0.08705
G1 X75.353 Y21.824 E0.14784
G1 X133.82 Y80.291 E4.73304
G1 X135.088 Y82.12 E0.12741
G1 X135.586 Y83.285 E0.07254
G1 X135.936 Y84.521 E0.07351
G1 X136.058 Y87.259 E0.15691
G1 X135.557 Y89.519 E0.13252
G1 X134.97 Y90.793 E0.08028
G1 X134.215 Y91.941 E0.07865
G1 X118.584 Y107.651 E1.26855
G1 X116.75 Y108.923 E0.12776
G1 X115.553 Y109.432 E0.07443
G1 X114.331 Y109.776 E0.07268
G1 X111.144 Y109.844 E0.18249
G1 X109.267 Y109.358 E0.11102
G1 X107.747 Y108.612 E0.09688
G1 X106.447 Y107.646 E0.09271
G1 X48.026 Y49.224 E4.72938
G1 X46.757 Y47.394 E0.12747
G1 X46.248 Y46.197 E0.07442
G1 X45.904 Y44.975 E0.07268
G1 X45.836 Y41.788 E0.18248
G1 X46.322 Y39.913 E0.1109
G1 X46.779 Y40.106 F7800
G1 F1800
G1 X47.454 Y38.709 E0.08884
G1 X48.348 Y37.486 E0.08669
G1 X63.819 Y22.041 E1.25139
G1 X65.231 Y21.087 E0.09755
G1 X66.801 Y20.436 E0.09726
G1 X68.484 Y20.115 E0.09808
G1 X70.215 Y20.117 E0.09907
G1 X71.651 Y20.379 E0.08356
G1 X72.995 Y20.866 E0.08184
G1 X75.02 Y22.192 E0.13856
G1 X133.454 Y80.625 E4.73031
G1 X134.642 Y82.338 E0.11931
G1 X135.123 Y83.465 E0.07019
G1 X135.451 Y84.627 E0.06912
G1 X135.561 Y87.247 E0.15011
G1 X135.096 Y89.336 E0.12252
G1 X134.546 Y90.536 E0.07555
G1 X133.814 Y91.647 E0.07614
G1 X118.249 Y107.285 E1.26301
G1 X116.532 Y108.477 E0.11961
G1 X115.404 Y108.959 E0.07025
G1 X114.227 Y109.291 E0.06997
G1 X111.234 Y109.355 E0.17135
G1 X109.461 Y108.901 E0.10478
G1 X108.024 Y108.201 E0.09153
G1 X106.785 Y107.283 E0.08827
G1 X48.392 Y48.889 E4.72706
G1 X47.203 Y47.176 E0.11937
G1 X46.721 Y46.048 E0.07025
G1 X46.389 Y44.871 E0.06997
G1 X46.325 Y41.878 E0.17135
G1 X46.779 Y40.106 E0.10472
G1 X47.236 Y40.298 F7800
G1 F1800
G1 X47.868 Y38.983 E0.08353
G1 X48.737 Y37.794 E0.08429
G1 X64.117 Y22.438 E1.24412
G1 X65.446 Y21.534 E0.09195
G1 X66.92 Y20.917 E0.09147
G1 X68.508 Y20.611 E0.0926
G1 X70.149 Y20.609 E0.09392
G1 X71.502 Y20.852 E0.07867
G1 X72.799 Y21.322 E0.07898
G1 X74.688 Y22.561 E0.12928
G1 X133.087 Y80.96 E4.72759
G1 X134.196 Y82.556 E0.11124
G1 X134.651 Y83.615 E0.06598
G1 X134.967 Y84.734 E0.06654
G1 X135.07 Y87.172 E0.13969
G1 X134.634 Y89.154 E0.11615
G1 X134.103 Y90.312 E0.07294
G1 X133.415 Y91.353 E0.07145
G1 X117.913 Y106.92 E1.25751
G1 X116.314 Y108.031 E0.11149
G1 X115.254 Y108.486 E0.06604
G1 X114.123 Y108.805 E0.06725
G1 X111.324 Y108.867 E0.16027
G1 X109.654 Y108.444 E0.09856
G1 X108.3 Y107.788 E0.08616
G1 X107.122 Y106.919 E0.08378
G1 X48.758 Y48.555 E4.72473
G1 X47.649 Y46.958 E0.1113
G1 X47.194 Y45.897 E0.06604
G1 X46.875 Y44.767 E0.06725
G1 X46.813 Y41.968 E0.16027
G1 X47.236 Y40.298 E0.09856
G1 X47.694 Y40.49 F7800
G1 F1800
G1 X48.305 Y39.219 E0.08077
G1 X49.125 Y38.103 E0.07926
G1 X64.416 Y22.834 E1.23698
G1 X65.66 Y21.982 E0.08631
G1 X67.087 Y21.385 E0.08854
G1 X68.578 Y21.102 E0.08683
G1 X70.126 Y21.105 E0.08864
G1 X71.392 Y21.336 E0.07366
G1 X72.602 Y21.778 E0.07374
G1 X74.355 Y22.929 E0.12005
G1 X132.721 Y81.295 E4.72487
G1 X133.751 Y82.775 E0.10318
G1 X134.189 Y83.796 E0.06361
G1 X134.482 Y84.84 E0.06207
G1 X134.574 Y87.16 E0.13291
G1 X134.172 Y88.972 E0.10625
G1 X133.679 Y90.055 E0.06812
G1 X133.015 Y91.059 E0.06892
G1 X117.578 Y106.554 E1.25201
G1 X116.095 Y107.586 E0.10339
G1 X115.073 Y108.024 E0.06367
G1 X114.019 Y108.319 E0.06265
G1 X111.412 Y108.378 E0.1493
G1 X109.846 Y107.986 E0.09236
G1 X108.575 Y107.375 E0.08077
G1 X107.459 Y106.555 E0.07924
M73 P0 R141
G1 X49.124 Y48.22 E4.7224
G1 X48.094 Y46.739 E0.10323
G1 X47.656 Y45.717 E0.06366
G1 X47.361 Y44.663 E0.06265
G1 X47.302 Y42.056 E0.14929
G1 X47.694 Y40.49 E0.09236
G1 X48.152 Y40.681 F7800
G1 F1800
G1 X48.718 Y39.493 E0.07535
G1 X49.489 Y38.44 E0.07466
G1 X64.716 Y23.229 E1.23204
G1 X65.876 Y22.428 E0.08069
G1 X67.206 Y21.866 E0.08264
G1 X68.602 Y21.598 E0.08133
G1 X70.06 Y21.596 E0.0835
G1 X71.242 Y21.809 E0.06872
G1 X72.405 Y22.234 E0.07088
G1 X74.023 Y23.297 E0.11083
G1 X132.355 Y81.63 E4.72217
G1 X133.305 Y82.994 E0.09515
G1 X133.716 Y83.946 E0.05933
G1 X133.996 Y84.946 E0.05947
G1 X134.083 Y87.085 E0.12256
G1 X133.71 Y88.791 E0.09992
G1 X133.236 Y89.832 E0.06548
G1 X132.616 Y90.764 E0.06413
G1 X117.243 Y106.189 E1.24657
G1 X115.876 Y107.141 E0.09532
G1 X114.924 Y107.552 E0.05938
G1 X113.916 Y107.834 E0.05992
G1 X111.499 Y107.889 E0.13838
G1 X110.037 Y107.528 E0.08618
G1 X108.849 Y106.962 E0.07535
G1 X107.796 Y106.191 E0.07465
G1 X49.49 Y47.885 E4.72005
G1 X48.539 Y46.52 E0.0952
G1 X48.128 Y45.567 E0.05938
G1 X47.846 Y44.559 E0.05992
G1 X47.791 Y42.143 E0.13838
G1 X48.152 Y40.681 E0.08618
G1 X48.611 Y40.87 F7800
G1 F1800
G1 X49.133 Y39.766 E0.06992
G1 X49.853 Y38.777 E0.07001
G1 X65.017 Y23.623 E1.22716
G1 X66.094 Y22.874 E0.07511
G1 X67.326 Y22.348 E0.07666
G1 X68.672 Y22.089 E0.07845
G1 X70.037 Y22.092 E0.07815
G1 X71.132 Y22.292 E0.06369
G1 X72.207 Y22.689 E0.06559
G1 X73.69 Y23.666 E0.10166
G1 X131.99 Y81.965 E4.71948
M73 P1 R141
G1 X132.861 Y83.214 E0.08718
G1 X133.244 Y84.096 E0.05501
G1 X133.511 Y85.051 E0.05682
G1 X133.586 Y87.072 E0.11575
G1 X133.248 Y88.61 E0.09013
G1 X132.813 Y89.574 E0.06055
G1 X132.217 Y90.47 E0.06158
G1 X116.907 Y105.823 E1.24113
G1 X115.657 Y106.695 E0.08727
G1 X114.743 Y107.09 E0.05698
G1 X113.813 Y107.348 E0.05526
G1 X111.584 Y107.4 E0.12759
G1 X110.226 Y107.069 E0.08001
G1 X109.122 Y106.547 E0.06992
G1 X108.133 Y105.827 E0.07
G1 X49.856 Y47.55 E4.71769
G1 X48.985 Y46.301 E0.08718
G1 X48.59 Y45.387 E0.05698
G1 X48.332 Y44.456 E0.05526
G1 X48.28 Y42.228 E0.12759
G1 X48.611 Y40.87 E0.08001
G1 X49.07 Y41.059 F7800
G1 F1800
G1 X49.571 Y39.999 E0.06711
G1 X50.217 Y39.114 E0.0627
G1 X65.319 Y24.017 E1.22238
G1 X66.314 Y23.319 E0.06955
G1 X67.447 Y22.829 E0.07066
G1 X68.696 Y22.585 E0.07284
G1 X69.97 Y22.583 E0.07292
G1 X71.021 Y22.776 E0.06116
G1 X72.007 Y23.144 E0.06025
G1 X73.357 Y24.034 E0.09257
G1 X131.624 Y82.3 E4.71679
G1 X132.416 Y83.434 E0.0792
G1 X132.782 Y84.277 E0.0526
G1 X133.026 Y85.156 E0.05221
G1 X133.095 Y86.998 E0.1055
G1 X132.786 Y88.43 E0.08386
G1 X132.369 Y89.351 E0.05787
G1 X131.818 Y90.174 E0.05668
G1 X116.572 Y105.458 E1.23576
G1 X115.437 Y106.251 E0.07926
G1 X114.594 Y106.617 E0.05261
G1 X113.71 Y106.862 E0.05252
G1 X111.668 Y106.91 E0.11688
G1 X110.415 Y106.61 E0.07379
G1 X109.355 Y106.109 E0.06711
G1 X108.47 Y105.463 E0.0627
G1 X50.222 Y47.215 E4.71535
G1 X49.429 Y46.08 E0.0792
G1 X49.063 Y45.238 E0.0526
G1 X48.818 Y44.353 E0.05252
G1 X48.77 Y42.312 E0.11688
G1 X49.07 Y41.059 E0.07379
G1 X49.53 Y41.245 F7800
G1 F1800
G1 X49.986 Y40.271 E0.0616
G1 X50.581 Y39.451 E0.058
G1 X65.623 Y24.409 E1.21766
G1 X66.534 Y23.764 E0.06393
G1 X67.619 Y23.295 E0.06763
G1 X68.766 Y23.076 E0.06686
G1 X69.904 Y23.075 E0.06515
G1 X70.869 Y23.248 E0.05608
G1 X71.808 Y23.598 E0.05737
G1 X73.025 Y24.402 E0.08348
G1 X131.258 Y82.635 E4.71412
G1 X131.972 Y83.655 E0.07128
G1 X132.309 Y84.427 E0.04819
G1 X132.541 Y85.26 E0.04953
G1 X132.599 Y86.984 E0.09871
G1 X132.323 Y88.251 E0.07422
G1 X131.946 Y89.093 E0.05281
G1 X131.42 Y89.878 E0.0541
G1 X116.236 Y105.092 E1.23039
G1 X115.215 Y105.807 E0.07133
G1 X114.444 Y106.144 E0.04819
G1 X113.607 Y106.376 E0.04976
G1 X111.751 Y106.42 E0.10625
G1 X110.601 Y106.15 E0.06759
G1 X109.627 Y105.694 E0.0616
G1 X108.807 Y105.099 E0.058
G1 X50.587 Y46.88 E4.71299
G1 X49.874 Y45.859 E0.07128
G1 X49.536 Y45.088 E0.04819
G1 X49.304 Y44.25 E0.04976
G1 X49.26 Y42.395 E0.10625
G1 X49.53 Y41.245 E0.06759
G1 X49.99 Y41.43 F7800
G1 F1800
G1 X50.402 Y40.541 E0.05606
G1 X50.946 Y39.787 E0.05323
G1 X65.958 Y24.775 E1.21529
G1 X66.798 Y24.184 E0.05878
G1 X67.788 Y23.762 E0.06163
G1 X68.834 Y23.567 E0.06087
G1 X69.881 Y23.571 E0.05992
G1 X70.757 Y23.732 E0.05102
G1 X71.607 Y24.052 E0.05197
G1 X72.692 Y24.77 E0.07447
G1 X130.892 Y82.97 E4.71146
G1 X131.528 Y83.877 E0.06336
G1 X131.848 Y84.609 E0.04575
G1 X132.055 Y85.364 E0.04479
G1 X132.108 Y86.91 E0.08857
G1 X131.86 Y88.072 E0.06801
G1 X131.502 Y88.87 E0.05008
G1 X131.022 Y89.581 E0.04908
G1 X115.901 Y104.727 E1.22511
G1 X114.994 Y105.362 E0.06339
G1 X114.262 Y105.683 E0.04575
G1 X113.505 Y105.89 E0.04495
G1 X111.832 Y105.93 E0.09578
G1 X110.786 Y105.69 E0.06142
G1 X109.897 Y105.278 E0.05606
G1 X109.143 Y104.734 E0.05323
G1 X50.953 Y46.544 E4.71062
G1 X50.318 Y45.638 E0.06336
G1 X49.997 Y44.906 E0.04575
G1 X49.79 Y44.149 E0.04495
G1 X49.75 Y42.476 E0.09578
G1 X49.99 Y41.43 E0.06142
G1 X50.452 Y41.613 F7800
G1 F1800
G1 X50.818 Y40.81 E0.0505
G1 X51.31 Y40.123 E0.04838
G1 X66.293 Y25.141 E1.21287
G1 X67.06 Y24.606 E0.05353
G1 X67.956 Y24.229 E0.05563
G1 X68.857 Y24.063 E0.05243
G1 X69.815 Y24.063 E0.05486
G1 X70.604 Y24.203 E0.04586
G1 X71.406 Y24.506 E0.04907
G1 X72.359 Y25.138 E0.06546
G1 X130.527 Y83.306 E4.70882
G1 X131.084 Y84.099 E0.05552
G1 X131.375 Y84.758 E0.0412
G1 X131.569 Y85.467 E0.04209
G1 X131.617 Y86.838 E0.07853
G1 X131.396 Y87.895 E0.06183
G1 X131.079 Y88.611 E0.04481
G1 X130.625 Y89.284 E0.04646
G1 X115.565 Y104.361 E1.21983
G1 X114.772 Y104.919 E0.05553
G1 X114.113 Y105.21 E0.04121
G1 X113.403 Y105.405 E0.04217
G1 X111.911 Y105.44 E0.08541
G1 X110.969 Y105.228 E0.05528
G1 X110.166 Y104.862 E0.0505
G1 X109.479 Y104.37 E0.04838
G1 X51.319 Y46.209 E4.70823
G1 X50.761 Y45.416 E0.05552
G1 X50.47 Y44.757 E0.04121
G1 X50.276 Y44.047 E0.04217
G1 X50.24 Y42.555 E0.08541
G1 X50.452 Y41.613 E0.05528
G1 X50.914 Y41.793 F7800
G1 F1800
G1 X51.237 Y41.078 E0.04491
G1 X51.676 Y40.459 E0.04343
G1 X66.628 Y25.507 E1.2104
G1 X67.32 Y25.028 E0.04818
G1 X68.121 Y24.697 E0.04959
G1 X68.922 Y24.555 E0.04656
G1 X69.791 Y24.558 E0.04979
G1 X70.492 Y24.687 E0.04077
G1 X71.203 Y24.959 E0.04359
G1 X72.026 Y25.506 E0.05655
G1 X130.161 Y83.641 E4.70619
G1 X130.641 Y84.322 E0.04767
G1 X130.914 Y84.941 E0.03872
G1 X131.083 Y85.568 E0.0372
G1 X131.121 Y86.823 E0.07188
G1 X130.932 Y87.719 E0.05236
G1 X130.635 Y88.39 E0.04203
G1 X130.229 Y88.985 E0.04126
G1 X115.23 Y103.996 E1.21466
G1 X114.549 Y104.475 E0.04768
G1 X113.93 Y104.749 E0.03872
G1 X113.302 Y104.918 E0.03724
G1 X111.988 Y104.95 E0.07525
G1 X111.149 Y104.766 E0.04916
G1 X110.434 Y104.443 E0.04491
G1 X109.815 Y104.004 E0.04343
G1 X51.684 Y45.874 E4.70581
G1 X51.205 Y45.193 E0.04767
G1 X50.931 Y44.574 E0.03872
G1 X50.762 Y43.946 E0.03724
G1 X50.73 Y42.632 E0.07525
G1 X50.914 Y41.793 E0.04916
G1 X51.378 Y41.97 F7800
G1 F1800
G1 X51.656 Y41.343 E0.0393
G1 X52.041 Y40.794 E0.03837
G1 X66.962 Y25.874 E1.20785
G1 X67.578 Y25.453 E0.04272
G1 X68.282 Y25.166 E0.04352
G1 X68.983 Y25.047 E0.04069
G1 X69.765 Y25.053 E0.04477
G1 X70.377 Y25.169 E0.03566
G1 X70.998 Y25.411 E0.03814
G1 X71.693 Y25.874 E0.04776
G1 X129.796 Y83.977 E4.70357
M73 P1 R140
G1 X130.197 Y84.545 E0.03982
G1 X130.453 Y85.123 E0.03619
G1 X130.597 Y85.668 E0.03224
G1 X130.629 Y86.752 E0.06212
G1 X130.468 Y87.545 E0.04628
G1 X130.213 Y88.13 E0.03654
G1 X129.832 Y88.687 E0.0386
G1 X114.894 Y103.63 E1.20951
G1 X114.326 Y104.032 E0.03982
G1 X113.748 Y104.287 E0.0362
G1 X113.203 Y104.432 E0.03224
G1 X112.063 Y104.459 E0.06531
G1 X111.326 Y104.302 E0.04309
G1 X110.699 Y104.024 E0.0393
G1 X110.15 Y103.639 E0.03837
G1 X52.05 Y45.538 E4.70338
G1 X51.648 Y44.97 E0.03982
G1 X51.393 Y44.392 E0.0362
G1 X51.248 Y43.847 E0.03224
G1 X51.221 Y42.707 E0.06531
G1 X51.378 Y41.97 E0.04309
G1 X51.842 Y42.144 F7800
G1 F1800
G1 X52.077 Y41.605 E0.03367
G1 X52.407 Y41.129 E0.03318
G1 X67.295 Y26.241 E1.20521
G1 X67.833 Y25.878 E0.03711
G1 X68.441 Y25.637 E0.03745
G1 X69.001 Y25.543 E0.03249
G1 X69.738 Y25.549 E0.04222
G1 X70.259 Y25.651 E0.0304
G1 X70.791 Y25.862 E0.03275
G1 X71.359 Y26.241 E0.0391
G1 X129.43 Y84.312 E4.70099
G1 X129.754 Y84.768 E0.03198
G1 X129.991 Y85.305 E0.03361
G1 X130.11 Y85.764 E0.02716
G1 X130.133 Y86.736 E0.05564
G1 X130.003 Y87.37 E0.03707
G1 X129.768 Y87.91 E0.03367
G1 X129.438 Y88.386 E0.03318
G1 X114.559 Y103.265 E1.20451
G1 X114.103 Y103.589 E0.03198
G1 X113.566 Y103.826 E0.03361
G1 X113.107 Y103.945 E0.02716
G1 X112.135 Y103.968 E0.05564
G1 X111.501 Y103.838 E0.03707
G1 X110.961 Y103.603 E0.03367
G1 X110.485 Y103.273 E0.03318
G1 X52.415 Y45.202 E4.70092
G1 X52.091 Y44.747 E0.03198
G1 X51.854 Y44.21 E0.03361
G1 X51.735 Y43.751 E0.02716
G1 X51.712 Y42.779 E0.05564
G1 X51.842 Y42.144 E0.03707
G1 X52.309 Y42.315 F7800
G1 F1800
G1 X52.5 Y41.864 E0.02802
G1 X52.774 Y41.463 E0.02782
G1 X67.628 Y26.609 E1.20247
G1 X68.085 Y26.306 E0.03134
G1 X68.596 Y26.108 E0.0314
G1 X69.018 Y26.039 E0.02447
G1 X69.71 Y26.044 E0.03962
G1 X70.137 Y26.132 E0.02498
